CAWorks-ChrisA/ActorCriticSummarization/MetaDrive-Tut-1Env-v0/td3/progress.csv
,log_dir,frame_per_second,episode_reward,total_steps,total_episodes,total_time,target_q,actor_loss,critic_loss,success_rate,current_q1,current_q2,reward
0,MetaDrive-Tut-1Env-v0,505,8.146224245056063,1665,2,3.2954752445220947,,,,0.0,,,
1,MetaDrive-Tut-1Env-v0,486,9.474440220118048,2666,3,5.481945276260376,,,,0.0,,,
2,MetaDrive-Tut-1Env-v0,487,10.288092729575535,3667,4,7.525609493255615,,,,0.0,,,
3,MetaDrive-Tut-1Env-v0,499,8.785471966173457,4201,5,8.414916753768921,,,,0.0,,,
4,MetaDrive-Tut-1Env-v0,505,8.072960450937876,5072,6,10.027846574783325,,,,0.0,,,
5,MetaDrive-Tut-1Env-v0,501,8.47810358996288,6073,7,12.111171245574951,,,,0.0,,,
6,MetaDrive-Tut-1Env-v0,492,9.148395888768142,7074,8,14.352391958236694,,,,0.0,,,
7,MetaDrive-Tut-1Env-v0,492,9.41933215425567,8075,9,16.384760856628418,,,,0.0,,,
8,MetaDrive-Tut-1Env-v0,489,9.941768942325874,9076,10,18.531776666641235,,,,0.0,,,
9,MetaDrive-Tut-1Env-v0,476,10.84809858066864,10064,11,21.139407634735107,0.015228787437081337,,0.001122152665629983,0.0,0.018604733049869537,0.019001342356204987,0.013701587915420532
10,MetaDrive-Tut-1Env-v0,421,0.4153637436152012,11015,54,26.14888334274292,0.05978156626224518,-0.07253184914588928,0.2051258385181427,0.0,0.06895355135202408,0.07248950004577637,0.004029205068945885
11,MetaDrive-Tut-1Env-v0,395,-0.3371959918398089,12007,69,30.387187242507935,0.05346766859292984,-0.06736506521701813,0.3412913680076599,0.0,0.0608246773481369,0.07279207557439804,-0.018539346754550934
12,MetaDrive-Tut-1Env-v0,371,-1.120831399809062,13030,97,35.06264042854309,0.12740978598594666,,0.20806601643562317,0.0,0.14427296817302704,0.14143848419189453,0.004814998246729374
13,MetaDrive-Tut-1Env-v0,355,-1.381583023580858,14356,102,40.37478566169739,0.15883392095565796,,0.21950876712799072,0.0,0.14295046031475067,0.1510894000530243,-0.018146637827157974
14,MetaDrive-Tut-1Env-v0,347,-1.479600157623067,15357,103,44.23262000083923,0.14002442359924316,-0.2306833416223526,0.6171823740005493,0.0,0.17788395285606384,0.17542219161987305,-0.05431732162833214
15,MetaDrive-Tut-1Env-v0,339,-1.585515695268445,16358,104,48.16166925430298,0.28612369298934937,,0.3153349757194519,0.0,0.29673996567726135,0.2912712097167969,-0.015171928331255913
16,MetaDrive-Tut-1Env-v0,332,-1.593337249368947,17359,105,52.188573598861694,0.3214656114578247,-0.3878319263458252,0.009913529269397259,0.0,0.3304641842842102,0.3318842947483063,0.02501075342297554
17,MetaDrive-Tut-1Env-v0,326,-1.6157854740623332,18360,106,56.242767095565796,0.2534835934638977,,0.0065667228773236275,0.0,0.2658438980579376,0.25922834873199463,-0.0028957370668649673
18,MetaDrive-Tut-1Env-v0,321,-1.7013329591650057,19361,107,60.20370149612427,0.33893531560897827,-0.4003991484642029,0.005060822237282991,0.0,0.3563045263290405,0.35415130853652954,0.023590978235006332
19,MetaDrive-Tut-1Env-v0,316,-1.8167340640247083,20362,108,64.36629891395569,0.32707712054252625,,0.024357080459594727,0.0,0.2828628420829773,0.2793140113353729,0.020073458552360535
20,MetaDrive-Tut-1Env-v0,312,-1.908771713545565,21363,109,68.40499711036682,0.3604203164577484,-0.4177357256412506,0.20601752400398254,0.0,0.36778146028518677,0.36450034379959106,-0.01890522614121437
21,MetaDrive-Tut-1Env-v0,308,-2.030384664143129,22364,110,72.43496990203857,0.39478105306625366,,0.019593248143792152,0.0,0.43635571002960205,0.4365610182285309,0.00282885879278183
22,MetaDrive-Tut-1Env-v0,305,-2.205002198647742,23365,111,76.50033617019653,0.26197350025177,-0.30768489837646484,0.014520293101668358,0.0,0.2862982749938965,0.28035038709640503,0.016079332679510117
23,MetaDrive-Tut-1Env-v0,303,-2.20804769783763,24366,112,80.33843803405762,0.33205586671829224,,0.02229630947113037,0.0,0.287224143743515,0.29216888546943665,0.017470479011535645
24,MetaDrive-Tut-1Env-v0,301,-2.1838310981371514,25367,113,84.25641751289368,0.2741875648498535,-0.3034932017326355,0.009283741936087608,0.0,0.25337329506874084,0.25240617990493774,-0.003828386776149273
25,MetaDrive-Tut-1Env-v0,299,-2.14546948085129,26368,114,88.1736249923706,0.27248430252075195,,0.012897578999400139,0.0,0.27280330657958984,0.2740081548690796,-0.002233689185231924
26,MetaDrive-Tut-1Env-v0,297,-2.1022583036500664,27369,115,92.08723831176758,0.44361412525177,-0.5033116340637207,0.22987952828407288,0.0,0.48232531547546387,0.48400434851646423,-0.002975067123770714
27,MetaDrive-Tut-1Env-v0,295,-2.053259537846653,28370,116,95.94462394714355,0.26988133788108826,,0.09565125405788422,0.0,0.2472849190235138,0.25448912382125854,-0.02768591232597828
28,MetaDrive-Tut-1Env-v0,294,-2.003929332475565,29371,117,99.7773106098175,0.46072670817375183,-0.45444029569625854,0.011320829391479492,0.0,0.41293227672576904,0.41850799322128296,0.01599596068263054
29,MetaDrive-Tut-1Env-v0,293,-1.9565116594274605,30372,118,103.6573634147644,0.4769091010093689,,0.07727797329425812,0.0,0.4388245940208435,0.4460332691669464,-0.04094293713569641
30,MetaDrive-Tut-1Env-v0,288,-0.4836406109283681,31163,134,107.97532057762146,0.4461100995540619,-0.48110145330429077,0.017787521705031395,0.0,0.42938727140426636,0.41926541924476624,0.003281933255493641
31,MetaDrive-Tut-1Env-v0,284,0.5078386113128142,32040,141,112.80308365821838,0.5272022485733032,,0.013301480561494827,0.0,0.5453667640686035,0.5144557952880859,-0.0013960693031549454
32,MetaDrive-Tut-1Env-v0,276,0.9432916460744856,33482,144,120.92047119140625,0.8000025749206543,,0.02077478915452957,0.0,0.8037436008453369,0.8100297451019287,0.01901054196059704
33,MetaDrive-Tut-1Env-v0,272,1.256369845533762,34483,145,126.55504179000854,0.802796483039856,-0.8272892236709595,0.013732552528381348,0.0,0.7590725421905518,0.7621086835861206,-0.005475377198308706
34,MetaDrive-Tut-1Env-v0,268,1.719396223413705,35484,146,132.24624800682068,0.8429746627807617,,0.03318769484758377,0.0,0.8980811238288879,0.9105768203735352,-0.012860601767897606
35,MetaDrive-Tut-1Env-v0,264,2.354340101342757,36272,148,136.91154766082764,1.1371183395385742,,0.011828978545963764,0.0,1.191388487815857,1.1882095336914062,0.020655980333685875
36,MetaDrive-Tut-1Env-v0,261,2.637539819428347,37327,150,142.8759262561798,0.9850059151649475,-1.0636250972747803,0.022954819723963737,0.0,0.9802918434143066,0.9769673943519592,0.022235766053199768
37,MetaDrive-Tut-1Env-v0,258,2.7530911977162207,38328,151,148.46691989898682,1.2486319541931152,,0.290168821811676,0.0,1.2668650150299072,1.257265567779541,0.0031360462307929993
38,MetaDrive-Tut-1Env-v0,255,2.8674299478612846,39329,152,154.11222529411316,1.3427112102508545,-1.370739221572876,0.012905504554510117,0.0,1.3378945589065552,1.332047462463379,0.02244086191058159
39,MetaDrive-Tut-1Env-v0,253,2.965199950958862,40061,153,158.26793026924133,1.4109604358673096,-1.5044962167739868,0.015423820354044437,0.0,1.4108035564422607,1.411929965019226,0.024718554690480232
40,MetaDrive-Tut-1Env-v0,250,3.096312889382268,41062,154,163.98143339157104,1.3649874925613403,,0.8399551510810852,0.0,1.4275178909301758,1.4230965375900269,-0.017428716644644737
41,MetaDrive-Tut-1Env-v0,247,3.2928940124061814,42592,156,172.32460522651672,1.494142770767212,,0.5871011018753052,0.0,1.5077104568481445,1.5156023502349854,-0.00894006434828043
42,MetaDrive-Tut-1Env-v0,245,3.4082208020352325,43593,157,177.84634017944336,1.5682287216186523,-1.6200430393218994,0.09458325803279877,0.0,1.5847269296646118,1.5788283348083496,0.02436712570488453
43,MetaDrive-Tut-1Env-v0,242,3.5376370119332154,44594,158,183.69385600090027,1.7626352310180664,,0.03819923847913742,0.0,1.683559775352478,1.6958107948303223,0.028203370049595833
44,MetaDrive-Tut-1Env-v0,240,3.670015267651505,45595,159,189.32707405090332,1.5975594520568848,-1.7584114074707031,0.4418752193450928,0.0,1.661726474761963,1.6634807586669922,-0.005882747936993837
45,MetaDrive-Tut-1Env-v0,239,3.807343491807594,46596,160,194.94956636428833,1.7996107339859009,,0.026299385353922844,0.0,1.756256341934204,1.7807388305664062,0.003814714029431343
46,MetaDrive-Tut-1Env-v0,237,4.125685188514227,47597,161,200.59741353988647,1.8075801134109497,-1.916290044784546,0.29241418838500977,0.0,1.8923273086547852,1.8963067531585693,-0.0019935574382543564
47,MetaDrive-Tut-1Env-v0,235,4.701518820936378,48598,162,206.40488481521606,1.9163012504577637,,0.7573274374008179,0.0,1.9808719158172607,1.9818310737609863,-0.03935164585709572
48,MetaDrive-Tut-1Env-v0,233,5.393927933876803,49874,164,213.6702754497528,1.9427142143249512,,0.024989716708660126,0.0,1.8853659629821777,1.897702693939209,0.006551237776875496
49,MetaDrive-Tut-1Env-v0,233,5.740622849145957,50045,166,214.63727974891663,1.8987058401107788,-1.99506413936615,0.017561808228492737,0.0,1.87043297290802,1.8936458826065063,0.021628011018037796
50,MetaDrive-Tut-1Env-v0,231,7.206678933214014,51177,179,220.64376068115234,2.1617789268493652,-2.298550844192505,0.7829716205596924,0.0,2.2186033725738525,2.2021641731262207,0.004787155892699957
51,MetaDrive-Tut-1Env-v0,230,7.965994570937589,52110,186,225.78858351707458,2.008938789367676,,0.026501350104808807,0.0,1.9556899070739746,1.959625005722046,0.03359685093164444
52,MetaDrive-Tut-1Env-v0,229,9.586905392860045,53039,201,230.70583319664001,2.1425228118896484,-2.167961597442627,0.2769213914871216,0.0,2.104771375656128,2.112011432647705,0.019481830298900604
53,MetaDrive-Tut-1Env-v0,228,11.444230812581075,54006,215,236.0179591178894,2.123945713043213,,0.5735712647438049,0.0,2.162015676498413,2.150843381881714,0.0028553223237395287
54,MetaDrive-Tut-1Env-v0,227,13.420211747090873,55018,228,241.49253273010254,2.4446394443511963,,0.2463274896144867,0.0,2.430804967880249,2.4151322841644287,0.016123566776514053
55,MetaDrive-Tut-1Env-v0,226,13.896025791986476,56038,243,247.09301614761353,2.1755683422088623,,0.3820689618587494,0.0,2.202000617980957,2.2098987102508545,0.025333084166049957
56,MetaDrive-Tut-1Env-v0,225,14.671410566551742,57008,260,252.3065550327301,2.591783285140991,,0.1930602639913559,0.0,2.4469566345214844,2.422846555709839,0.029783472418785095
57,MetaDrive-Tut-1Env-v0,225,14.985970388389479,58030,276,257.8985617160797,2.9182188510894775,,0.06828050315380096,0.0,2.888296365737915,2.8840179443359375,0.04138254001736641
58,MetaDrive-Tut-1Env-v0,224,16.636329438116306,59010,294,263.34747982025146,2.7149171829223633,,2.263680934906006,0.0,2.783026695251465,2.754087448120117,-0.016837863251566887
59,MetaDrive-Tut-1Env-v0,222,18.17415194837844,60717,307,273.0701026916504,3.629103183746338,-3.9149155616760254,0.40625500679016113,0.0,3.5890369415283203,3.5768184661865234,0.04641946405172348
60,MetaDrive-Tut-1Env-v0,222,18.041707438886895,61012,312,274.6642415523529,3.763643741607666,,0.1426151841878891,0.0,3.784330368041992,3.7229573726654053,0.06559410691261292
61,MetaDrive-Tut-1Env-v0,220,18.663075938856487,62725,324,284.35512256622314,4.54079532623291,-4.6699066162109375,0.37266111373901367,0.0,4.388051986694336,4.430276870727539,0.06976532191038132
62,MetaDrive-Tut-1Env-v0,220,19.56607399680387,63049,327,286.1470866203308,4.766572952270508,-4.999556541442871,0.614509105682373,0.0,4.705801963806152,4.738836765289307,0.08915702253580093
63,MetaDrive-Tut-1Env-v0,218,20.29791880962871,64859,337,296.4204070568085,4.915778636932373,-5.230602741241455,0.9154646992683411,0.0,5.011293411254883,4.9708170890808105,0.04640781879425049
64,MetaDrive-Tut-1Env-v0,218,20.58891512683493,65013,339,297.2078604698181,4.762213706970215,-4.959258079528809,0.1698574274778366,0.0,4.739998817443848,4.745344638824463,0.09297763556241989
65,MetaDrive-Tut-1Env-v0,217,20.77019072631835,66170,342,303.90932631492615,5.580723762512207,,0.9407021999359131,0.0,5.571623802185059,5.506309986114502,0.06771034002304077
66,MetaDrive-Tut-1Env-v0,216,21.097782439988656,67171,343,309.66773533821106,5.489404678344727,-5.563360214233398,0.14273077249526978,0.0,5.388607025146484,5.414450645446777,0.08162080496549606
67,MetaDrive-Tut-1Env-v0,216,22.793248802668014,68050,344,314.82144951820374,5.602538108825684,,0.6982368230819702,0.0,5.546196937561035,5.567042350769043,0.03800011798739433
68,MetaDrive-Tut-1Env-v0,215,24.430243786064967,69193,346,321.32551646232605,5.8062591552734375,-5.995075225830078,0.12288941442966461,0.0,5.806582450866699,5.768484592437744,0.0762024074792862
69,MetaDrive-Tut-1Env-v0,214,26.754850985436146,70194,347,327.063019990921,6.167236328125,,1.0530917644500732,0.0,6.1319403648376465,6.146755218505859,0.04684313014149666
70,MetaDrive-Tut-1Env-v0,213,28.680474217189207,71195,348,332.84702467918396,6.28810977935791,-6.424654960632324,4.177919387817383,0.0,6.420158863067627,6.490670680999756,0.05019454285502434
71,MetaDrive-Tut-1Env-v0,213,30.262771319087154,72148,350,338.61049365997314,6.491294860839844,,0.12602336704730988,0.0,6.489786624908447,6.525793075561523,0.061748623847961426
72,MetaDrive-Tut-1Env-v0,212,34.11401494952042,73462,354,346.37526750564575,7.275936126708984,,0.13063764572143555,0.0,7.159363269805908,7.152687072753906,0.09607726335525513
73,MetaDrive-Tut-1Env-v0,211,35.02739183790035,74167,358,350.48527431488037,6.7470703125,-6.850522994995117,0.19356143474578857,0.0,6.653802871704102,6.657081604003906,0.05645949766039848
74,MetaDrive-Tut-1Env-v0,211,37.096739153708164,75042,364,355.4646866321564,7.383905410766602,,0.9239242076873779,0.0,7.359050273895264,7.286296367645264,0.05432930588722229
75,MetaDrive-Tut-1Env-v0,210,39.162729777212036,76092,370,361.4117696285248,7.62129020690918,,3.775419235229492,0.0,7.637242794036865,7.624016761779785,0.05313298851251602
76,MetaDrive-Tut-1Env-v0,209,41.0031183246128,77138,373,367.3824362754822,7.8606157302856445,,0.3057847023010254,0.0,7.7425994873046875,7.794337272644043,0.07592184096574783
77,MetaDrive-Tut-1Env-v0,209,43.378545318155474,78182,379,373.2245991230011,7.936173439025879,,0.11352010071277618,0.0,7.790640354156494,7.8129143714904785,0.10374325513839722
78,MetaDrive-Tut-1Env-v0,209,44.84700751978761,79176,385,378.82106018066406,8.293354034423828,,2.997652053833008,0.0,8.339820861816406,8.478106498718262,0.07402300834655762
79,MetaDrive-Tut-1Env-v0,208,47.70275997853051,80177,386,384.7751033306122,8.548246383666992,-8.712117195129395,0.29076528549194336,0.0,8.495561599731445,8.52635383605957,0.09941962361335754
80,MetaDrive-Tut-1Env-v0,207,50.76607932334286,81178,387,390.7597200870514,8.267300605773926,,2.712730884552002,0.0,8.252852439880371,8.252431869506836,0.07700732350349426
81,MetaDrive-Tut-1Env-v0,207,53.709054128661116,82179,388,396.68543338775635,9.036619186401367,-9.09587287902832,0.17994433641433716,0.0,8.926251411437988,8.952455520629883,0.0929856225848198
82,MetaDrive-Tut-1Env-v0,206,56.82227013300823,83180,389,402.61708998680115,8.778918266296387,,0.34808942675590515,0.0,8.788007736206055,8.725963592529297,0.0992087796330452
83,MetaDrive-Tut-1Env-v0,206,59.807412155489104,84181,390,408.49165391921997,9.281108856201172,-9.531342506408691,0.5881937742233276,0.0,9.234670639038086,9.271956443786621,0.11283981800079346
84,MetaDrive-Tut-1Env-v0,205,62.905605090851786,85182,391,414.4235908985138,9.764908790588379,,0.9164468050003052,0.0,9.622319221496582,9.601119041442871,0.10186754912137985
85,MetaDrive-Tut-1Env-v0,204,66.12995408854061,86356,393,421.48711466789246,9.44371223449707,,0.9735462069511414,0.0,9.40450668334961,9.404546737670898,0.09828363358974457
86,MetaDrive-Tut-1Env-v0,204,69.21735769265246,87357,394,427.506055355072,9.325834274291992,-9.578981399536133,0.8894654512405396,0.0,9.273816108703613,9.228744506835938,0.07064815610647202
87,MetaDrive-Tut-1Env-v0,203,72.95094740146469,88358,395,433.3792896270752,10.567056655883789,,5.303603649139404,0.0,10.713333129882812,10.673638343811035,0.12366116791963577
88,MetaDrive-Tut-1Env-v0,203,75.99747917334703,89359,396,439.36469292640686,10.073694229125977,-10.311552047729492,0.6368744373321533,0.0,10.187440872192383,10.183145523071289,0.10351207852363586
89,MetaDrive-Tut-1Env-v0,202,79.2110796560134,90360,397,445.3484547138214,10.753532409667969,,0.2838769257068634,0.0,10.827519416809082,10.847229957580566,0.1546364426612854
90,MetaDrive-Tut-1Env-v0,202,82.8086478915046,91361,398,451.19959115982056,10.26194953918457,-10.393360137939453,1.0529478788375854,0.0,10.241090774536133,10.280904769897461,0.10859627276659012
91,MetaDrive-Tut-1Env-v0,201,86.52001386529659,92362,399,457.29256987571716,10.939413070678711,,0.1551389992237091,0.0,10.959510803222656,11.005874633789062,0.14623945951461792
92,MetaDrive-Tut-1Env-v0,201,89.83527099793791,93363,400,463.155330657959,10.940261840820312,-11.062202453613281,0.5707569122314453,0.0,10.901677131652832,10.886958122253418,0.11869321763515472
93,MetaDrive-Tut-1Env-v0,201,93.23989768130745,94364,401,469.3031175136566,10.607648849487305,,7.224843502044678,0.0,10.716179847717285,10.770418167114258,0.08784893155097961
94,MetaDrive-Tut-1Env-v0,200,96.77274671951129,95365,402,475.32158517837524,11.431089401245117,-11.846572875976562,0.8671138882637024,0.0,11.490272521972656,11.476865768432617,0.12751588225364685
95,MetaDrive-Tut-1Env-v0,200,99.30398246188207,96366,403,481.2371757030487,10.809956550598145,,0.6597466468811035,0.0,10.529186248779297,10.631924629211426,0.1342364251613617
96,MetaDrive-Tut-1Env-v0,199,102.92245141437226,97367,404,487.12423300743103,11.782909393310547,-11.832557678222656,0.22625228762626648,0.0,11.662301063537598,11.64076042175293,0.11207495629787445
97,MetaDrive-Tut-1Env-v0,199,106.68379163812135,98368,405,493.2203130722046,10.987325668334961,,0.39707767963409424,0.0,11.034687995910645,11.044647216796875,0.12687796354293823
98,MetaDrive-Tut-1Env-v0,199,109.67582475186354,99369,406,499.0855996608734,11.818681716918945,-11.915508270263672,0.2658747434616089,0.0,11.800127029418945,11.788053512573242,0.14437168836593628
99,MetaDrive-Tut-1Env-v0,198,112.62958231108885,100370,407,505.1977903842926,11.520597457885742,,1.38459050655365,0.0,11.23471450805664,11.190155029296875,0.12711971998214722
100,MetaDrive-Tut-1Env-v0,198,116.25480276726599,101371,408,511.09417629241943,12.273027420043945,-12.44697093963623,0.18063615262508392,0.0,12.32677173614502,12.280022621154785,0.16413050889968872
101,MetaDrive-Tut-1Env-v0,198,120.40570194373032,102372,409,516.9206321239471,12.1596097946167,,5.457776069641113,0.0,12.302666664123535,12.29780101776123,0.10055994987487793
102,MetaDrive-Tut-1Env-v0,197,124.28928965813326,103373,410,522.7524659633636,12.079792022705078,-12.216355323791504,0.6210519075393677,0.0,11.879953384399414,11.94930648803711,0.1733178049325943
103,MetaDrive-Tut-1Env-v0,197,128.78953852563262,104374,411,528.4691083431244,11.605992317199707,,4.803187370300293,0.0,11.662740707397461,11.544118881225586,0.11624036729335785
104,MetaDrive-Tut-1Env-v0,197,133.54845510029764,105375,412,534.2693345546722,12.612176895141602,-12.809836387634277,0.6192916631698608,0.0,12.484922409057617,12.497248649597168,0.1685417741537094
105,MetaDrive-Tut-1Env-v0,196,137.8439099220009,106376,413,540.1524543762207,12.330358505249023,,6.04425048828125,0.0,12.390094757080078,12.361681938171387,0.16817060112953186
106,MetaDrive-Tut-1Env-v0,196,142.15493835176778,107377,414,546.0644595623016,12.1561279296875,-12.404282569885254,11.51315689086914,0.0,12.54283332824707,12.572187423706055,0.12101596593856812
107,MetaDrive-Tut-1Env-v0,196,147.33131353505064,108292,415,551.2493460178375,12.439353942871094,,0.2571914494037628,0.01,12.432245254516602,12.431344985961914,0.17076914012432098
108,MetaDrive-Tut-1Env-v0,196,152.39940046190122,109252,416,556.5271544456482,14.398870468139648,,0.9359580278396606,0.02,14.331686019897461,14.371078491210938,0.1613493263721466
109,MetaDrive-Tut-1Env-v0,196,157.01061300801518,110100,417,561.4316630363464,13.321748733520508,,0.7983458042144775,0.03,13.28746223449707,13.276102066040039,0.14894041419029236
110,MetaDrive-Tut-1Env-v0,195,162.07746950348957,111004,418,566.6262407302856,13.199249267578125,,0.9346152544021606,0.04,13.123153686523438,13.112651824951172,0.14960089325904846
111,MetaDrive-Tut-1Env-v0,195,168.7545431164852,112108,420,573.0138726234436,13.952825546264648,,0.3691381514072418,0.05,13.715095520019531,13.685340881347656,0.17286524176597595
112,MetaDrive-Tut-1Env-v0,195,178.47603843625157,113650,422,582.2286019325256,14.460489273071289,,10.978460311889648,0.07,14.446748733520508,14.537025451660156,0.17408886551856995
113,MetaDrive-Tut-1Env-v0,194,183.4772617504965,114405,423,586.8094234466553,15.024280548095703,-15.512537002563477,0.30379384756088257,0.08,15.193495750427246,15.13924789428711,0.20524196326732635
114,MetaDrive-Tut-1Env-v0,194,188.11761023409872,115117,424,591.2081391811371,15.28587532043457,-15.26522159576416,0.7516617178916931,0.09,14.990158081054688,14.873820304870605,0.19335436820983887
115,MetaDrive-Tut-1Env-v0,194,197.05411644154213,116370,426,599.027862071991,15.474908828735352,,7.126269340515137,0.1,15.590866088867188,15.52282428741455,0.1717076301574707
116,MetaDrive-Tut-1Env-v0,194,201.55829257041728,117080,427,603.3017015457153,15.810522079467773,,1.239706039428711,0.11,15.873274803161621,15.903791427612305,0.20714588463306427
117,MetaDrive-Tut-1Env-v0,193,211.73587449812462,118415,429,611.4060385227203,16.391353607177734,-16.458744049072266,0.5961390733718872,0.13,16.378570556640625,16.486867904663086,0.21613898873329163
118,MetaDrive-Tut-1Env-v0,193,216.17664137261536,119103,430,615.5203475952148,14.804099082946777,-14.993974685668945,3.3480477333068848,0.14,15.186141967773438,15.248445510864258,0.19067224860191345
119,MetaDrive-Tut-1Env-v0,193,223.44411589235196,120099,432,621.9801199436188,15.808032989501953,-16.00680160522461,0.9121634364128113,0.14,15.86050796508789,15.959238052368164,0.21907861530780792
120,MetaDrive-Tut-1Env-v0,192,230.7039818241567,121041,434,628.2919459342957,17.30307960510254,-17.8284912109375,2.8790359497070312,0.14,17.404346466064453,17.442869186401367,0.221492737531662
121,MetaDrive-Tut-1Env-v0,192,240.337675274868,122318,436,636.1460764408112,17.229475021362305,,1.0612366199493408,0.16,17.139904022216797,17.00039291381836,0.2009856104850769
122,MetaDrive-Tut-1Env-v0,191,248.9664362119412,123460,438,643.4259312152863,19.128337860107422,,0.5948622226715088,0.17,18.713947296142578,18.819602966308594,0.25400853157043457
123,MetaDrive-Tut-1Env-v0,191,253.64449145283643,124084,439,647.3086996078491,19.89269256591797,,0.8649447560310364,0.18,19.911056518554688,19.985992431640625,0.2514832317829132
124,MetaDrive-Tut-1Env-v0,191,262.26924177358393,125183,441,654.313725233078,18.96231460571289,-19.468338012695312,1.2929167747497559,0.19,19.183128356933594,19.198287963867188,0.20436403155326843
125,MetaDrive-Tut-1Env-v0,190,270.00378052990885,126262,443,661.2901198863983,19.21770477294922,,0.4675616919994354,0.2,19.13669204711914,19.182708740234375,0.2547602355480194
126,MetaDrive-Tut-1Env-v0,190,276.69399364857475,127344,445,668.2449495792389,20.232383728027344,,0.7322503328323364,0.21,20.519981384277344,20.39128875732422,0.26705503463745117
127,MetaDrive-Tut-1Env-v0,190,282.54522908116417,128633,447,676.1340408325195,21.17951011657715,-21.67510986328125,7.988885879516602,0.23,21.400854110717773,21.448087692260742,0.23520660400390625
128,MetaDrive-Tut-1Env-v0,190,285.50044290563494,129251,448,679.9776091575623,21.89401626586914,-22.525035858154297,0.7407610416412354,0.24,21.74709701538086,21.50057029724121,0.26694732904434204
129,MetaDrive-Tut-1Env-v0,189,293.2455393739258,130545,450,687.9976947307587,21.936527252197266,-22.347463607788086,0.9261739253997803,0.26,21.831893920898438,21.70388412475586,0.2349207103252411
130,MetaDrive-Tut-1Env-v0,189,297.83095741806676,131159,451,691.7949681282043,21.352527618408203,-21.82469940185547,5.70388126373291,0.27,21.508953094482422,21.377819061279297,0.23434866964817047
131,MetaDrive-Tut-1Env-v0,189,307.5994285825557,132402,453,699.5961856842041,21.801939010620117,,0.6193552017211914,0.29,21.80868148803711,21.803712844848633,0.2650381624698639
132,MetaDrive-Tut-1Env-v0,189,309.7961948069837,133005,454,703.3365633487701,23.250606536865234,-23.63758087158203,1.3598237037658691,0.3,23.27603530883789,23.14942741394043,0.2820603847503662
133,MetaDrive-Tut-1Env-v0,188,318.85099347587936,134218,456,711.1286268234253,23.789827346801758,,1.2515168190002441,0.32,23.948184967041016,23.907573699951172,0.2670453190803528
134,MetaDrive-Tut-1Env-v0,188,327.9138408852764,135421,458,718.4756727218628,25.867671966552734,-26.347671508789062,0.7530649900436401,0.34,25.778385162353516,25.882328033447266,0.30277618765830994
135,MetaDrive-Tut-1Env-v0,188,332.51071933107977,136040,459,722.2185337543488,23.933837890625,,3.937530517578125,0.35,23.91329002380371,23.884132385253906,0.26909929513931274
136,MetaDrive-Tut-1Env-v0,188,341.62648278047163,137252,461,729.7882561683655,25.87704086303711,,2.346065044403076,0.37,25.465373992919922,25.605167388916016,0.30755940079689026
137,MetaDrive-Tut-1Env-v0,187,351.12016117681674,138467,463,737.4400448799133,27.445701599121094,-28.218536376953125,7.38112735748291,0.39,27.577266693115234,27.735309600830078,0.30237457156181335
138,MetaDrive-Tut-1Env-v0,187,355.97250376154074,139076,464,741.2266919612885,25.622112274169922,,3.524632692337036,0.4,25.544452667236328,25.69594955444336,0.30344539880752563
139,MetaDrive-Tut-1Env-v0,187,365.163706890204,140297,466,748.707460641861,26.318519592285156,-26.687795639038086,0.6837540864944458,0.42,26.09088706970215,26.110183715820312,0.27471983432769775
140,MetaDrive-Tut-1Env-v0,187,374.39269001147585,141519,468,756.4036598205566,28.206315994262695,-28.647186279296875,0.5520505905151367,0.44,28.04159164428711,28.037925720214844,0.3365628123283386
141,MetaDrive-Tut-1Env-v0,186,378.91512369203747,142117,469,760.062422990799,27.30599594116211,-27.852981567382812,0.5758873820304871,0.45,27.54644012451172,27.518184661865234,0.2792825996875763
142,MetaDrive-Tut-1Env-v0,186,385.8146828570883,143239,471,767.2798047065735,28.246074676513672,-28.62957763671875,1.257834792137146,0.46,27.955480575561523,27.91176414489746,0.28901493549346924
143,MetaDrive-Tut-1Env-v0,186,392.19742823987553,144051,473,772.2762742042542,30.12894058227539,-30.682235717773438,1.4277236461639404,0.47,30.27444076538086,30.1584529876709,0.3679777979850769
144,MetaDrive-Tut-1Env-v0,186,401.6527863249174,145277,475,779.9699697494507,30.454376220703125,-31.0179443359375,1.2671990394592285,0.49,30.699703216552734,30.874778747558594,0.3529708981513977
145,MetaDrive-Tut-1Env-v0,186,407.4818320234518,146095,477,784.9831376075745,30.385272979736328,-30.809127807617188,3.291266918182373,0.5,30.148448944091797,30.07533073425293,0.35393857955932617
146,MetaDrive-Tut-1Env-v0,185,416.61889725344315,147258,479,791.9724011421204,29.235519409179688,,1.840273380279541,0.52,29.501174926757812,29.566816329956055,0.29353994131088257
147,MetaDrive-Tut-1Env-v0,185,424.42511799278213,148272,481,798.4788389205933,29.734758377075195,,2.1173901557922363,0.53,29.93502426147461,29.812183380126953,0.29403722286224365
148,MetaDrive-Tut-1Env-v0,185,433.6558718314156,149466,483,805.7970085144043,33.68669891357422,,1.7510206699371338,0.55,33.18751525878906,33.30675506591797,0.40443262457847595
149,MetaDrive-Tut-1Env-v0,185,438.6887639864016,150063,484,809.4526727199554,33.26448440551758,-34.109031677246094,1.8268851041793823,0.56,33.97359085083008,33.8760986328125,0.39071547985076904
150,MetaDrive-Tut-1Env-v0,185,445.60355460718375,151251,486,816.7734920978546,34.05636215209961,-34.858219146728516,21.202198028564453,0.58,34.1592903137207,34.279537200927734,0.35061565041542053
151,MetaDrive-Tut-1Env-v0,184,449.4583926311741,152426,488,824.2465934753418,32.068267822265625,,1.5694031715393066,0.6,32.278053283691406,32.21302032470703,0.33795666694641113
152,MetaDrive-Tut-1Env-v0,184,452.2501308775218,153479,490,831.1053464412689,34.52642059326172,-34.91297149658203,2.544388771057129,0.61,34.14580154418945,34.11833572387695,0.36803603172302246
153,MetaDrive-Tut-1Env-v0,184,455.2979649030208,154206,492,835.5363388061523,35.38655471801758,,3.0664238929748535,0.62,35.71269607543945,35.7773551940918,0.37937867641448975
154,MetaDrive-Tut-1Env-v0,184,459.3867220226816,155342,494,842.5132477283478,33.13916015625,,1.2452256679534912,0.64,33.17940902709961,33.178367614746094,0.30771005153656006
155,MetaDrive-Tut-1Env-v0,184,460.781256920038,156323,496,849.142011642456,37.02643585205078,-37.325538635253906,1.8198308944702148,0.64,36.6953125,36.92847442626953,0.40326035022735596
156,MetaDrive-Tut-1Env-v0,183,457.14508583582057,157438,500,856.0799367427826,34.836246490478516,,1.6195168495178223,0.64,34.736122131347656,34.7391357421875,0.3580183684825897
157,MetaDrive-Tut-1Env-v0,183,459.43819662667653,158515,502,863.0126376152039,38.24538040161133,-38.57137680053711,1.7000927925109863,0.65,38.13280487060547,38.119049072265625,0.39760154485702515
158,MetaDrive-Tut-1Env-v0,183,461.5654878792903,159091,503,866.6520812511444,34.987815856933594,-35.39241409301758,0.9045934677124023,0.66,34.84662628173828,34.918678283691406,0.347726970911026
159,MetaDrive-Tut-1Env-v0,183,458.88964156137763,160047,506,872.3838024139404,38.161563873291016,-38.759300231933594,2.538789987564087,0.67,38.25434112548828,38.20436096191406,0.38223525881767273
160,MetaDrive-Tut-1Env-v0,183,461.99998865358526,161186,508,879.5845267772675,35.60715103149414,,19.109600067138672,0.69,35.42448806762695,35.56810760498047,0.3551202714443207
161,MetaDrive-Tut-1Env-v0,183,464.04751473686497,162351,510,886.7267036437988,36.541019439697266,-37.243431091308594,14.000520706176758,0.71,37.11376953125,36.88995361328125,0.34246015548706055
162,MetaDrive-Tut-1Env-v0,182,461.91229541881165,163171,512,891.7985064983368,37.204071044921875,-37.348873138427734,2.3625378608703613,0.72,36.41111755371094,36.57758331298828,0.375678151845932
163,MetaDrive-Tut-1Env-v0,182,459.11101249373576,164395,515,899.5778715610504,39.010902404785156,-39.31148147583008,14.134021759033203,0.72,38.8613166809082,38.73418426513672,0.37626326084136963
164,MetaDrive-Tut-1Env-v0,182,458.13783301963565,165420,517,906.2844502925873,40.39945983886719,,4.383125305175781,0.71,40.04212188720703,40.00771713256836,0.3968898057937622
165,MetaDrive-Tut-1Env-v0,182,459.17082714986157,166242,519,911.2882146835327,36.97100067138672,,1.885547161102295,0.71,36.70407485961914,36.699058532714844,0.35341596603393555
166,MetaDrive-Tut-1Env-v0,182,452.3437503452799,167158,522,917.0554087162018,42.21456527709961,,5.857568740844727,0.68,41.66207504272461,41.54705047607422,0.4073510468006134
167,MetaDrive-Tut-1Env-v0,182,452.3044804725102,168313,524,924.1325426101685,38.226173400878906,-38.23435974121094,3.2000560760498047,0.68,37.426551818847656,37.262657165527344,0.38156819343566895
168,MetaDrive-Tut-1Env-v0,181,453.0899561605652,169442,526,931.2421398162842,40.302886962890625,,13.26082992553711,0.69,40.363529205322266,40.49928283691406,0.38080286979675293
169,MetaDrive-Tut-1Env-v0,181,453.1110928819782,170031,527,934.9907078742981,40.36181640625,-40.86235809326172,1.8234214782714844,0.69,40.11053466796875,40.0785026550293,0.43202143907546997
170,MetaDrive-Tut-1Env-v0,181,449.76152662681847,171294,530,942.7358157634735,42.11568069458008,,5.6828718185424805,0.68,42.505802154541016,42.4273681640625,0.4392276406288147
171,MetaDrive-Tut-1Env-v0,181,448.9620225292247,172001,532,947.0845668315887,42.324581146240234,-42.77766418457031,1.794574499130249,0.69,42.34325408935547,42.42082214355469,0.41157248616218567
172,MetaDrive-Tut-1Env-v0,181,450.8183946189613,173008,534,953.6577847003937,41.542903900146484,,1.7093232870101929,0.7,41.54740524291992,41.57033920288086,0.38469821214675903
173,MetaDrive-Tut-1Env-v0,181,450.85463793784396,174148,536,960.7542276382446,42.99834442138672,,27.70047950744629,0.7,43.380088806152344,43.335784912109375,0.45972347259521484
174,MetaDrive-Tut-1Env-v0,181,451.2040647957074,175218,538,967.7056965827942,42.67487335205078,,16.842479705810547,0.7,42.186859130859375,42.100860595703125,0.41899776458740234
175,MetaDrive-Tut-1Env-v0,180,448.10169431822595,176402,541,975.035569190979,46.018489837646484,,2.815518856048584,0.69,45.83043670654297,45.939979553222656,0.4618293046951294
176,MetaDrive-Tut-1Env-v0,180,449.6613926440964,177511,543,982.0008656978607,43.102577209472656,-43.31565856933594,2.7093071937561035,0.7,43.323211669921875,43.3450927734375,0.40288645029067993
177,MetaDrive-Tut-1Env-v0,180,451.0700264746399,178067,544,985.4438335895538,43.250633239746094,-43.84159469604492,3.041682243347168,0.71,43.45780944824219,43.43592071533203,0.43103134632110596
178,MetaDrive-Tut-1Env-v0,180,451.09554091266,179179,546,992.3304662704468,44.753662109375,-44.947853088378906,5.579890251159668,0.71,44.37127685546875,44.42839813232422,0.41821569204330444
179,MetaDrive-Tut-1Env-v0,180,451.1352299942521,180317,548,999.4067144393921,45.52299499511719,-45.64054870605469,17.817123413085938,0.71,45.57920837402344,45.50128936767578,0.43547043204307556
180,MetaDrive-Tut-1Env-v0,180,451.17356775879045,181452,550,1006.4996874332428,45.717994689941406,,6.900242805480957,0.71,45.80892562866211,45.820899963378906,0.4868951141834259
181,MetaDrive-Tut-1Env-v0,180,451.1760233691777,182011,551,1009.9544279575348,43.126121520996094,-43.65412902832031,5.634972095489502,0.71,43.07415771484375,43.18971252441406,0.4329151511192322
182,MetaDrive-Tut-1Env-v0,180,451.2268196068559,183125,553,1016.7986719608307,44.71944808959961,-45.415740966796875,2.481654405593872,0.71,44.7728271484375,44.721923828125,0.41992199420928955
183,MetaDrive-Tut-1Env-v0,179,451.30564987184584,184263,555,1023.7798993587494,48.504302978515625,-49.20338439941406,3.6223433017730713,0.71,48.657657623291016,48.52438735961914,0.5006474852561951
184,MetaDrive-Tut-1Env-v0,179,451.38292830597754,185416,557,1030.7959685325623,46.70742416381836,,3.0280165672302246,0.71,46.613746643066406,46.6832160949707,0.4389491677284241
185,MetaDrive-Tut-1Env-v0,179,451.3919781581532,186575,559,1037.8746597766876,46.86953353881836,-47.199459075927734,18.398080825805664,0.71,46.994598388671875,46.869632720947266,0.42110440135002136
186,MetaDrive-Tut-1Env-v0,179,451.40783344199457,187120,560,1041.2180693149567,47.66371154785156,,2.8052475452423096,0.71,47.46646499633789,47.46693420410156,0.44947224855422974
187,MetaDrive-Tut-1Env-v0,179,451.45425952085867,188274,562,1048.5128271579742,49.30337142944336,,22.496871948242188,0.71,48.74854278564453,48.637977600097656,0.4606286287307739
188,MetaDrive-Tut-1Env-v0,179,451.42661721851766,189373,564,1055.4273018836975,47.92748260498047,-48.362308502197266,3.331056594848633,0.71,47.58168029785156,47.6419792175293,0.4630984365940094
189,MetaDrive-Tut-1Env-v0,179,447.99910460794416,190101,566,1060.0604071617126,48.05555725097656,-49.031768798828125,4.298744201660156,0.7,47.90284729003906,47.58943176269531,0.47397834062576294
190,MetaDrive-Tut-1Env-v0,179,447.9678092084175,191195,568,1066.9206719398499,51.6024169921875,-52.210289001464844,3.7276031970977783,0.7,51.2164421081543,50.77904510498047,0.5257883667945862
191,MetaDrive-Tut-1Env-v0,179,448.8680058665348,192330,570,1074.0913269519806,51.56209945678711,,3.552664041519165,0.71,51.245094299316406,51.372955322265625,0.492012083530426
192,MetaDrive-Tut-1Env-v0,178,452.05088216574956,193458,572,1081.069410085678,48.41706466674805,,3.1691365242004395,0.72,48.45923614501953,48.44906997680664,0.48128610849380493
193,MetaDrive-Tut-1Env-v0,178,452.0269519015952,194048,573,1084.7233502864838,48.010833740234375,,12.480637550354004,0.72,48.574134826660156,48.627044677734375,0.4314626455307007
194,MetaDrive-Tut-1Env-v0,178,452.0065596995821,195189,575,1091.880898475647,48.85415267944336,-50.00604248046875,5.946044921875,0.72,49.16339874267578,49.07147979736328,0.4675754904747009
195,MetaDrive-Tut-1Env-v0,178,455.34644295393906,196347,577,1099.1738352775574,50.69297790527344,-51.43064498901367,10.604436874389648,0.73,50.90055847167969,51.04357147216797,0.5044189095497131
196,MetaDrive-Tut-1Env-v0,178,452.92355605815544,197167,579,1104.2825214862823,49.414710998535156,-49.918235778808594,4.805645942687988,0.72,49.68396759033203,49.503318786621094,0.47333312034606934
197,MetaDrive-Tut-1Env-v0,178,454.29084212415887,198335,581,1111.4844846725464,45.95367431640625,-46.732662200927734,16.60704231262207,0.73,46.065345764160156,46.02516174316406,0.43934375047683716
198,MetaDrive-Tut-1Env-v0,178,451.75846565247343,199140,583,1116.5204722881317,48.97882080078125,,3.7219934463500977,0.72,48.408302307128906,48.39346694946289,0.47892242670059204
199,MetaDrive-Tut-1Env-v0,178,451.661453977116,200309,585,1123.776293039322,47.91143798828125,-48.125999450683594,4.950836181640625,0.72,47.402000427246094,47.499114990234375,0.5634433031082153
200,MetaDrive-Tut-1Env-v0,178,451.6205625346886,201459,587,1130.8876740932465,50.474891662597656,-50.75250244140625,2.434154510498047,0.72,50.150390625,50.06374740600586,0.49488139152526855
201,MetaDrive-Tut-1Env-v0,178,451.59796086402974,202016,588,1134.4138395786285,50.808162689208984,,5.272823810577393,0.72,50.53679656982422,50.546043395996094,0.5365166664123535
202,MetaDrive-Tut-1Env-v0,177,453.8556186917221,203370,591,1142.7844808101654,49.128082275390625,,4.521665573120117,0.73,49.573211669921875,49.303627014160156,0.5056562423706055
203,MetaDrive-Tut-1Env-v0,177,453.80172536360624,204552,593,1150.142151594162,49.7765007019043,,12.04367446899414,0.73,49.532386779785156,49.621273040771484,0.46692249178886414
204,MetaDrive-Tut-1Env-v0,177,453.7752472369203,205125,594,1153.7317345142365,52.948341369628906,-53.13117218017578,4.497838973999023,0.73,52.959964752197266,52.77124786376953,0.5515589714050293
205,MetaDrive-Tut-1Env-v0,177,455.4290311336401,206272,596,1160.7392070293427,50.93589782714844,,2.8069686889648438,0.75,50.8229866027832,50.8037223815918,0.46755048632621765
206,MetaDrive-Tut-1Env-v0,177,461.28557621544553,207407,598,1167.8907461166382,51.15476989746094,-52.153221130371094,3.0899219512939453,0.77,50.7230110168457,50.84534454345703,0.5088419914245605
207,MetaDrive-Tut-1Env-v0,177,465.36499326607526,208558,600,1174.9186506271362,52.70594787597656,,26.888473510742188,0.79,52.74186706542969,52.63709259033203,0.4862300157546997
208,MetaDrive-Tut-1Env-v0,177,466.3263356498443,209116,601,1178.289383172989,48.16352844238281,,25.937339782714844,0.8,47.88671875,47.49308395385742,0.46791115403175354
209,MetaDrive-Tut-1Env-v0,177,466.23477336948605,210245,603,1185.2852809429169,53.67216491699219,-54.264923095703125,5.631265640258789,0.8,53.03257751464844,52.902442932128906,0.5502287149429321
210,MetaDrive-Tut-1Env-v0,177,473.0696485551836,211392,605,1192.2786495685577,49.812164306640625,,3.2949459552764893,0.82,49.90885543823242,50.06629943847656,0.4517554044723511
211,MetaDrive-Tut-1Env-v0,177,472.9553301063658,212540,607,1199.2908880710602,50.58222961425781,,5.39251708984375,0.82,50.884986877441406,50.81879806518555,0.484924852848053
212,MetaDrive-Tut-1Env-v0,177,472.94511823015904,213136,608,1202.8850317001343,50.73126220703125,,2.9064531326293945,0.82,50.86979675292969,50.67759704589844,0.6050590872764587
213,MetaDrive-Tut-1Env-v0,177,472.90762506935374,214273,610,1209.8723294734955,51.819984436035156,-52.56377410888672,23.873432159423828,0.82,52.049598693847656,52.06093978881836,0.49186235666275024
214,MetaDrive-Tut-1Env-v0,177,475.37806626697443,215419,612,1216.9515585899353,51.70805358886719,-52.62257385253906,5.122483253479004,0.83,52.102638244628906,52.33637237548828,0.5501035451889038
215,MetaDrive-Tut-1Env-v0,176,478.69232402937797,216560,614,1223.9319009780884,51.28448486328125,,7.943201065063477,0.84,51.48136901855469,51.26984405517578,0.5673885941505432
216,MetaDrive-Tut-1Env-v0,176,479.4904239238297,217136,615,1227.5665204524994,52.93427276611328,,8.253459930419922,0.85,52.24800491333008,52.42889404296875,0.5371176600456238
217,MetaDrive-Tut-1Env-v0,176,480.40924698199655,218297,617,1234.8349437713623,53.49889373779297,-53.94844055175781,3.7042174339294434,0.86,53.669124603271484,53.56130599975586,0.5625149011611938
218,MetaDrive-Tut-1Env-v0,176,482.823074771216,219435,619,1241.8146033287048,51.482940673828125,-52.232242584228516,2.0076146125793457,0.87,51.57762908935547,51.548221588134766,0.5254048109054565
219,MetaDrive-Tut-1Env-v0,176,485.2866115911276,220032,620,1245.4440245628357,55.81024169921875,,5.2665605545043945,0.88,56.15021514892578,56.03330993652344,0.5526054501533508
220,MetaDrive-Tut-1Env-v0,176,489.55420326519265,221173,622,1252.5604536533356,49.58455276489258,-49.83274841308594,16.791717529296875,0.9,49.32368087768555,49.31864929199219,0.46703797578811646
221,MetaDrive-Tut-1Env-v0,176,489.5545710706158,222311,624,1259.5848093032837,54.720680236816406,-55.29640197753906,3.1305031776428223,0.9,54.90556335449219,54.777931213378906,0.5565541982650757
222,MetaDrive-Tut-1Env-v0,176,489.51054133394746,223475,626,1266.746841430664,54.84572219848633,-54.772361755371094,3.33208966255188,0.9,54.41614532470703,54.58881378173828,0.5726518630981445
223,MetaDrive-Tut-1Env-v0,176,489.49395663862043,224044,627,1270.2498698234558,51.8814582824707,,37.583152770996094,0.9,52.73390197753906,52.5167236328125,0.5347107648849487
224,MetaDrive-Tut-1Env-v0,176,492.87628621347665,225177,629,1277.204333305359,52.25218200683594,-53.29670333862305,3.6795482635498047,0.91,52.754737854003906,52.66783142089844,0.520212709903717
225,MetaDrive-Tut-1Env-v0,176,492.85053728883827,226331,631,1284.5645797252655,53.63191223144531,-54.908905029296875,1.4146666526794434,0.91,53.445465087890625,53.478816986083984,0.5959241390228271
226,MetaDrive-Tut-1Env-v0,176,496.273866944042,227509,633,1291.652826309204,53.81953430175781,-54.63059997558594,24.658910751342773,0.92,54.016204833984375,54.178863525390625,0.5661043524742126
227,MetaDrive-Tut-1Env-v0,176,497.1505384827018,228087,634,1295.1634500026703,51.86146545410156,-52.25382995605469,31.762767791748047,0.93,51.77490997314453,52.136436462402344,0.5536020994186401
228,MetaDrive-Tut-1Env-v0,176,497.14945317681014,229252,636,1302.4233384132385,54.142486572265625,,2.664397716522217,0.93,54.29186248779297,54.409690856933594,0.5371779799461365
229,MetaDrive-Tut-1Env-v0,175,497.87756423608545,230487,638,1309.7291276454926,54.04927062988281,-55.42133712768555,5.4176130294799805,0.94,54.4249267578125,53.93412780761719,0.5267407298088074
230,MetaDrive-Tut-1Env-v0,175,501.2515233248333,231087,639,1313.2849929332733,52.8652458190918,-54.34569549560547,3.556210994720459,0.95,53.24455261230469,53.04465103149414,0.5187140703201294
231,MetaDrive-Tut-1Env-v0,175,502.11703617026245,232330,641,1320.8028354644775,51.693397521972656,,4.08467960357666,0.96,51.55364227294922,51.842567443847656,0.5551804304122925
232,MetaDrive-Tut-1Env-v0,175,502.09054773761096,233563,643,1328.0239343643188,52.74753189086914,-53.70534896850586,6.629176616668701,0.96,52.18292999267578,52.19107437133789,0.5333164930343628
233,MetaDrive-Tut-1Env-v0,175,502.0813164840861,234156,644,1331.565990447998,54.189361572265625,,3.908290386199951,0.96,53.20579528808594,53.3812255859375,0.5266758799552917
234,MetaDrive-Tut-1Env-v0,175,502.063591306684,235354,646,1338.79527425766,55.7226676940918,,4.846673488616943,0.96,54.92716979980469,55.09318542480469,0.5291486978530884
235,MetaDrive-Tut-1Env-v0,175,502.02034965395256,236522,648,1345.9529042243958,54.44105529785156,,4.38907527923584,0.96,54.53948974609375,54.268455505371094,0.5013903379440308
236,MetaDrive-Tut-1Env-v0,175,502.0169527758608,237126,649,1349.7216501235962,56.56066131591797,,5.144000053405762,0.96,55.94446563720703,56.21388626098633,0.5582849979400635
237,MetaDrive-Tut-1Env-v0,175,501.98325237719075,238303,651,1356.9207541942596,52.518959045410156,-53.19261169433594,5.450371742248535,0.96,52.67665481567383,52.37055206298828,0.5254288911819458
238,MetaDrive-Tut-1Env-v0,175,501.9728632039808,239512,653,1364.1253173351288,55.73355484008789,,2.685398817062378,0.96,55.84278106689453,55.78327178955078,0.5824877023696899
239,MetaDrive-Tut-1Env-v0,175,501.9337072976322,240105,654,1367.6841051578522,54.968284606933594,-55.5718879699707,9.066276550292969,0.96,54.52104187011719,54.510528564453125,0.5257718563079834
240,MetaDrive-Tut-1Env-v0,175,501.91783377366994,241300,656,1374.7412750720978,53.87918472290039,,3.4829416275024414,0.96,54.737770080566406,54.302452087402344,0.544201672077179
241,MetaDrive-Tut-1Env-v0,175,501.896256046953,242504,658,1382.0119271278381,55.43635559082031,,14.349164962768555,0.96,55.24565124511719,55.22055435180664,0.48119229078292847
242,MetaDrive-Tut-1Env-v0,175,501.89448741635175,243127,659,1385.6881802082062,54.802032470703125,-55.98486328125,6.94129753112793,0.96,56.23979949951172,56.0107421875,0.5504400730133057
243,MetaDrive-Tut-1Env-v0,175,501.8577622259527,244302,661,1392.7725284099579,55.069400787353516,,5.578237056732178,0.96,54.80329132080078,55.109779357910156,0.5654615163803101
244,MetaDrive-Tut-1Env-v0,175,501.8378502169787,245477,663,1399.9714725017548,55.143402099609375,-56.52814483642578,17.18069839477539,0.96,55.525917053222656,55.48074722290039,0.5073356628417969
245,MetaDrive-Tut-1Env-v0,175,501.81664257905067,246066,664,1403.5680487155914,53.74966049194336,,20.414836883544922,0.96,54.00410461425781,53.73552703857422,0.532267689704895
246,MetaDrive-Tut-1Env-v0,175,505.2007810213753,247244,666,1410.5516467094421,55.76580810546875,,38.276554107666016,0.97,56.036834716796875,56.153987884521484,0.5427515506744385
247,MetaDrive-Tut-1Env-v0,175,505.19613456519306,248482,668,1417.8652021884918,55.03005599975586,,3.6136183738708496,0.97,55.198665618896484,55.08841323852539,0.5819129347801208
248,MetaDrive-Tut-1Env-v0,175,505.16311102777746,249075,669,1421.4606399536133,55.168701171875,-55.85724639892578,4.0633320808410645,0.97,55.24679946899414,55.16211700439453,0.5294942855834961
249,MetaDrive-Tut-1Env-v0,175,505.1624997745909,250304,671,1428.9649181365967,55.05546188354492,,6.365251541137695,0.97,54.950477600097656,55.14545440673828,0.6003050208091736
250,MetaDrive-Tut-1Env-v0,175,505.1650899393118,251494,673,1436.2107083797455,53.07135772705078,,3.4853434562683105,0.97,53.048675537109375,53.341529846191406,0.6117366552352905
251,MetaDrive-Tut-1Env-v0,175,505.14782650307893,252081,674,1439.7691040039062,55.198883056640625,-55.43940734863281,7.245901107788086,0.97,54.79106903076172,55.538516998291016,0.5374302864074707
252,MetaDrive-Tut-1Env-v0,175,505.15263687496366,253279,676,1447.1332800388336,56.746604919433594,-57.77092742919922,6.031780242919922,0.97,56.313880920410156,56.16133117675781,0.5804409384727478
253,MetaDrive-Tut-1Env-v0,174,507.53289143635027,254486,678,1454.2897174358368,57.0057373046875,,3.680493116378784,0.98,57.264671325683594,57.18382263183594,0.5569123029708862
254,MetaDrive-Tut-1Env-v0,174,507.5170543345692,255088,679,1457.8638463020325,56.16905975341797,,45.339778900146484,0.98,56.42188262939453,56.50694274902344,0.4914023280143738
255,MetaDrive-Tut-1Env-v0,174,507.5003748862907,256306,681,1465.2722535133362,57.242340087890625,,22.402328491210938,0.98,56.50380325317383,56.903865814208984,0.5485275387763977
256,MetaDrive-Tut-1Env-v0,174,509.96221360216674,257542,683,1472.5673501491547,56.994117736816406,,5.606559753417969,0.99,56.4752197265625,57.076942443847656,0.5383664965629578
257,MetaDrive-Tut-1Env-v0,174,509.9570129824097,258151,684,1476.3168907165527,56.09375762939453,-57.356346130371094,5.4710187911987305,0.99,55.67445755004883,55.81953430175781,0.6214481592178345
258,MetaDrive-Tut-1Env-v0,174,509.9297133639732,259380,686,1483.584524154663,54.87749099731445,,5.024107933044434,0.99,54.89494323730469,54.92365264892578,0.5278979539871216
259,MetaDrive-Tut-1Env-v0,174,509.9257653085174,260011,687,1487.3184931278229,57.83322525024414,-58.446937561035156,4.665313720703125,0.99,57.8673210144043,58.22010803222656,0.5445712804794312
260,MetaDrive-Tut-1Env-v0,174,512.3658626065926,261240,689,1494.590413570404,59.13232421875,,11.241449356079102,1.0,57.65958786010742,57.86296081542969,0.6044484376907349
261,MetaDrive-Tut-1Env-v0,174,512.3688050609458,262467,691,1501.9469349384308,57.77658462524414,-57.95098114013672,4.185009956359863,1.0,56.72968673706055,57.060211181640625,0.5314452648162842
262,MetaDrive-Tut-1Env-v0,174,512.3633234689654,263075,692,1505.5547120571136,55.700836181640625,-56.17103958129883,3.0334630012512207,1.0,55.597084045410156,55.7655029296875,0.5599275827407837
263,MetaDrive-Tut-1Env-v0,174,512.3704295972925,264305,694,1512.8576850891113,55.282569885253906,-56.4370002746582,2.218222141265869,1.0,55.67619323730469,55.12684631347656,0.5333137512207031
264,MetaDrive-Tut-1Env-v0,174,512.339468011486,265556,696,1520.1982719898224,58.97477722167969,,74.73397827148438,1.0,59.81252670288086,59.8170280456543,0.5873043537139893
265,MetaDrive-Tut-1Env-v0,174,512.3518629956969,266193,697,1523.932885169983,54.79996109008789,-55.589839935302734,11.307339668273926,1.0,54.064857482910156,53.97926330566406,0.5870563387870789
266,MetaDrive-Tut-1Env-v0,174,512.320775525253,267413,699,1531.3107702732086,58.979305267333984,-59.382286071777344,3.172163486480713,1.0,59.22004699707031,59.28237533569336,0.5877035856246948
267,MetaDrive-Tut-1Env-v0,174,512.2954193700542,268038,700,1534.9718103408813,56.129669189453125,,6.294744491577148,1.0,55.656497955322266,56.135353088378906,0.5790878534317017
268,MetaDrive-Tut-1Env-v0,174,512.2471339540218,269257,702,1542.2868149280548,57.45822525024414,-58.50918960571289,3.5007505416870117,1.0,57.272621154785156,57.411399841308594,0.6093835830688477
269,MetaDrive-Tut-1Env-v0,174,512.2341880548659,270481,704,1549.6482067108154,57.44677734375,-57.795074462890625,3.571138858795166,1.0,57.39757537841797,57.60023498535156,0.6039230227470398
270,MetaDrive-Tut-1Env-v0,174,512.2056135915054,271091,705,1553.365427494049,56.686683654785156,-57.59837341308594,2.3510780334472656,1.0,56.43163299560547,56.877384185791016,0.5675536394119263
271,MetaDrive-Tut-1Env-v0,174,512.1682796895732,272317,707,1560.6784627437592,58.70166778564453,-59.56831359863281,35.74892044067383,1.0,58.73664474487305,58.66667938232422,0.5693044662475586
272,MetaDrive-Tut-1Env-v0,174,512.1418527857232,273558,709,1567.9209253787994,58.56257629394531,,5.750522613525391,1.0,58.16325378417969,58.43490982055664,0.6141765117645264
273,MetaDrive-Tut-1Env-v0,174,512.1145718165609,274175,710,1571.7478332519531,56.927452087402344,-57.37462615966797,4.225247383117676,1.0,56.65016555786133,56.505279541015625,0.5991672277450562
274,MetaDrive-Tut-1Env-v0,174,512.0833988975743,275434,712,1579.207893371582,57.39097595214844,,5.902360439300537,1.0,56.66508865356445,57.2035026550293,0.5912643671035767
275,MetaDrive-Tut-1Env-v0,174,512.0684773702635,276039,713,1582.7808105945587,55.80610656738281,-56.62132263183594,4.665947437286377,1.0,56.04283905029297,56.17154312133789,0.5480504035949707
276,MetaDrive-Tut-1Env-v0,174,512.0573928468197,277256,715,1590.0336816310883,57.70689392089844,,38.643516540527344,1.0,58.54851150512695,57.35772705078125,0.6217199563980103
277,MetaDrive-Tut-1Env-v0,174,511.9990618415903,278490,717,1597.5687835216522,58.998714447021484,,4.4940338134765625,1.0,58.852867126464844,58.89228057861328,0.5920429229736328
278,MetaDrive-Tut-1Env-v0,174,511.97955198998557,279096,718,1601.2162573337555,57.27033996582031,,4.124398231506348,1.0,57.23565673828125,57.18465805053711,0.6524688005447388
279,MetaDrive-Tut-1Env-v0,174,511.90320495807157,280353,720,1608.693325996399,57.081939697265625,-58.04413604736328,17.505891799926758,1.0,56.5247802734375,56.545494079589844,0.6193177700042725
280,MetaDrive-Tut-1Env-v0,174,511.87454768719385,281002,721,1612.46133351326,60.109283447265625,,3.464859962463379,1.0,59.461570739746094,59.612876892089844,0.6668665409088135
281,MetaDrive-Tut-1Env-v0,174,511.81900287020204,282295,723,1620.1033220291138,58.382606506347656,-59.01212692260742,8.430459976196289,1.0,58.36552429199219,58.55052947998047,0.5872328877449036
282,MetaDrive-Tut-1Env-v0,174,511.75772778293026,283488,725,1627.1685056686401,60.29790115356445,,4.678000450134277,1.0,59.82698059082031,59.670806884765625,0.5704164505004883
283,MetaDrive-Tut-1Env-v0,174,511.74093792707225,284097,726,1630.9160528182983,59.852516174316406,-60.12067413330078,3.3984827995300293,1.0,59.33075714111328,59.41896057128906,0.6392517685890198
284,MetaDrive-Tut-1Env-v0,174,511.6817063420123,285328,728,1638.2436287403107,58.60767364501953,,8.407136917114258,1.0,59.62855911254883,58.945465087890625,0.5805093050003052
285,MetaDrive-Tut-1Env-v0,174,511.62701426107526,286544,730,1645.4248898029327,58.10586929321289,,5.910307884216309,1.0,58.36251449584961,58.29047775268555,0.6292204856872559
286,MetaDrive-Tut-1Env-v0,174,511.6024469237818,287169,731,1649.0405497550964,57.654109954833984,-58.73483657836914,17.307979583740234,1.0,57.709083557128906,57.6751708984375,0.6009042859077454
287,MetaDrive-Tut-1Env-v0,174,511.542039687929,288396,733,1656.4253685474396,59.698944091796875,,15.563884735107422,1.0,59.371681213378906,60.060569763183594,0.5983328223228455
288,MetaDrive-Tut-1Env-v0,174,511.51472015457364,289025,734,1660.025013923645,59.37864303588867,-60.24174880981445,3.975989818572998,1.0,59.85478973388672,59.33070373535156,0.5935368537902832
289,MetaDrive-Tut-1Env-v0,174,511.4580330091555,290264,736,1667.1848974227905,59.458866119384766,,4.5188493728637695,1.0,59.346073150634766,58.919254302978516,0.6375325918197632
290,MetaDrive-Tut-1Env-v0,174,511.4222565777885,291520,738,1674.414260149002,60.13291931152344,,18.565967559814453,1.0,60.539031982421875,60.48373031616211,0.6190024614334106
291,MetaDrive-Tut-1Env-v0,174,511.42388930343725,292166,739,1678.2911145687103,58.902530670166016,,28.651519775390625,1.0,58.55257797241211,58.427467346191406,0.5409170389175415
292,MetaDrive-Tut-1Env-v0,174,511.40611400215624,293452,741,1685.8184878826141,58.266178131103516,,5.069767475128174,1.0,57.94206237792969,58.885860443115234,0.6388851404190063
293,MetaDrive-Tut-1Env-v0,174,511.3709136366387,294109,742,1689.6201164722443,59.37417221069336,-60.721744537353516,6.322307586669922,1.0,58.951786041259766,58.768245697021484,0.6252774000167847
294,MetaDrive-Tut-1Env-v0,174,511.3474991246437,295418,744,1697.2719976902008,59.95362091064453,,2.722177505493164,1.0,60.48228454589844,59.68075180053711,0.5768005847930908
295,MetaDrive-Tut-1Env-v0,174,511.313827910486,296126,745,1701.4126479625702,57.169395446777344,,23.715030670166016,1.0,56.953468322753906,57.052955627441406,0.5731512308120728
296,MetaDrive-Tut-1Env-v0,174,511.3077969160641,297521,747,1709.2339730262756,56.55003356933594,-56.81652069091797,3.65000057220459,1.0,56.27809143066406,56.41253662109375,0.6415264010429382
297,MetaDrive-Tut-1Env-v0,174,511.2956203635643,298326,748,1713.492199420929,56.56163024902344,,3.23217511177063,1.0,56.14335632324219,56.70304870605469,0.5981255173683167
298,MetaDrive-Tut-1Env-v0,174,511.2829345392088,299202,749,1718.0139043331146,61.605934143066406,,34.92835998535156,1.0,61.800331115722656,61.401214599609375,0.6174086332321167
299,MetaDrive-Tut-1Env-v0,174,511.1533078958385,300203,750,1722.8845281600952,60.104957580566406,-61.23027801513672,9.268495559692383,0.99,60.46685028076172,59.62417221069336,0.6114116907119751
300,MetaDrive-Tut-1Env-v0,174,511.03186230005565,301204,751,1727.8163189888,59.826416015625,,34.0364990234375,0.98,60.09553527832031,59.2913703918457,0.5697994232177734
301,MetaDrive-Tut-1Env-v0,174,510.88622001074543,302205,752,1732.7652707099915,58.814876556396484,-59.54332733154297,28.76462173461914,0.97,58.445526123046875,58.48151397705078,0.5750224590301514
302,MetaDrive-Tut-1Env-v0,174,510.7083139305515,303206,753,1737.7294945716858,56.683067321777344,,11.167255401611328,0.96,56.77796936035156,56.82594299316406,0.5464620590209961
303,MetaDrive-Tut-1Env-v0,174,510.5747486802256,304207,754,1742.8508143424988,59.8577880859375,-60.683284759521484,7.509249210357666,0.95,58.863441467285156,59.473052978515625,0.6453130841255188
304,MetaDrive-Tut-1Env-v0,174,510.46893801379343,305208,755,1747.890830039978,57.90421676635742,,4.288784027099609,0.94,57.81352615356445,57.865535736083984,0.5800580382347107
305,MetaDrive-Tut-1Env-v0,174,510.2844819556565,306209,756,1752.864197254181,60.24298858642578,-61.18059539794922,5.385214805603027,0.93,60.15418243408203,60.605682373046875,0.6301048994064331
306,MetaDrive-Tut-1Env-v0,174,510.2599672280303,307747,758,1761.4121825695038,56.821136474609375,-57.60641860961914,2.964773416519165,0.93,56.666969299316406,56.362972259521484,0.5606282353401184
307,MetaDrive-Tut-1Env-v0,174,510.1371322261324,308748,759,1766.4064412117004,55.137325286865234,,4.369475364685059,0.92,55.37500762939453,54.99750900268555,0.5787869691848755
308,MetaDrive-Tut-1Env-v0,174,509.9600632150298,309749,760,1771.3425223827362,55.74326705932617,-56.31712341308594,6.250191688537598,0.91,56.27119827270508,55.78872299194336,0.5899314880371094
309,MetaDrive-Tut-1Env-v0,174,509.85880654916326,310750,761,1776.613234758377,58.04849624633789,,37.53196334838867,0.9,58.097503662109375,57.999229431152344,0.6112996339797974
310,MetaDrive-Tut-1Env-v0,174,509.69988107545475,311751,762,1781.7184944152832,59.93479919433594,-61.428672790527344,3.542351007461548,0.89,60.35425567626953,60.09532928466797,0.6188850402832031
311,MetaDrive-Tut-1Env-v0,174,509.71248660935015,312425,763,1785.6111154556274,56.23066329956055,-56.470558166503906,5.99757194519043,0.89,56.18092346191406,56.324684143066406,0.5277892351150513
312,MetaDrive-Tut-1Env-v0,175,509.60494630553063,313426,764,1790.6495807170868,57.803001403808594,,60.074893951416016,0.88,58.390907287597656,58.13972854614258,0.5934577584266663
313,MetaDrive-Tut-1Env-v0,175,509.4242521011017,314427,765,1795.5882761478424,61.95183563232422,-63.04405212402344,4.304590702056885,0.87,62.232208251953125,62.21315002441406,0.622384786605835
314,MetaDrive-Tut-1Env-v0,175,509.44525343442,315212,766,1799.8440384864807,59.26349639892578,,5.223703384399414,0.87,59.23333740234375,58.30701446533203,0.5705002546310425
315,MetaDrive-Tut-1Env-v0,175,509.420245196016,316085,767,1804.524829864502,58.243438720703125,-58.539581298828125,4.097262859344482,0.87,57.943702697753906,58.02028274536133,0.5726944804191589
316,MetaDrive-Tut-1Env-v0,175,509.41239520439433,317023,768,1809.4784007072449,56.93449401855469,-57.816551208496094,6.97960090637207,0.87,57.34025573730469,57.18682861328125,0.5776065587997437
317,MetaDrive-Tut-1Env-v0,175,509.40274276737955,318511,770,1817.7798867225647,55.571441650390625,-56.20796203613281,3.7347121238708496,0.87,55.474266052246094,55.43972396850586,0.562876284122467
318,MetaDrive-Tut-1Env-v0,175,509.4066753868925,319111,771,1821.3424727916718,56.53319549560547,-57.057437896728516,3.0399069786071777,0.87,56.670257568359375,56.485740661621094,0.6283343434333801
319,MetaDrive-Tut-1Env-v0,175,509.3863375311069,320338,773,1828.7326974868774,58.32220458984375,,3.3759357929229736,0.87,57.7912483215332,58.649654388427734,0.5929059982299805
320,MetaDrive-Tut-1Env-v0,175,509.4239292066329,321577,775,1836.1822140216827,60.95309066772461,-61.88025665283203,3.961801290512085,0.87,61.104652404785156,60.504669189453125,0.6476249694824219
321,MetaDrive-Tut-1Env-v0,175,509.4273550318771,322181,776,1839.9650304317474,57.589759826660156,-58.56827926635742,8.373614311218262,0.87,56.71282196044922,57.202301025390625,0.6354115009307861
322,MetaDrive-Tut-1Env-v0,175,509.4157004164746,323447,778,1847.51447224617,60.36802291870117,-60.66478729248047,30.739505767822266,0.87,60.27906799316406,60.63169860839844,0.6095330715179443
323,MetaDrive-Tut-1Env-v0,175,509.422845617421,324062,779,1851.2321288585663,57.424095153808594,,26.26517105102539,0.87,57.874412536621094,57.571380615234375,0.5348172783851624
324,MetaDrive-Tut-1Env-v0,175,509.437321803562,325295,781,1858.517633676529,56.87146759033203,-57.991512298583984,8.107108116149902,0.87,56.66304016113281,56.339088439941406,0.5861796140670776
325,MetaDrive-Tut-1Env-v0,175,509.42986058748363,326579,783,1866.0382125377655,58.42051696777344,-59.68663024902344,2.333195209503174,0.87,58.726219177246094,58.30388259887695,0.5850919485092163
326,MetaDrive-Tut-1Env-v0,174,509.43845152578206,327178,784,1869.6503393650055,58.62803268432617,,3.3723583221435547,0.87,59.09759521484375,58.17852020263672,0.5275444984436035
327,MetaDrive-Tut-1Env-v0,174,509.4622602477232,328411,786,1876.8884270191193,57.93464660644531,-58.769569396972656,3.2938942909240723,0.87,58.38347625732422,57.98229217529297,0.5769299268722534
328,MetaDrive-Tut-1Env-v0,174,509.4377375786421,329007,787,1880.4303557872772,60.10155487060547,-60.9309196472168,2.893279552459717,0.87,60.28881072998047,60.012699127197266,0.6394662857055664
329,MetaDrive-Tut-1Env-v0,174,509.44503950577484,330295,789,1888.1421320438385,58.969635009765625,-59.699127197265625,2.206477642059326,0.87,59.265419006347656,58.536827087402344,0.6046589612960815
330,MetaDrive-Tut-1Env-v0,174,509.4240800106854,331542,791,1895.6217105388641,59.62165832519531,,3.230931282043457,0.87,59.73017883300781,59.48606491088867,0.655142068862915
331,MetaDrive-Tut-1Env-v0,174,509.4311943110946,332149,792,1899.3087794780731,57.62017822265625,-58.562110900878906,55.88377380371094,0.87,58.64795684814453,58.27252960205078,0.5829139947891235
332,MetaDrive-Tut-1Env-v0,174,509.431177832133,333352,794,1906.6114294528961,59.889739990234375,,4.234681129455566,0.87,59.51323318481445,60.38072967529297,0.6456853151321411
333,MetaDrive-Tut-1Env-v0,174,509.45316436661744,334626,796,1914.134160041809,59.57914352416992,,6.53781795501709,0.87,59.62220001220703,59.87193298339844,0.6347037553787231
334,MetaDrive-Tut-1Env-v0,174,509.46274990587915,335241,797,1917.7293713092804,57.8167610168457,-58.89167785644531,7.688592910766602,0.87,58.50541687011719,57.45369338989258,0.6030535697937012
335,MetaDrive-Tut-1Env-v0,174,509.4946636072377,336490,799,1925.2367269992828,57.72019958496094,,3.6030876636505127,0.87,57.67073059082031,58.0113525390625,0.5738619565963745
336,MetaDrive-Tut-1Env-v0,174,509.50349469913107,337115,800,1928.9699921607971,55.84538269042969,-56.648094177246094,6.4298200607299805,0.87,56.04444885253906,55.85646438598633,0.6136624217033386
337,MetaDrive-Tut-1Env-v0,174,509.5594573650781,338338,802,1936.3465838432312,57.931331634521484,,6.502717971801758,0.87,58.684120178222656,57.697540283203125,0.620899498462677
338,MetaDrive-Tut-1Env-v0,174,509.5959195612509,339579,804,1943.740538597107,56.53289031982422,-56.794795989990234,4.504741668701172,0.87,56.189056396484375,56.51539611816406,0.592492938041687
339,MetaDrive-Tut-1Env-v0,174,509.61333453750717,340216,805,1947.5938482284546,58.348480224609375,,2.9313085079193115,0.87,58.267921447753906,57.880184173583984,0.6258487701416016
340,MetaDrive-Tut-1Env-v0,174,509.62696323632866,341459,807,1954.8898627758026,58.14509963989258,-59.12916946411133,3.4655284881591797,0.87,58.08895492553711,57.68935012817383,0.6138119697570801
341,MetaDrive-Tut-1Env-v0,174,509.6479309704854,342073,808,1958.5546836853027,56.99951934814453,-58.2718505859375,5.780579566955566,0.87,56.31132125854492,56.07865905761719,0.6809592247009277
342,MetaDrive-Tut-1Env-v0,174,509.68296846394986,343321,810,1965.9753909111023,57.093528747558594,-56.86138153076172,2.700706720352173,0.87,57.171546936035156,56.55913162231445,0.616031289100647
343,MetaDrive-Tut-1Env-v0,174,509.7083185293663,344609,812,1973.4164757728577,60.332611083984375,-60.63494873046875,4.564973831176758,0.87,60.17382049560547,59.48163986206055,0.657644510269165
344,MetaDrive-Tut-1Env-v0,174,509.7361391022286,345229,813,1977.0891861915588,58.352779388427734,-59.35509490966797,4.790160179138184,0.87,58.70355224609375,58.37004089355469,0.6716768145561218
345,MetaDrive-Tut-1Env-v0,174,509.77031215261684,346471,815,1984.5281541347504,58.91598129272461,-59.36450958251953,4.251455307006836,0.87,58.14524459838867,59.08080291748047,0.6542183756828308
346,MetaDrive-Tut-1Env-v0,174,509.80837800976803,347114,816,1988.187180519104,59.073219299316406,,3.9154815673828125,0.87,58.23578643798828,59.17144775390625,0.6046237945556641
347,MetaDrive-Tut-1Env-v0,174,509.82821917335184,348383,818,1995.7925827503204,56.47418975830078,-56.79827117919922,6.733868598937988,0.87,55.94380187988281,55.921142578125,0.6025331020355225
348,MetaDrive-Tut-1Env-v0,174,509.86223121774424,349015,819,1999.3993911743164,59.64703369140625,-59.49409484863281,8.0313720703125,0.87,58.447715759277344,59.59539794921875,0.6464985609054565
349,MetaDrive-Tut-1Env-v0,174,509.9405330751111,350269,821,2006.75177359581,60.24675369262695,-61.173072814941406,5.25173807144165,0.87,60.485023498535156,60.04375457763672,0.6236830949783325
350,MetaDrive-Tut-1Env-v0,174,509.9801307829134,351521,823,2014.3040204048157,57.013526916503906,-57.72928237915039,2.886608600616455,0.87,57.4881591796875,57.242210388183594,0.6104288101196289
351,MetaDrive-Tut-1Env-v0,174,509.9928393113086,352162,824,2018.0588657855988,56.71068572998047,,16.863889694213867,0.87,56.834716796875,56.37013244628906,0.5719552636146545
352,MetaDrive-Tut-1Env-v0,174,510.05594753349897,353422,826,2025.5938823223114,56.962345123291016,,2.98153018951416,0.87,56.57447814941406,56.98396682739258,0.5811958312988281
353,MetaDrive-Tut-1Env-v0,174,510.1004107923488,354066,827,2029.4314723014832,55.815162658691406,,7.893317699432373,0.87,54.991920471191406,54.372039794921875,0.5951927900314331
354,MetaDrive-Tut-1Env-v0,174,510.1736994646299,355359,829,2037.1308121681213,56.35853576660156,-56.89368438720703,3.9264113903045654,0.87,56.05805206298828,56.557594299316406,0.566911518573761
355,MetaDrive-Tut-1Env-v0,174,510.214629327761,356016,830,2040.9865446090698,55.173919677734375,,11.672497749328613,0.87,55.27696228027344,55.41548156738281,0.5913366079330444
356,MetaDrive-Tut-1Env-v0,174,510.26117797321353,357341,832,2048.6220800876617,54.88067626953125,-55.672794342041016,5.579266548156738,0.87,55.03815460205078,54.43862533569336,0.6670840382575989
357,MetaDrive-Tut-1Env-v0,174,510.311323982375,358613,834,2056.3694140911102,57.99009323120117,-58.66265869140625,3.935187339782715,0.87,57.37199020385742,58.16419982910156,0.6071829795837402
358,MetaDrive-Tut-1Env-v0,174,510.3324248516917,359254,835,2060.079735517502,56.69709396362305,,2.1818954944610596,0.87,56.1906623840332,56.32452392578125,0.615094006061554
359,MetaDrive-Tut-1Env-v0,174,510.3814798855525,360502,837,2067.4045310020447,57.24834442138672,,3.427781343460083,0.87,57.36992645263672,56.90909194946289,0.5516757369041443
360,MetaDrive-Tut-1Env-v0,174,510.39950837163093,361152,838,2071.1948807239532,57.315277099609375,,42.80438232421875,0.87,57.823944091796875,57.40855026245117,0.6885656118392944
361,MetaDrive-Tut-1Env-v0,174,510.4690761113041,362414,840,2078.74583029747,56.45789337158203,,3.9346067905426025,0.87,56.32792663574219,56.22515869140625,0.61695796251297
362,MetaDrive-Tut-1Env-v0,174,510.5082362066948,363092,841,2082.73037815094,60.06444549560547,,3.743668556213379,0.87,59.90655517578125,59.90243148803711,0.6385591626167297
363,MetaDrive-Tut-1Env-v0,174,510.5621121839277,364399,843,2090.390082359314,53.63413619995117,-54.74429702758789,3.3596291542053223,0.87,53.417747497558594,53.311378479003906,0.6153286695480347
364,MetaDrive-Tut-1Env-v0,174,508.5353183452566,365361,845,2096.253256082535,57.19624328613281,-56.8762321472168,3.9494755268096924,0.86,56.39450454711914,56.83456802368164,0.6251120567321777
365,MetaDrive-Tut-1Env-v0,174,508.59137946151503,366685,847,2103.935269355774,57.07648468017578,-57.718894958496094,39.992027282714844,0.86,57.48196792602539,57.69047546386719,0.6862313747406006
366,MetaDrive-Tut-1Env-v0,174,508.5980149213759,367388,848,2107.8443098068237,60.990379333496094,,31.90900421142578,0.86,60.76909637451172,61.8116455078125,0.634332001209259
367,MetaDrive-Tut-1Env-v0,174,508.4989366611212,368587,850,2115.0632722377777,58.97382354736328,-59.470542907714844,8.024060249328613,0.86,58.244205474853516,58.883628845214844,0.5988034009933472
368,MetaDrive-Tut-1Env-v0,174,508.6430393694698,369268,851,2118.85338640213,56.35327911376953,,4.540921688079834,0.87,55.780555725097656,56.25926208496094,0.6461054682731628
369,MetaDrive-Tut-1Env-v0,174,508.99221079754096,370747,853,2127.098662853241,58.1325798034668,-59.057315826416016,6.107972621917725,0.89,58.44875717163086,58.27375793457031,0.6849336624145508
370,MetaDrive-Tut-1Env-v0,174,509.1605845655706,371412,854,2130.8979921340942,54.915748596191406,,12.045648574829102,0.9,54.49268341064453,54.99565887451172,0.5639479160308838
371,MetaDrive-Tut-1Env-v0,174,509.2587726410678,372118,855,2134.833030939102,58.55042266845703,,31.99132537841797,0.91,57.76747131347656,58.09528350830078,0.6246975660324097
372,MetaDrive-Tut-1Env-v0,174,509.50659440548566,373492,857,2142.6508781909943,59.173282623291016,,8.418411254882812,0.92,59.07338333129883,58.59499740600586,0.6264077425003052
373,MetaDrive-Tut-1Env-v0,174,509.5548213085284,374228,858,2146.740175485611,56.99750518798828,,3.396411895751953,0.92,56.39676284790039,56.734947204589844,0.6725919842720032
374,MetaDrive-Tut-1Env-v0,174,509.51291180666226,375427,860,2153.9279730319977,59.355995178222656,-60.14008331298828,4.293148517608643,0.93,58.884910583496094,59.346435546875,0.6228488683700562
375,MetaDrive-Tut-1Env-v0,174,505.9356109674063,376083,862,2158.046340227127,57.97099304199219,-58.54505157470703,4.814122676849365,0.93,57.99467086791992,57.47853469848633,0.6147213578224182
376,MetaDrive-Tut-1Env-v0,174,503.0364755273667,377702,865,2166.9945995807648,59.952880859375,,4.122370719909668,0.94,59.459312438964844,59.721961975097656,0.6477249264717102
377,MetaDrive-Tut-1Env-v0,174,503.03233923674895,378368,866,2170.817800283432,56.925296783447266,,4.696187973022461,0.94,56.482566833496094,57.62456130981445,0.6459312438964844
378,MetaDrive-Tut-1Env-v0,174,503.07113782637913,379061,867,2174.751224040985,54.852760314941406,-54.91398620605469,4.00937032699585,0.94,55.01897430419922,55.40424346923828,0.6020684838294983
379,MetaDrive-Tut-1Env-v0,174,503.1177559687731,380498,869,2182.803365945816,57.16749572753906,,4.494446754455566,0.94,57.06737518310547,57.704044342041016,0.5949751138687134
380,MetaDrive-Tut-1Env-v0,174,503.12373870143557,381246,870,2186.90776014328,55.430843353271484,,41.94004821777344,0.94,55.537261962890625,56.1122932434082,0.5577139854431152
381,MetaDrive-Tut-1Env-v0,174,497.0833766354239,382309,873,2192.9682066440582,57.156951904296875,-58.02723693847656,3.7703678607940674,0.92,56.864253997802734,56.656524658203125,0.6362272500991821
382,MetaDrive-Tut-1Env-v0,174,493.9579848486465,383264,875,2198.177455186844,54.28712844848633,,24.87130355834961,0.91,54.836669921875,54.70304870605469,0.5527902841567993
383,MetaDrive-Tut-1Env-v0,174,481.9198800305353,384695,880,2206.220393896103,57.536865234375,-58.09531784057617,4.2358551025390625,0.87,57.70201110839844,57.890892028808594,0.6396695971488953
384,MetaDrive-Tut-1Env-v0,174,481.95171880825853,385357,881,2210.16374707222,57.960670471191406,-59.0955924987793,3.8535237312316895,0.87,58.019439697265625,57.44300842285156,0.6475076675415039
385,MetaDrive-Tut-1Env-v0,174,481.98050269007535,386044,882,2214.063423871994,56.71998977661133,,5.349165439605713,0.87,56.183128356933594,56.167449951171875,0.6115620732307434
386,MetaDrive-Tut-1Env-v0,174,481.9994379136068,387489,884,2222.106436252594,57.937015533447266,-58.37328338623047,3.5091331005096436,0.87,58.68968963623047,58.56846618652344,0.5924607515335083
387,MetaDrive-Tut-1Env-v0,174,478.98501897870864,388326,886,2226.95050740242,58.696163177490234,,2.6346375942230225,0.86,59.1666145324707,58.489479064941406,0.6478688716888428
388,MetaDrive-Tut-1Env-v0,174,475.97522691577416,389225,888,2232.1164605617523,54.76179504394531,-55.29927444458008,17.651458740234375,0.85,54.283447265625,53.916038513183594,0.6025114059448242
389,MetaDrive-Tut-1Env-v0,174,476.02437822545915,390670,890,2240.212495803833,57.024085998535156,,3.477497100830078,0.85,57.36603546142578,56.835182189941406,0.6511072516441345
390,MetaDrive-Tut-1Env-v0,174,476.05893150915387,391406,891,2244.312952041626,57.12995147705078,,5.73055362701416,0.85,57.126869201660156,57.021785736083984,0.6196760535240173
391,MetaDrive-Tut-1Env-v0,174,476.0791684346951,392049,892,2247.9965744018555,55.77429962158203,-56.444793701171875,5.888704776763916,0.85,55.93714904785156,55.36249923706055,0.6226634979248047
392,MetaDrive-Tut-1Env-v0,174,476.06941957405223,393553,894,2256.334064722061,58.55498504638672,-59.723052978515625,3.7988204956054688,0.85,58.78498840332031,58.34931182861328,0.5939762592315674
393,MetaDrive-Tut-1Env-v0,174,476.08427010921116,394285,895,2260.532352924347,58.347373962402344,-59.63684844970703,2.9976422786712646,0.85,58.655391693115234,58.388092041015625,0.6235982179641724
394,MetaDrive-Tut-1Env-v0,174,476.11598273851524,395826,897,2269.0149595737457,59.231956481933594,,6.682376861572266,0.85,59.91115188598633,59.035884857177734,0.5997676849365234
395,MetaDrive-Tut-1Env-v0,174,476.121030940136,396498,898,2272.7782111167908,56.27292251586914,,6.20975923538208,0.85,55.960784912109375,56.37334442138672,0.6426210403442383
396,MetaDrive-Tut-1Env-v0,174,476.1400355342355,397359,899,2277.4133672714233,62.881107330322266,-64.31192016601562,31.80594253540039,0.85,62.89094543457031,62.27491760253906,0.6929426789283752
397,MetaDrive-Tut-1Env-v0,174,476.14592481777584,398026,900,2281.214173078537,57.79103088378906,,3.593512535095215,0.85,57.53301239013672,57.450714111328125,0.6984076499938965
398,MetaDrive-Tut-1Env-v0,174,473.14723377701637,399723,903,2290.5854103565216,54.544307708740234,-55.329490661621094,8.589441299438477,0.84,53.271461486816406,53.568572998046875,0.5682157874107361
399,MetaDrive-Tut-1Env-v0,174,473.1667162960022,400393,904,2294.400910139084,57.249542236328125,-57.75257873535156,3.2285666465759277,0.84,57.698387145996094,58.02103805541992,0.6621552109718323
400,MetaDrive-Tut-1Env-v0,174,473.16744803652296,401129,905,2298.4315905570984,59.77220916748047,-59.65721130371094,3.753710985183716,0.84,59.89934539794922,59.510311126708984,0.6717771291732788
401,MetaDrive-Tut-1Env-v0,174,473.2028588775837,402543,907,2306.6654291152954,58.29176712036133,-58.504119873046875,3.221790075302124,0.84,59.29280471801758,58.406463623046875,0.6568677425384521
402,MetaDrive-Tut-1Env-v0,174,472.49237269627054,403029,908,2309.8793816566467,57.461029052734375,-57.662322998046875,3.568488121032715,0.83,57.14918518066406,57.266693115234375,0.7150526642799377
403,MetaDrive-Tut-1Env-v0,174,472.5451276964663,404468,910,2317.8743522167206,55.59117126464844,,18.429027557373047,0.83,54.84656524658203,55.57533264160156,0.6573470830917358
404,MetaDrive-Tut-1Env-v0,174,472.5631214956621,405224,911,2321.9373292922974,54.632659912109375,,6.935220718383789,0.83,53.93132019042969,53.75782012939453,0.6083402633666992
405,MetaDrive-Tut-1Env-v0,174,472.5554027362469,406581,913,2329.998803138733,57.95538330078125,-58.19917297363281,6.805253028869629,0.83,57.85321807861328,57.947593688964844,0.6404554843902588
406,MetaDrive-Tut-1Env-v0,174,472.5523896771623,407251,914,2333.9102432727814,54.20264434814453,-54.6684455871582,50.88726806640625,0.83,54.87126922607422,54.486202239990234,0.5932471752166748
407,MetaDrive-Tut-1Env-v0,174,472.5572825128228,408664,916,2341.84596657753,58.221290588378906,,35.958824157714844,0.83,58.778141021728516,58.31538772583008,0.6184434294700623
408,MetaDrive-Tut-1Env-v0,174,472.57175643895147,409346,917,2345.884575366974,57.193023681640625,,8.13681411743164,0.83,56.47380447387695,56.381126403808594,0.6948399543762207
409,MetaDrive-Tut-1Env-v0,174,472.57603815043745,410021,918,2349.823252916336,57.88053894042969,-58.31212615966797,4.883930206298828,0.83,56.86442565917969,57.544456481933594,0.6156251430511475
410,MetaDrive-Tut-1Env-v0,174,472.54361936351125,411515,920,2358.06405043602,58.25063705444336,-58.41330337524414,12.615811347961426,0.83,58.19691467285156,59.383758544921875,0.6834064722061157
411,MetaDrive-Tut-1Env-v0,174,472.5149256199724,412276,921,2362.3375928401947,56.02381896972656,,2.9458675384521484,0.83,56.16980743408203,56.350341796875,0.6506942510604858
412,MetaDrive-Tut-1Env-v0,174,472.5482700891103,413002,922,2366.422680616379,59.585208892822266,,20.79901123046875,0.83,60.271724700927734,60.48822784423828,0.6284080743789673
413,MetaDrive-Tut-1Env-v0,174,472.57351196971285,414452,924,2374.552864551544,58.11820602416992,,2.71927547454834,0.83,58.136085510253906,57.85008239746094,0.6616213321685791
414,MetaDrive-Tut-1Env-v0,174,472.5660591351817,415289,925,2378.9889488220215,55.35906982421875,-56.04790115356445,3.527496814727783,0.83,56.038185119628906,55.26606750488281,0.5915129780769348
415,MetaDrive-Tut-1Env-v0,174,472.5509923970878,416011,926,2383.0106513500214,57.46653747558594,-57.910797119140625,3.7802162170410156,0.83,58.0588493347168,57.67725372314453,0.647499680519104
416,MetaDrive-Tut-1Env-v0,174,472.5523898765805,417707,928,2392.037582874298,55.688697814941406,-56.48603057861328,7.858490943908691,0.83,54.979949951171875,55.65923309326172,0.6294639706611633
417,MetaDrive-Tut-1Env-v0,174,472.5349060092201,418497,929,2396.348794698715,59.73467254638672,-60.36701202392578,6.707555294036865,0.83,59.44020080566406,58.793296813964844,0.5931907296180725
418,MetaDrive-Tut-1Env-v0,174,472.54405585514064,419243,930,2400.435545682907,57.26319885253906,-57.641056060791016,2.9755001068115234,0.83,57.675743103027344,57.49846649169922,0.6257684230804443
419,MetaDrive-Tut-1Env-v0,174,472.5738668925341,420103,931,2404.8733038902283,59.135032653808594,-59.602577209472656,3.952735185623169,0.83,59.13762283325195,58.76536560058594,0.640001118183136
420,MetaDrive-Tut-1Env-v0,174,472.600946067375,421455,933,2412.795443534851,54.00941848754883,-53.69829177856445,2.7954952716827393,0.83,53.76959991455078,54.54872131347656,0.5643739700317383
421,MetaDrive-Tut-1Env-v0,174,472.6029451642283,422327,934,2417.5074372291565,59.55988311767578,-60.35087585449219,4.845843315124512,0.83,59.572845458984375,59.02898025512695,0.6702064275741577
422,MetaDrive-Tut-1Env-v0,174,472.6049740197359,423074,935,2421.5309133529663,59.36282730102539,,3.2621123790740967,0.83,59.59444046020508,59.547279357910156,0.6648925542831421
423,MetaDrive-Tut-1Env-v0,174,472.60054477752914,424707,937,2430.2632195949554,57.772090911865234,-58.363006591796875,4.043596267700195,0.83,58.116371154785156,57.73931121826172,0.6435779929161072
424,MetaDrive-Tut-1Env-v0,174,471.93908534403306,425191,938,2433.358272075653,57.856689453125,-57.47566223144531,4.547994136810303,0.82,56.97575759887695,57.64311599731445,0.6757737398147583
425,MetaDrive-Tut-1Env-v0,174,471.8083144458576,426192,939,2438.3403372764587,58.26533889770508,,3.7294790744781494,0.81,59.31685256958008,58.31909942626953,0.6925699710845947
426,MetaDrive-Tut-1Env-v0,174,471.8207941183606,427015,940,2442.6315898895264,56.14640808105469,-57.871788024902344,24.852861404418945,0.81,57.76521682739258,56.1125373840332,0.609106183052063
427,MetaDrive-Tut-1Env-v0,174,471.79227917272743,428712,942,2451.415845155716,57.45851135253906,,3.813626766204834,0.81,56.82946014404297,57.98949432373047,0.6585169434547424
428,MetaDrive-Tut-1Env-v0,174,471.6641106809655,429713,943,2456.4378492832184,56.55230712890625,-56.7811164855957,6.580995559692383,0.8,56.43487548828125,56.73360824584961,0.5808209180831909
429,MetaDrive-Tut-1Env-v0,174,473.73607202578745,430628,944,2461.0170981884003,59.482234954833984,,3.1653757095336914,0.81,59.652587890625,59.0074348449707,0.6744822263717651
430,MetaDrive-Tut-1Env-v0,174,473.7312121908061,431388,945,2465.2179930210114,58.475730895996094,,2.791590690612793,0.81,58.084266662597656,58.39845275878906,0.6703222990036011
431,MetaDrive-Tut-1Env-v0,175,473.56600916989055,432389,946,2470.1736056804657,58.07233428955078,-59.00920486450195,20.20827865600586,0.8,58.502723693847656,58.095001220703125,0.6389772891998291
432,MetaDrive-Tut-1Env-v0,175,472.98251920832234,433702,948,2477.580806493759,56.675987243652344,,4.186730861663818,0.79,56.83055114746094,56.634910583496094,0.6738669872283936
433,MetaDrive-Tut-1Env-v0,175,472.67237099898523,434195,949,2480.8575053215027,54.72740173339844,-55.47141647338867,41.64634323120117,0.79,55.31089782714844,54.88811492919922,0.5715298056602478
434,MetaDrive-Tut-1Env-v0,175,472.6621985958841,435138,950,2485.5798325538635,57.33666229248047,,22.139751434326172,0.79,58.15675354003906,57.44685363769531,0.6225542426109314
435,MetaDrive-Tut-1Env-v0,175,471.96136668370787,436306,952,2492.603118658066,57.84371566772461,,4.561150550842285,0.78,57.266292572021484,58.41368103027344,0.6416000723838806
436,MetaDrive-Tut-1Env-v0,175,471.0817049194011,437512,954,2499.9452996253967,57.99994659423828,,7.421372413635254,0.77,58.57931137084961,57.34794616699219,0.7010773420333862
437,MetaDrive-Tut-1Env-v0,175,471.0830223815173,438308,955,2504.123011112213,57.4788703918457,,4.034726619720459,0.77,57.553466796875,58.01188659667969,0.6329994201660156
438,MetaDrive-Tut-1Env-v0,175,471.04257071683173,439259,956,2508.758261203766,56.57368469238281,-56.809837341308594,4.098731517791748,0.77,56.044952392578125,56.26609420776367,0.6489825248718262
439,MetaDrive-Tut-1Env-v0,175,470.9224426468027,440260,957,2513.6107745170593,57.27451705932617,,7.712244033813477,0.76,57.65190887451172,58.243770599365234,0.7347427010536194
440,MetaDrive-Tut-1Env-v0,175,470.7658384387884,441261,958,2518.4354605674744,56.829833984375,-57.35936737060547,2.621682643890381,0.75,56.94387435913086,56.981658935546875,0.6400920152664185
441,MetaDrive-Tut-1Env-v0,175,470.6100807433558,442262,959,2523.4247753620148,56.69939041137695,,3.1989598274230957,0.74,55.930782318115234,56.71693420410156,0.6890290975570679
442,MetaDrive-Tut-1Env-v0,175,473.48043801775407,443606,961,2530.950824737549,55.09761047363281,,12.135408401489258,0.75,55.006797790527344,55.3662109375,0.6537495851516724
443,MetaDrive-Tut-1Env-v0,175,473.4821957352849,444070,962,2533.972340106964,55.7685661315918,,12.865243911743164,0.75,55.717430114746094,56.26608657836914,0.6129003167152405
444,MetaDrive-Tut-1Env-v0,175,476.66244695945375,445774,964,2542.720020532608,56.59013366699219,,4.750911712646484,0.76,55.55303192138672,56.05226516723633,0.6889798641204834
445,MetaDrive-Tut-1Env-v0,175,476.6572581350213,446502,965,2546.7267079353333,57.45826721191406,,3.177983283996582,0.76,57.43669891357422,57.65309524536133,0.7209215760231018
446,MetaDrive-Tut-1Env-v0,175,473.0954356988171,447570,967,2552.2916543483734,56.09357452392578,,5.259372234344482,0.75,56.27738952636719,56.20311737060547,0.6361057162284851
447,MetaDrive-Tut-1Env-v0,175,473.07129614951083,448488,968,2556.9690301418304,56.83557891845703,,37.8575325012207,0.75,56.219810485839844,56.730865478515625,0.6444138288497925
448,MetaDrive-Tut-1Env-v0,175,473.0782343027659,449346,969,2561.340960264206,54.59760665893555,,3.2365972995758057,0.75,54.01947784423828,54.604705810546875,0.6365339756011963
449,MetaDrive-Tut-1Env-v0,175,472.9194138817446,450347,970,2566.3193950653076,57.060237884521484,-58.25922393798828,5.316326141357422,0.74,56.1156005859375,56.89170837402344,0.6183719038963318
450,MetaDrive-Tut-1Env-v0,175,475.9846350585779,451348,971,2571.2897713184357,56.249813079833984,,3.8146817684173584,0.74,55.35865020751953,56.6109619140625,0.688129186630249
451,MetaDrive-Tut-1Env-v0,175,478.6402915209782,452349,972,2576.2061235904694,56.62783432006836,-57.299346923828125,51.894775390625,0.74,57.0911750793457,57.20549011230469,0.6431722640991211
452,MetaDrive-Tut-1Env-v0,175,481.12245503289375,453696,974,2583.974833250046,55.66997528076172,,23.28298568725586,0.74,56.85166931152344,55.327735900878906,0.6293136477470398
453,MetaDrive-Tut-1Env-v0,175,480.99938490258137,454697,975,2588.8834097385406,55.66233825683594,-56.775390625,3.072329521179199,0.73,55.523216247558594,55.669219970703125,0.6582313776016235
454,MetaDrive-Tut-1Env-v0,175,484.04706860114464,455544,976,2593.2859811782837,57.249168395996094,,4.322042465209961,0.74,57.15294647216797,57.14934539794922,0.6103571653366089
455,MetaDrive-Tut-1Env-v0,175,487.05782880992183,456545,977,2598.2086691856384,52.889991760253906,-53.09112548828125,16.39988136291504,0.74,53.592716217041016,52.956783294677734,0.6538407206535339
456,MetaDrive-Tut-1Env-v0,175,489.88254863092567,457546,978,2603.200438261032,55.772029876708984,,2.8152337074279785,0.74,56.2347297668457,55.53317642211914,0.6400893926620483
457,MetaDrive-Tut-1Env-v0,175,492.8416406767964,458382,979,2607.572904109955,52.17725372314453,,4.921214580535889,0.75,51.619544982910156,51.70381164550781,0.6633036136627197
458,MetaDrive-Tut-1Env-v0,175,492.63741163371617,459383,980,2612.521933078766,55.744667053222656,-56.60609436035156,34.14910125732422,0.74,55.70353698730469,55.877777099609375,0.6343909502029419
459,MetaDrive-Tut-1Env-v0,175,492.6006515505218,460221,981,2616.900357246399,55.461734771728516,-55.61610412597656,4.720982074737549,0.74,55.32386016845703,56.43159484863281,0.654422402381897
460,MetaDrive-Tut-1Env-v0,175,492.57347965288733,461064,982,2621.353402376175,54.70457458496094,,3.4770236015319824,0.74,54.458248138427734,54.75110626220703,0.6071109175682068
461,MetaDrive-Tut-1Env-v0,175,492.40471958434546,462065,983,2626.2487802505493,56.11454772949219,-56.70060729980469,11.60306167602539,0.73,56.51560974121094,56.089542388916016,0.6961526870727539
462,MetaDrive-Tut-1Env-v0,175,492.27370728502024,463066,984,2631.2760186195374,58.271209716796875,,3.638761043548584,0.72,58.134464263916016,58.746826171875,0.67244553565979
463,MetaDrive-Tut-1Env-v0,176,495.2760390336141,464740,986,2640.212195634842,53.40653991699219,,2.4481875896453857,0.73,53.547630310058594,53.44537353515625,0.6614819765090942
464,MetaDrive-Tut-1Env-v0,176,498.20056104583693,465741,987,2645.232455968857,53.483211517333984,-54.163108825683594,4.073890686035156,0.73,53.108680725097656,53.04705810546875,0.6208212375640869
465,MetaDrive-Tut-1Env-v0,176,498.1981888119294,466444,988,2649.214255332947,55.01312255859375,,3.883420705795288,0.73,54.780006408691406,55.992549896240234,0.6500188708305359
466,MetaDrive-Tut-1Env-v0,176,498.16471624494545,467319,989,2653.6382620334625,52.55987548828125,-52.59174346923828,4.329786777496338,0.73,52.527679443359375,52.752838134765625,0.6491330862045288
467,MetaDrive-Tut-1Env-v0,176,498.1330016413862,468175,990,2658.2404572963715,53.46425247192383,-54.86126708984375,4.086463928222656,0.73,53.19110870361328,53.13420867919922,0.6141505837440491
468,MetaDrive-Tut-1Env-v0,176,497.89268369934507,469176,991,2663.268368959427,53.97078323364258,,4.101249694824219,0.72,54.51682662963867,54.66405487060547,0.6205608248710632
469,MetaDrive-Tut-1Env-v0,176,497.8986307265492,470007,992,2667.850796699524,54.41272735595703,-54.364501953125,2.4882030487060547,0.72,54.67073440551758,54.826515197753906,0.6506853103637695
470,MetaDrive-Tut-1Env-v0,176,497.9095688538902,471443,994,2675.9591023921967,55.09339141845703,-55.7720832824707,38.497581481933594,0.72,55.15202331542969,55.01191329956055,0.6587201356887817
471,MetaDrive-Tut-1Env-v0,176,497.87794431477545,472079,995,2679.767806529999,54.22966766357422,-54.4332275390625,4.510436534881592,0.72,54.47146987915039,54.67948532104492,0.6932990550994873
472,MetaDrive-Tut-1Env-v0,176,497.88542903778375,473368,997,2687.3751904964447,52.13751983642578,,3.508449077606201,0.72,52.33525085449219,52.163673400878906,0.6171332597732544
473,MetaDrive-Tut-1Env-v0,176,497.8831517213372,474024,998,2691.110605239868,55.185218811035156,,2.777987003326416,0.72,54.82617950439453,55.19426727294922,0.6401722431182861
474,MetaDrive-Tut-1Env-v0,176,497.86684049747913,475224,1000,2698.2459256649017,54.73945236206055,,2.1421477794647217,0.72,55.00441360473633,54.564239501953125,0.6066535711288452
475,MetaDrive-Tut-1Env-v0,176,500.87559017268023,476468,1002,2705.6377885341644,53.61138916015625,,4.81498908996582,0.73,52.641571044921875,53.306461334228516,0.6453158855438232
476,MetaDrive-Tut-1Env-v0,176,500.8415067121496,477062,1003,2709.270146369934,54.43313980102539,,5.159553527832031,0.73,53.715675354003906,54.55961227416992,0.5928102731704712
477,MetaDrive-Tut-1Env-v0,176,500.8187339683716,478264,1005,2716.5682241916656,52.61526870727539,,4.489266872406006,0.73,52.254337310791016,53.05729675292969,0.6125131249427795
478,MetaDrive-Tut-1Env-v0,176,500.81455133434605,479527,1007,2724.198088645935,52.013587951660156,-52.32830810546875,2.369419813156128,0.73,51.48164367675781,51.81907653808594,0.6085612773895264
479,MetaDrive-Tut-1Env-v0,176,501.5280393423615,480123,1008,2727.82972741127,58.688629150390625,-59.22876739501953,4.896141052246094,0.74,58.5069580078125,58.63727569580078,0.6789078116416931
480,MetaDrive-Tut-1Env-v0,175,498.941501271753,481564,1011,2736.5334649086,55.30526351928711,,3.12272047996521,0.73,54.695526123046875,54.625282287597656,0.6339932084083557
481,MetaDrive-Tut-1Env-v0,175,498.91295526938944,482138,1012,2740.0595796108246,50.6986083984375,,3.8052966594696045,0.73,51.1588020324707,50.229251861572266,0.6797198057174683
482,MetaDrive-Tut-1Env-v0,175,498.94416525218594,483318,1014,2747.116231441498,52.08034896850586,,3.4515151977539062,0.73,52.10054016113281,52.14521026611328,0.6630714535713196
483,MetaDrive-Tut-1Env-v0,175,498.91825053251495,484495,1016,2754.27605676651,51.31324768066406,-52.36046600341797,5.7325849533081055,0.73,52.41709518432617,50.96013259887695,0.7097868323326111
484,MetaDrive-Tut-1Env-v0,175,498.9051713504809,485084,1017,2757.8117983341217,53.393531799316406,,13.947904586791992,0.73,53.45051574707031,53.34990692138672,0.5765186548233032
485,MetaDrive-Tut-1Env-v0,175,498.86309111611905,486220,1019,2764.677035331726,56.45130157470703,,8.843830108642578,0.73,55.76154708862305,56.64324188232422,0.6434215903282166
486,MetaDrive-Tut-1Env-v0,175,498.84186279942355,487393,1021,2771.7651216983795,52.239418029785156,-53.09859848022461,35.294342041015625,0.73,53.00286102294922,52.36592102050781,0.6110248565673828
487,MetaDrive-Tut-1Env-v0,175,498.7785439693863,488549,1023,2778.765709400177,54.17181396484375,-55.05921173095703,5.5973334312438965,0.73,54.184364318847656,54.04214096069336,0.6275685429573059
488,MetaDrive-Tut-1Env-v0,175,498.7633242356572,489135,1024,2782.490646839142,52.946861267089844,-53.610931396484375,13.11880111694336,0.73,52.32978057861328,52.6135139465332,0.6300375461578369
489,MetaDrive-Tut-1Env-v0,175,498.7729556024332,490296,1026,2789.6808116436005,53.021080017089844,,3.4063472747802734,0.73,52.72249221801758,52.95135498046875,0.6444782018661499
490,MetaDrive-Tut-1Env-v0,175,498.7257706742543,491467,1028,2796.799387216568,54.30171203613281,-54.75642776489258,21.599206924438477,0.73,54.43041229248047,54.42536163330078,0.5949056148529053
491,MetaDrive-Tut-1Env-v0,175,498.72867562669904,492043,1029,2800.367751121521,52.977352142333984,-53.47949981689453,4.965668678283691,0.73,53.589683532714844,52.67179870605469,0.6248706579208374
492,MetaDrive-Tut-1Env-v0,175,498.6535649399807,493193,1031,2807.281754016876,53.726348876953125,-53.937713623046875,42.92920684814453,0.73,53.424217224121094,53.300628662109375,0.6145424842834473
493,MetaDrive-Tut-1Env-v0,175,498.5944647770154,494341,1033,2814.2908520698547,50.53424835205078,-50.644004821777344,3.908463478088379,0.73,50.64863586425781,50.4178352355957,0.6125333905220032
494,MetaDrive-Tut-1Env-v0,175,498.5769470741124,495529,1035,2821.4696140289307,53.766048431396484,-53.68785095214844,3.5114569664001465,0.73,53.67047882080078,53.36268997192383,0.6436988115310669
495,MetaDrive-Tut-1Env-v0,175,496.0658686097288,496678,1037,2828.4376304149628,52.04972839355469,,3.209390878677368,0.72,52.75349426269531,51.661415100097656,0.6521171927452087
496,MetaDrive-Tut-1Env-v0,175,494.30102619397456,497496,1039,2833.6054096221924,55.27598571777344,,2.7373452186584473,0.73,55.06903839111328,55.40337371826172,0.6442298293113708
497,MetaDrive-Tut-1Env-v0,175,494.26776631422416,498078,1040,2837.1745533943176,54.33671188354492,,3.4038243293762207,0.73,54.387447357177734,54.46115493774414,0.722955584526062
498,MetaDrive-Tut-1Env-v0,175,494.2099399886725,499226,1042,2844.245409488678,54.11930847167969,,2.6735482215881348,0.73,54.341590881347656,54.01213836669922,0.6840680837631226
