CAWorks-ChrisA/ActorCriticSummarization/MetaDrive-Tut-10Env-v0/td3/progress.csv
,log_dir,frame_per_second,episode_reward,total_steps,total_episodes,total_time,target_q,actor_loss,critic_loss,success_rate,current_q1,current_q2,reward
0,MetaDrive-Tut-10Env-v0,721,10.161350762564606,2001,2,2.7739527225494385,,,,0.0,,,
1,MetaDrive-Tut-10Env-v0,695,10.30769654497694,3002,3,4.314293384552002,,,,0.0,,,
2,MetaDrive-Tut-10Env-v0,662,10.843948340212933,4003,4,6.045980215072632,,,,0.0,,,
3,MetaDrive-Tut-10Env-v0,675,11.033181259601653,5004,5,7.404685020446777,,,,0.0,,,
4,MetaDrive-Tut-10Env-v0,681,11.001999845477888,6005,6,8.812345743179321,,,,0.0,,,
5,MetaDrive-Tut-10Env-v0,700,10.898490117056864,7006,7,10.002307891845703,,,,0.0,,,
6,MetaDrive-Tut-10Env-v0,725,11.160961755246099,8007,8,11.040625810623169,,,,0.0,,,
7,MetaDrive-Tut-10Env-v0,668,11.460223906597811,9008,9,13.472164392471313,,,,0.0,,,
8,MetaDrive-Tut-10Env-v0,674,11.530374461679529,10009,10,14.832210063934326,0.008661208674311638,-0.01980249024927616,0.002353293588384986,0.0,0.02011418342590332,-0.03067794069647789,0.0106581412255764
9,MetaDrive-Tut-10Env-v0,542,0.8273089187052128,11010,55,20.305249214172363,0.09875743091106415,,0.005371193867176771,0.0,0.07134315371513367,0.07275769114494324,0.019831471145153046
10,MetaDrive-Tut-10Env-v0,467,0.1770274499676681,12035,88,25.750483512878418,0.046561986207962036,-0.0851677656173706,0.5020675659179688,0.0,0.054619885981082916,0.07335273921489716,-0.025098036974668503
11,MetaDrive-Tut-10Env-v0,420,-1.5633052404780943,13014,126,30.972741842269897,0.07417252659797668,,0.43730539083480835,0.0,0.10946308076381683,0.14040789008140564,-0.014551309868693352
12,MetaDrive-Tut-10Env-v0,387,-1.1266755985315586,14028,162,36.19803261756897,0.05348801612854004,,0.3515908718109131,0.0,0.10148677229881287,0.1199256181716919,-0.03250109776854515
13,MetaDrive-Tut-10Env-v0,362,-0.4471237843908675,15028,186,41.50249624252319,0.18941262364387512,,0.06776188313961029,0.0,0.08874683082103729,0.086785688996315,0.056104108691215515
14,MetaDrive-Tut-10Env-v0,336,0.9931440864625594,16771,200,49.83988094329834,0.2191382646560669,-0.27716320753097534,0.10108567774295807,0.0,0.22494322061538696,0.2169291228055954,-0.01777702569961548
15,MetaDrive-Tut-10Env-v0,327,1.1607001983514693,17772,201,54.228214740753174,0.23851603269577026,,0.30637338757514954,0.0,0.28038978576660156,0.2684595584869385,-0.03303663060069084
16,MetaDrive-Tut-10Env-v0,321,3.374594208184318,18417,202,57.32693696022034,0.4128572940826416,-0.48910319805145264,0.2729112505912781,0.0,0.4562535285949707,0.454233318567276,0.02820993959903717
17,MetaDrive-Tut-10Env-v0,309,7.371402246869901,19234,205,62.076228618621826,0.5023915767669678,,0.15267550945281982,0.0,0.5198411345481873,0.5325061082839966,0.010103236883878708
18,MetaDrive-Tut-10Env-v0,303,11.71969084384606,20024,211,66.05864429473877,0.6075366735458374,,0.47203582525253296,0.0,0.6532167792320251,0.6697701215744019,-0.007326710969209671
19,MetaDrive-Tut-10Env-v0,293,17.01597519376896,21019,222,71.56471014022827,1.0469186305999756,-1.1583715677261353,0.17688271403312683,0.0,1.058709740638733,1.0644278526306152,0.07655173540115356
20,MetaDrive-Tut-10Env-v0,282,24.789166997938974,22306,234,78.91080689430237,1.7909595966339111,,0.07223811000585556,0.0,1.7031720876693726,1.7060927152633667,0.12347252666950226
21,MetaDrive-Tut-10Env-v0,274,29.484039829309072,23098,235,84.17532658576965,2.243314266204834,,0.8341460227966309,0.0,2.0976548194885254,2.1010823249816895,0.1297229528427124
22,MetaDrive-Tut-10Env-v0,266,35.98908478306179,24152,237,90.48452663421631,2.7500178813934326,,0.6669405698776245,0.01,2.8567590713500977,2.8761472702026367,0.14316383004188538
23,MetaDrive-Tut-10Env-v0,259,43.391099497272144,25134,239,96.74443459510803,3.294968605041504,,0.7522386908531189,0.02,3.2396950721740723,3.2604753971099854,0.15044429898262024
24,MetaDrive-Tut-10Env-v0,256,49.87424313449806,26041,241,101.70698380470276,4.200751304626465,-4.399893283843994,0.16197143495082855,0.04,4.284980773925781,4.295985221862793,0.15528318285942078
25,MetaDrive-Tut-10Env-v0,249,58.477162117307046,27115,243,108.6157283782959,5.191562652587891,-5.359414577484131,0.19148945808410645,0.05,5.119373798370361,5.14340877532959,0.24408072233200073
26,MetaDrive-Tut-10Env-v0,246,67.63633853978254,28272,247,114.61462378501892,6.20181941986084,,0.1792195737361908,0.07,6.243082046508789,6.276224613189697,0.22751526534557343
27,MetaDrive-Tut-10Env-v0,244,73.74592113412785,29014,250,118.44080305099487,7.2945556640625,,1.4330952167510986,0.09,7.390712261199951,7.431658744812012,0.22118598222732544
28,MetaDrive-Tut-10Env-v0,239,82.51713274880495,30050,253,125.34711337089539,8.506353378295898,,6.4687604904174805,0.09,8.335618019104004,8.338783264160156,0.29310253262519836
29,MetaDrive-Tut-10Env-v0,236,91.26889332756465,31067,259,131.54375672340393,9.04265022277832,-9.179719924926758,0.5183455944061279,0.09,8.91312026977539,9.016993522644043,0.25101524591445923
30,MetaDrive-Tut-10Env-v0,234,101.06953628710308,32107,265,137.1999478340149,10.438560485839844,-10.562727928161621,0.9951351881027222,0.09,10.209022521972656,10.172417640686035,0.35442811250686646
31,MetaDrive-Tut-10Env-v0,231,111.65930931348007,33098,272,142.7856318950653,11.839834213256836,,0.47650307416915894,0.1,11.71324634552002,11.841684341430664,0.41737228631973267
32,MetaDrive-Tut-10Env-v0,230,120.84691131209982,34020,279,147.5787808895111,12.329717636108398,,6.3387908935546875,0.1,12.32342529296875,12.372257232666016,0.37359583377838135
33,MetaDrive-Tut-10Env-v0,228,131.04804166004507,35011,288,153.0385890007019,14.045251846313477,-14.180095672607422,0.8032907843589783,0.1,13.626236915588379,13.753091812133789,0.4098562002182007
34,MetaDrive-Tut-10Env-v0,226,143.05146221949474,36115,297,159.42802333831787,15.167564392089844,-15.632274627685547,1.1946988105773926,0.1,14.97952651977539,14.974773406982422,0.3983078896999359
35,MetaDrive-Tut-10Env-v0,224,144.68153267755525,37043,306,164.6511013507843,16.470657348632812,-16.679590225219727,5.823615550994873,0.1,16.416324615478516,16.542076110839844,0.43800756335258484
36,MetaDrive-Tut-10Env-v0,222,150.86153819724979,38025,316,170.56289625167847,17.516494750976562,-18.026269912719727,1.138344407081604,0.1,17.353130340576172,17.340728759765625,0.45620208978652954
37,MetaDrive-Tut-10Env-v0,221,158.0504086095109,39126,326,176.83429408073425,19.241657257080078,,15.438501358032227,0.1,19.341323852539062,19.362709045410156,0.46448755264282227
38,MetaDrive-Tut-10Env-v0,219,155.8079077240905,40019,335,181.92971515655518,21.15975570678711,-21.552963256835938,2.2082133293151855,0.1,20.93430519104004,20.909282684326172,0.5523000359535217
39,MetaDrive-Tut-10Env-v0,218,130.91207696148467,41050,346,188.20741391181946,21.835432052612305,,0.8037616610527039,0.04,21.883031845092773,21.77070426940918,0.5291976928710938
40,MetaDrive-Tut-10Env-v0,217,120.32749646311918,42087,356,193.90906238555908,22.20172691345215,-22.97500991821289,18.293514251708984,0.01,22.949413299560547,22.968660354614258,0.40492188930511475
41,MetaDrive-Tut-10Env-v0,215,114.89250301304068,43021,365,199.48658728599548,23.154865264892578,-23.822254180908203,6.226462364196777,0.01,23.197982788085938,23.21459197998047,0.47451332211494446
42,MetaDrive-Tut-10Env-v0,214,113.79550391810082,44054,374,205.0356891155243,24.149532318115234,,7.6173176765441895,0.0,24.316402435302734,24.371662139892578,0.49845796823501587
43,MetaDrive-Tut-10Env-v0,213,109.96045566787676,45162,384,211.06208992004395,25.392696380615234,,6.515505790710449,0.0,25.1201171875,25.009952545166016,0.5070919990539551
44,MetaDrive-Tut-10Env-v0,212,113.21238883438926,46099,392,216.69907665252686,25.46200180053711,-26.002979278564453,4.7938618659973145,0.0,24.96415901184082,24.984378814697266,0.5304796695709229
45,MetaDrive-Tut-10Env-v0,211,111.91552908029625,47007,399,222.3767533302307,27.365699768066406,-28.57886505126953,24.25599479675293,0.0,27.74429702758789,27.531848907470703,0.5237550139427185
46,MetaDrive-Tut-10Env-v0,210,111.91735587631216,48026,408,228.08260846138,27.782470703125,,7.006067752838135,0.0,27.585468292236328,27.683483123779297,0.5223313570022583
47,MetaDrive-Tut-10Env-v0,209,112.97129570638357,49058,418,233.85901880264282,29.265945434570312,,5.806966781616211,0.0,28.961997985839844,28.87398338317871,0.6229915618896484
48,MetaDrive-Tut-10Env-v0,209,111.28858538956975,50030,426,239.21058225631714,30.965930938720703,,6.934295177459717,0.0,30.862897872924805,30.788780212402344,0.5958462953567505
49,MetaDrive-Tut-10Env-v0,208,111.53185285196948,51080,436,244.85185408592224,31.487743377685547,,4.357607841491699,0.0,31.26662254333496,31.140844345092773,0.6495100259780884
50,MetaDrive-Tut-10Env-v0,208,110.46578319017777,52001,446,249.81273007392883,33.087974548339844,-33.860469818115234,4.185583114624023,0.0,33.01732635498047,33.05190658569336,0.6247305274009705
51,MetaDrive-Tut-10Env-v0,207,111.86224180839957,53173,456,256.6560437679291,32.856048583984375,-33.62689971923828,6.334321975708008,0.0,32.831268310546875,32.642784118652344,0.6403214931488037
52,MetaDrive-Tut-10Env-v0,206,113.91970108082343,54003,462,261.6124572753906,34.989601135253906,-35.635398864746094,4.798458099365234,0.0,35.08197021484375,35.25596618652344,0.580270528793335
53,MetaDrive-Tut-10Env-v0,205,112.96060999327666,55264,472,268.64981150627136,34.43476486206055,,5.710232734680176,0.01,34.64219665527344,34.35990524291992,0.6148132085800171
54,MetaDrive-Tut-10Env-v0,204,115.92508653008389,56206,478,274.6022825241089,33.981990814208984,,4.319372177124023,0.01,34.24571990966797,34.18093490600586,0.604965329170227
55,MetaDrive-Tut-10Env-v0,204,121.16570796054351,57003,481,279.3040792942047,33.850135803222656,-34.488067626953125,11.818633079528809,0.03,34.28664016723633,34.33843994140625,0.5409976243972778
56,MetaDrive-Tut-10Env-v0,203,121.78502257843658,58062,488,284.92630553245544,36.92818832397461,,5.963601112365723,0.04,36.76848220825195,36.69928741455078,0.5874761939048767
57,MetaDrive-Tut-10Env-v0,202,129.14988008364506,59217,491,291.95602583885193,37.896705627441406,-38.33304214477539,4.827146053314209,0.07,37.50836181640625,37.224178314208984,0.5869359374046326
58,MetaDrive-Tut-10Env-v0,202,130.78693674995316,60124,496,296.57906007766724,38.96018981933594,,10.716909408569336,0.09,37.886112213134766,37.89128112792969,0.5956923961639404
59,MetaDrive-Tut-10Env-v0,201,137.09013908819864,61218,499,303.43114137649536,39.705318450927734,,6.183245658874512,0.1,40.242706298828125,40.17607116699219,0.5841436386108398
60,MetaDrive-Tut-10Env-v0,201,142.50214052219005,62084,503,308.2237460613251,41.276546478271484,,5.4369401931762695,0.13,41.41160583496094,41.45585250854492,0.676984429359436
61,MetaDrive-Tut-10Env-v0,200,149.74946190650866,63363,507,315.56923818588257,43.356815338134766,-44.19697570800781,5.235818862915039,0.16,43.56005859375,43.367645263671875,0.6448233723640442
62,MetaDrive-Tut-10Env-v0,200,155.75422225819727,64315,509,321.5465898513794,42.18305587768555,-43.03968811035156,14.30229663848877,0.17,42.3553352355957,42.443702697753906,0.6481011509895325
63,MetaDrive-Tut-10Env-v0,199,160.67085992915102,65510,513,329.0796320438385,43.35924530029297,,14.097832679748535,0.19,43.26649475097656,43.561805725097656,0.6231534481048584
64,MetaDrive-Tut-10Env-v0,198,163.58636068951856,66201,517,332.85488200187683,42.35298156738281,-43.05040740966797,9.994794845581055,0.21,42.251468658447266,42.053245544433594,0.6991850137710571
65,MetaDrive-Tut-10Env-v0,198,169.03738390467993,67168,521,338.3033518791199,43.07370376586914,,19.506431579589844,0.23,42.819007873535156,42.79803466796875,0.7337958216667175
66,MetaDrive-Tut-10Env-v0,197,174.05479054356852,68362,525,345.67811131477356,44.7825927734375,,8.737598419189453,0.25,44.85033416748047,45.135597229003906,0.6400769948959351
67,MetaDrive-Tut-10Env-v0,197,178.73955520298398,69186,527,350.6009669303894,45.49578094482422,,27.484310150146484,0.27,45.950042724609375,45.911590576171875,0.7102733850479126
68,MetaDrive-Tut-10Env-v0,197,185.19960067731765,70201,530,356.323539018631,46.27464294433594,-46.469139099121094,48.151737213134766,0.3,46.18409729003906,46.12778854370117,0.5552769303321838
69,MetaDrive-Tut-10Env-v0,196,189.69934308570024,71001,532,361.09319615364075,46.77037048339844,-47.589046478271484,16.844219207763672,0.32,47.2172737121582,46.83495330810547,0.7121374607086182
70,MetaDrive-Tut-10Env-v0,195,196.84395784619628,72051,534,367.78592586517334,46.477874755859375,-48.10299301147461,12.767348289489746,0.34,47.15310287475586,47.225868225097656,0.6583515405654907
71,MetaDrive-Tut-10Env-v0,194,204.54836061686473,73118,536,375.5693004131317,47.20341110229492,,8.600528717041016,0.36,47.59418487548828,47.43327331542969,0.7047008872032166
72,MetaDrive-Tut-10Env-v0,194,209.91831795161303,74122,539,381.7231183052063,48.20502471923828,,16.25492286682129,0.38,48.10335922241211,48.15714645385742,0.5563220381736755
73,MetaDrive-Tut-10Env-v0,193,216.3958793782372,75065,541,387.059814453125,48.5120849609375,-48.281761169433594,10.197084426879883,0.4,48.02607727050781,47.500980377197266,0.6954787969589233
74,MetaDrive-Tut-10Env-v0,193,223.9656078497095,76093,543,393.69798970222473,49.679569244384766,-50.4703369140625,6.002945423126221,0.42,49.51179504394531,49.336509704589844,0.6752083897590637
75,MetaDrive-Tut-10Env-v0,193,231.87005434607948,77469,546,401.3811237812042,49.62675476074219,-50.71385955810547,11.980369567871094,0.45,49.95222473144531,49.770477294921875,0.709951639175415
76,MetaDrive-Tut-10Env-v0,192,236.36664249221212,78060,547,405.28000259399414,49.67368698120117,,7.786368370056152,0.46,49.25232696533203,49.156612396240234,0.7149820327758789
77,MetaDrive-Tut-10Env-v0,192,243.24216709356074,79341,550,412.7986989021301,49.03963851928711,-50.036346435546875,28.559680938720703,0.49,49.75279235839844,49.534271240234375,0.7022669315338135
78,MetaDrive-Tut-10Env-v0,191,249.49633750202025,80463,553,419.3830876350403,49.93524932861328,-50.853309631347656,16.99448013305664,0.52,50.27020263671875,50.298709869384766,0.6344698071479797
79,MetaDrive-Tut-10Env-v0,191,251.36936565264935,81338,556,424.1421980857849,50.11714172363281,,44.42507553100586,0.54,51.04853820800781,51.57537078857422,0.7154269218444824
80,MetaDrive-Tut-10Env-v0,191,252.62492581721136,82126,559,428.1878080368042,50.841705322265625,,8.936851501464844,0.56,51.035545349121094,51.24990463256836,0.6342203617095947
81,MetaDrive-Tut-10Env-v0,191,260.1881008394926,83339,562,435.419109582901,50.27703857421875,-50.68901062011719,28.41857147216797,0.59,50.285465240478516,50.38972473144531,0.7638882398605347
82,MetaDrive-Tut-10Env-v0,190,267.3354440640962,84309,564,441.59502625465393,50.21989440917969,-51.65631103515625,7.387822151184082,0.61,50.43975830078125,50.723777770996094,0.7605697512626648
83,MetaDrive-Tut-10Env-v0,190,275.27412804115863,85476,567,448.7877905368805,51.632362365722656,,9.959992408752441,0.63,51.67019271850586,52.20243835449219,0.707152247428894
84,MetaDrive-Tut-10Env-v0,190,281.0969254333815,86434,569,454.2896535396576,49.09221649169922,,24.92131805419922,0.65,49.656944274902344,49.89778137207031,0.7169445157051086
85,MetaDrive-Tut-10Env-v0,189,288.0432265943518,87492,571,460.6373302936554,51.328582763671875,,25.29034423828125,0.67,51.18190002441406,51.12974548339844,0.6502671241760254
86,MetaDrive-Tut-10Env-v0,189,291.3008058965617,88201,573,464.49879002571106,51.143836975097656,-51.46259307861328,34.097442626953125,0.68,50.95671844482422,51.07147979736328,0.6764754056930542
87,MetaDrive-Tut-10Env-v0,189,296.65117925042983,89090,575,470.20823764801025,52.584312438964844,,45.046207427978516,0.69,52.99760437011719,52.88576126098633,0.691169798374176
88,MetaDrive-Tut-10Env-v0,189,298.5327587839554,90314,579,476.75675344467163,52.04651641845703,,17.687305450439453,0.71,52.062355041503906,51.814666748046875,0.7748562097549438
89,MetaDrive-Tut-10Env-v0,189,299.4293788172933,91356,582,482.640997171402,52.05907440185547,,14.224039077758789,0.71,51.79765319824219,51.75587463378906,0.7726730704307556
90,MetaDrive-Tut-10Env-v0,189,305.47105687084337,92350,585,488.1545522212982,52.65598678588867,,26.897689819335938,0.74,53.168251037597656,53.38039016723633,0.7266796827316284
91,MetaDrive-Tut-10Env-v0,188,312.1863128411309,93345,587,494.9696583747864,50.838539123535156,-51.48350524902344,19.717870712280273,0.76,50.689964294433594,50.8307991027832,0.682257890701294
92,MetaDrive-Tut-10Env-v0,188,313.01124681527034,94070,589,499.3582730293274,54.63121032714844,,6.860908508300781,0.76,54.92869567871094,54.83518981933594,0.7452113032341003
93,MetaDrive-Tut-10Env-v0,188,312.39118525738957,95440,593,507.4815857410431,54.257102966308594,,8.046246528625488,0.75,53.90589904785156,53.96711730957031,0.7855396866798401
94,MetaDrive-Tut-10Env-v0,187,320.3102195236335,96487,595,513.9882395267487,54.37471008300781,-55.00225067138672,41.50343704223633,0.77,55.48283386230469,55.535858154296875,0.8478676080703735
95,MetaDrive-Tut-10Env-v0,187,321.2939621859109,97166,597,518.474203824997,55.802066802978516,,6.649844646453857,0.76,55.44102478027344,55.52845001220703,0.7631112337112427
96,MetaDrive-Tut-10Env-v0,187,323.0860763613816,98540,600,526.6572515964508,55.123477935791016,,7.731832504272461,0.78,54.214874267578125,54.52619171142578,0.7673094272613525
97,MetaDrive-Tut-10Env-v0,187,324.5496357202825,99004,601,529.2858395576477,53.697181701660156,,4.946897506713867,0.78,53.237998962402344,53.477455139160156,0.6695189476013184
98,MetaDrive-Tut-10Env-v0,186,327.3804580874511,100118,604,536.1519613265991,54.280113220214844,,7.020166397094727,0.79,54.22024917602539,54.151058197021484,0.7311199903488159
99,MetaDrive-Tut-10Env-v0,186,330.9365925331069,101184,606,542.8183631896973,55.63277816772461,,7.162364959716797,0.79,55.406089782714844,55.405025482177734,0.7462142705917358
100,MetaDrive-Tut-10Env-v0,186,331.71596142188486,102070,608,548.2242231369019,54.39598846435547,,19.182432174682617,0.81,54.0611686706543,53.96894836425781,0.7684718370437622
101,MetaDrive-Tut-10Env-v0,185,333.7980722361461,103244,611,555.4824483394623,54.077980041503906,,30.19672966003418,0.81,54.53091812133789,54.499427795410156,0.7252844572067261
102,MetaDrive-Tut-10Env-v0,185,336.06892853035174,104227,614,561.3901555538177,53.909461975097656,-54.66072463989258,35.08685302734375,0.82,54.589447021484375,54.59008026123047,0.6756525039672852
103,MetaDrive-Tut-10Env-v0,185,340.8225018177132,105162,616,566.7370386123657,55.38665771484375,,13.121654510498047,0.83,54.8122444152832,55.043426513671875,0.7736197710037231
104,MetaDrive-Tut-10Env-v0,185,343.6168072108271,106419,619,574.7503373622894,56.062477111816406,-56.742210388183594,9.443734169006348,0.84,56.235042572021484,56.259605407714844,0.7679235935211182
105,MetaDrive-Tut-10Env-v0,185,348.313822525191,107345,621,580.0305438041687,54.43328857421875,-54.976318359375,18.707656860351562,0.85,54.07780456542969,54.11771011352539,0.82715904712677
106,MetaDrive-Tut-10Env-v0,185,348.0078816882423,108613,623,585.561342716217,55.122344970703125,-55.694976806640625,8.35983657836914,0.85,54.367271423339844,54.47774124145508,0.7589507699012756
107,MetaDrive-Tut-10Env-v0,185,351.63511633760623,109073,624,588.0225665569305,53.96984100341797,-53.640960693359375,4.8509602546691895,0.86,53.96672439575195,53.457332611083984,0.7543787360191345
108,MetaDrive-Tut-10Env-v0,185,350.2505633219221,110468,628,595.5390727519989,54.528053283691406,,56.82052230834961,0.86,54.7371711730957,54.87895584106445,0.7401807308197021
109,MetaDrive-Tut-10Env-v0,185,351.36459697962397,111023,629,598.6279056072235,54.98317337036133,-56.121376037597656,6.370884895324707,0.86,55.245819091796875,55.270755767822266,0.7203341722488403
110,MetaDrive-Tut-10Env-v0,185,353.7814036124554,112046,631,605.0445983409882,56.2084846496582,,14.787683486938477,0.86,56.88022994995117,56.820308685302734,0.7777801752090454
111,MetaDrive-Tut-10Env-v0,185,356.38561386633694,113063,633,611.1041777133942,52.81893539428711,-53.52379608154297,19.29022216796875,0.86,52.28041076660156,52.69270324707031,0.7743070125579834
112,MetaDrive-Tut-10Env-v0,184,355.50759356676303,114083,635,617.6835210323334,54.54341506958008,-54.677101135253906,6.937567710876465,0.86,54.35791778564453,54.068763732910156,0.7774256467819214
113,MetaDrive-Tut-10Env-v0,184,352.5246998397299,115317,639,624.5932698249817,55.307769775390625,-55.42448806762695,6.524413108825684,0.86,55.35992431640625,55.256919860839844,0.6871761083602905
114,MetaDrive-Tut-10Env-v0,184,350.4942908839264,116070,641,628.5492963790894,53.21967315673828,,6.528250217437744,0.85,53.47337341308594,53.260528564453125,0.7264871001243591
115,MetaDrive-Tut-10Env-v0,184,348.37451536061445,117184,644,634.3884131908417,55.840850830078125,,18.990375518798828,0.85,55.48736572265625,55.478858947753906,0.7723917961120605
116,MetaDrive-Tut-10Env-v0,184,346.367217371255,118384,647,642.0970380306244,53.83391571044922,,6.407594203948975,0.84,54.18347930908203,54.29307556152344,0.7840743660926819
117,MetaDrive-Tut-10Env-v0,184,346.4298572685664,119120,649,645.8230061531067,54.15363311767578,,11.752141952514648,0.84,54.097679138183594,54.51060485839844,0.7386699914932251
118,MetaDrive-Tut-10Env-v0,184,348.12677536195537,120269,652,652.2648539543152,56.3878059387207,-57.00904846191406,14.333514213562012,0.84,56.64733123779297,56.37440490722656,0.7657022476196289
119,MetaDrive-Tut-10Env-v0,184,344.38007865102867,121023,656,655.9341058731079,53.862205505371094,-54.22267150878906,24.01791763305664,0.83,53.21772766113281,53.70594024658203,0.7596821784973145
120,MetaDrive-Tut-10Env-v0,184,349.66931631170314,122319,659,663.1040370464325,53.959041595458984,-54.36798858642578,12.307875633239746,0.84,52.979759216308594,53.13984680175781,0.7513850927352905
121,MetaDrive-Tut-10Env-v0,184,349.56372543971804,123165,661,667.9726736545563,54.89151382446289,-55.57264709472656,9.402877807617188,0.84,54.687400817871094,54.762664794921875,0.652868926525116
122,MetaDrive-Tut-10Env-v0,184,347.15657699619595,124278,664,674.1537940502167,55.20640182495117,,8.445976257324219,0.84,54.46064758300781,54.30827713012695,0.7455555200576782
123,MetaDrive-Tut-10Env-v0,184,348.5425951442368,125051,666,678.2734587192535,53.30778884887695,-53.51813507080078,8.221969604492188,0.85,53.173011779785156,53.26704406738281,0.7912611961364746
124,MetaDrive-Tut-10Env-v0,183,348.5031875377333,126527,669,688.1514835357666,53.645416259765625,-54.54618835449219,8.286567687988281,0.85,53.494258880615234,53.704322814941406,0.8101342916488647
125,MetaDrive-Tut-10Env-v0,183,346.418113778204,127283,671,692.2200696468353,55.17173767089844,-55.70939254760742,7.789099216461182,0.85,54.496192932128906,54.142486572265625,0.8229818344116211
126,MetaDrive-Tut-10Env-v0,183,347.2086304911024,128257,673,697.7894837856293,55.528167724609375,-56.07878112792969,6.039217948913574,0.85,55.031158447265625,55.261898040771484,0.7828768491744995
127,MetaDrive-Tut-10Env-v0,183,342.08129766190774,129393,677,704.0654878616333,53.54196548461914,-54.3323974609375,21.874374389648438,0.85,53.949607849121094,53.99165344238281,0.7151442766189575
128,MetaDrive-Tut-10Env-v0,183,345.36314222716896,130192,679,708.5601577758789,53.773193359375,,9.567599296569824,0.86,54.605552673339844,54.40110397338867,0.7844220995903015
129,MetaDrive-Tut-10Env-v0,183,346.14658147848337,131012,681,712.8838541507721,52.743927001953125,,15.70693302154541,0.87,53.919795989990234,53.577903747558594,0.6922005414962769
130,MetaDrive-Tut-10Env-v0,183,348.36234409838386,132214,684,720.8640365600586,54.17910385131836,,8.576683044433594,0.87,53.377540588378906,53.446624755859375,0.7405828237533569
131,MetaDrive-Tut-10Env-v0,183,345.64490388772646,133051,686,725.5151948928833,52.663177490234375,-52.93545913696289,14.745176315307617,0.87,52.181705474853516,51.90580749511719,0.6966248750686646
132,MetaDrive-Tut-10Env-v0,183,341.3479482362352,134305,690,733.6391525268555,52.764015197753906,-54.0437126159668,11.823047637939453,0.85,53.692840576171875,53.34634017944336,0.7158249616622925
133,MetaDrive-Tut-10Env-v0,182,346.62786718431977,135285,692,740.2422595024109,53.96958541870117,-54.76258850097656,8.929191589355469,0.87,54.47303009033203,54.425880432128906,0.7863172888755798
134,MetaDrive-Tut-10Env-v0,182,346.2380047293076,136068,694,745.1031382083893,56.297996520996094,,6.318088531494141,0.87,55.925228118896484,56.0651969909668,0.8358938694000244
135,MetaDrive-Tut-10Env-v0,182,349.1368114364215,137105,696,751.4145715236664,53.084354400634766,-54.003021240234375,9.879035949707031,0.88,54.06096267700195,54.15316390991211,0.7028977870941162
136,MetaDrive-Tut-10Env-v0,182,348.62988070144246,138053,698,757.1098065376282,55.224971771240234,-55.61713409423828,12.336167335510254,0.88,54.76873016357422,54.555580139160156,0.7436648607254028
137,MetaDrive-Tut-10Env-v0,182,345.4997374240546,139245,701,763.6317718029022,54.23769760131836,-54.459007263183594,9.192626953125,0.88,53.52436828613281,53.8575325012207,0.7793230414390564
138,MetaDrive-Tut-10Env-v0,182,342.34072572615236,140124,704,768.213648557663,52.961158752441406,,15.392321586608887,0.87,53.82775115966797,53.58399963378906,0.8797480463981628
139,MetaDrive-Tut-10Env-v0,182,341.27978818663905,141039,706,774.0999329090118,53.00899124145508,-53.224082946777344,12.201470375061035,0.87,53.485748291015625,53.36582565307617,0.7913646697998047
140,MetaDrive-Tut-10Env-v0,181,339.5630180926987,142217,709,781.4190912246704,53.765350341796875,-54.01326370239258,15.728982925415039,0.86,53.22892761230469,53.33697509765625,0.769808828830719
141,MetaDrive-Tut-10Env-v0,181,342.1893986617525,143438,712,788.940913438797,52.97270202636719,,6.000688552856445,0.88,52.880126953125,52.791133880615234,0.7704492211341858
142,MetaDrive-Tut-10Env-v0,181,339.06767040656223,144354,715,793.9218888282776,54.86780548095703,,7.419765949249268,0.87,55.038818359375,54.83551025390625,0.8258658647537231
143,MetaDrive-Tut-10Env-v0,181,339.14947544424575,145264,717,799.6944754123688,54.29196548461914,,25.29978370666504,0.87,54.662872314453125,54.7235107421875,0.7522212862968445
144,MetaDrive-Tut-10Env-v0,181,337.09788643083596,146112,719,804.618878364563,52.43499755859375,,7.8780059814453125,0.87,52.565185546875,52.65965270996094,0.7592797875404358
145,MetaDrive-Tut-10Env-v0,181,337.03474361608124,147349,722,812.6382532119751,52.78349304199219,-53.56150817871094,18.087255477905273,0.87,53.9111213684082,54.0104866027832,0.7616554498672485
146,MetaDrive-Tut-10Env-v0,180,339.5856907294816,148379,724,820.0098309516907,53.63267517089844,-54.27909851074219,14.380937576293945,0.88,53.21769714355469,53.08650207519531,0.7634344100952148
147,MetaDrive-Tut-10Env-v0,180,341.62667844866985,149327,726,826.0701997280121,55.16090393066406,-55.302345275878906,5.673550128936768,0.88,55.11029052734375,55.09352493286133,0.7588123083114624
148,MetaDrive-Tut-10Env-v0,180,339.6228019217318,150028,728,830.6397309303284,54.26275634765625,,8.519247055053711,0.87,53.98651885986328,54.27289581298828,0.7784522771835327
149,MetaDrive-Tut-10Env-v0,180,339.5349263891562,151003,730,837.3433203697205,55.065216064453125,-55.134307861328125,17.402894973754883,0.87,54.82686996459961,55.06593704223633,0.775333046913147
150,MetaDrive-Tut-10Env-v0,180,340.9380423647436,152042,732,844.1625106334686,54.032623291015625,,15.172834396362305,0.87,53.105289459228516,52.98712158203125,0.8285736441612244
151,MetaDrive-Tut-10Env-v0,180,335.4119563973629,153104,735,850.2636272907257,54.07765579223633,,12.976198196411133,0.87,54.6155891418457,55.16814422607422,0.8421532511711121
152,MetaDrive-Tut-10Env-v0,179,337.5851113078437,154167,738,857.5433149337769,53.759517669677734,-54.47472381591797,6.945289611816406,0.87,53.57733917236328,53.609195709228516,0.7211715579032898
153,MetaDrive-Tut-10Env-v0,179,339.4578990077241,155055,740,863.1751940250397,51.60165023803711,-52.150657653808594,12.029874801635742,0.87,52.374168395996094,51.7278938293457,0.7835519313812256
154,MetaDrive-Tut-10Env-v0,179,335.39984725779993,156101,744,869.0576069355011,52.817955017089844,-54.246002197265625,8.742250442504883,0.87,53.135765075683594,53.2470588684082,0.7390931844711304
155,MetaDrive-Tut-10Env-v0,179,338.8308997660749,157146,746,875.9761033058167,53.41665267944336,,8.74581241607666,0.88,53.09367752075195,53.34434509277344,0.7804681062698364
156,MetaDrive-Tut-10Env-v0,179,338.5821936707696,158477,749,884.581426858902,54.22865295410156,-54.722862243652344,11.680936813354492,0.88,55.20893859863281,54.906410217285156,0.7299637794494629
157,MetaDrive-Tut-10Env-v0,179,338.388833821022,159095,750,888.3322005271912,52.79725646972656,-53.121604919433594,12.10271167755127,0.88,53.17557144165039,53.14625549316406,0.853223979473114
158,MetaDrive-Tut-10Env-v0,178,340.6142528143107,160079,752,894.4185202121735,52.08935546875,-52.689170837402344,9.208328247070312,0.88,52.33806610107422,52.50930404663086,0.7172373533248901
159,MetaDrive-Tut-10Env-v0,178,345.1736224726951,161081,754,900.2946174144745,52.36438751220703,-52.777976989746094,14.363183975219727,0.89,51.89915084838867,52.12541198730469,0.8003191947937012
160,MetaDrive-Tut-10Env-v0,178,347.37526822650443,162088,757,906.5799880027771,50.8791389465332,,9.587186813354492,0.89,50.719085693359375,50.816986083984375,0.7926523685455322
161,MetaDrive-Tut-10Env-v0,178,346.3246770267017,163314,760,914.1485567092896,54.26346206665039,,7.138947486877441,0.88,53.90389633178711,53.79520034790039,0.7558321952819824
162,MetaDrive-Tut-10Env-v0,178,346.4006909743508,164371,762,921.4320151805878,55.00224685668945,-55.1484375,4.336394309997559,0.88,54.8543815612793,54.951805114746094,0.7999502420425415
163,MetaDrive-Tut-10Env-v0,178,348.69805074221915,165315,764,927.4574010372162,52.16278839111328,-52.280479431152344,7.393069267272949,0.88,52.33230209350586,51.86563491821289,0.7359200119972229
164,MetaDrive-Tut-10Env-v0,178,347.3159742667441,166002,766,931.2304840087891,52.98945617675781,,13.297748565673828,0.88,53.26311492919922,52.89765930175781,0.7308838367462158
165,MetaDrive-Tut-10Env-v0,178,346.20403930811335,167458,769,939.7940566539764,54.5841064453125,,8.097260475158691,0.88,54.82118225097656,55.33192443847656,0.8194299936294556
166,MetaDrive-Tut-10Env-v0,177,348.1853542063101,168511,771,946.9040448665619,55.702972412109375,-56.246585845947266,5.248508453369141,0.88,56.075531005859375,56.134605407714844,0.7511683702468872
167,MetaDrive-Tut-10Env-v0,177,349.56575895876017,169080,772,950.9737539291382,53.6672248840332,,32.25977325439453,0.88,54.879615783691406,54.959041595458984,0.7425441741943359
168,MetaDrive-Tut-10Env-v0,177,349.4046380407147,170240,775,957.5754504203796,52.9963264465332,,9.130792617797852,0.88,52.31393051147461,52.390052795410156,0.8172519207000732
169,MetaDrive-Tut-10Env-v0,177,351.6600867009565,171029,777,962.3298692703247,53.600345611572266,-54.00481414794922,14.167987823486328,0.89,53.12022399902344,52.977378845214844,0.7569718360900879
170,MetaDrive-Tut-10Env-v0,177,351.49911597148485,172133,780,968.7361567020416,53.44493865966797,-53.8841667175293,10.576245307922363,0.89,52.92783737182617,53.43794250488281,0.7347085475921631
171,MetaDrive-Tut-10Env-v0,177,350.59795162571186,173102,782,974.725692987442,52.63330841064453,,14.604608535766602,0.89,52.85877227783203,52.8824348449707,0.7603582143783569
172,MetaDrive-Tut-10Env-v0,177,351.3493816539592,174315,785,981.0888469219208,52.363712310791016,-53.51412582397461,31.127891540527344,0.9,52.997711181640625,53.00688934326172,0.7316532135009766
173,MetaDrive-Tut-10Env-v0,177,351.5525751386898,175207,787,986.3707528114319,51.88398742675781,-52.51863098144531,8.965354919433594,0.9,51.81544494628906,51.96991729736328,0.8213396072387695
174,MetaDrive-Tut-10Env-v0,177,356.7548688720713,176076,789,990.8592488765717,52.329856872558594,,11.088062286376953,0.92,51.72444152832031,52.37303161621094,0.8916892409324646
175,MetaDrive-Tut-10Env-v0,177,358.17781514912826,177104,791,996.6608560085297,52.6038703918457,,7.445108413696289,0.92,53.05963134765625,52.84070587158203,0.7610891461372375
176,MetaDrive-Tut-10Env-v0,177,356.07669071156494,178080,793,1002.0239086151123,53.54246520996094,,8.868490219116211,0.92,53.99136734008789,54.032413482666016,0.7656965255737305
177,MetaDrive-Tut-10Env-v0,177,351.85066789645754,179011,796,1007.1897950172424,50.946861267089844,-51.87849044799805,11.041285514831543,0.91,50.97797393798828,51.37873840332031,0.7026683688163757
178,MetaDrive-Tut-10Env-v0,177,353.4842021443647,180473,799,1015.1534721851349,52.42707443237305,-52.63731002807617,8.143067359924316,0.91,51.98884963989258,52.1231803894043,0.8486859798431396
179,MetaDrive-Tut-10Env-v0,177,353.9382303500008,181463,801,1021.1737060546875,52.77826690673828,-53.42462921142578,8.291423797607422,0.91,52.8319091796875,53.14409637451172,0.769268274307251
180,MetaDrive-Tut-10Env-v0,177,352.5636310782836,182199,804,1024.8113236427307,53.76930236816406,-53.993751525878906,11.35322380065918,0.91,52.990989685058594,53.5496711730957,0.7611696720123291
181,MetaDrive-Tut-10Env-v0,177,353.52788228620005,183290,806,1031.8433003425598,51.89851379394531,,6.882616996765137,0.91,51.77595520019531,52.31028747558594,0.7911683917045593
182,MetaDrive-Tut-10Env-v0,177,352.17641474798904,184223,809,1037.1306717395782,52.78356170654297,-53.543540954589844,8.320484161376953,0.92,53.22411346435547,52.86506652832031,0.7867854833602905
183,MetaDrive-Tut-10Env-v0,177,353.1322212160496,185158,811,1043.4509780406952,52.36115264892578,,8.353809356689453,0.91,53.03759002685547,53.01676559448242,0.7436651587486267
184,MetaDrive-Tut-10Env-v0,177,353.76364229482095,186263,814,1050.7009527683258,52.111000061035156,-52.94364547729492,60.50737762451172,0.91,53.02324295043945,53.05339050292969,0.7047121524810791
185,MetaDrive-Tut-10Env-v0,177,355.13844002438896,187144,816,1056.1617920398712,51.25387954711914,,6.932392597198486,0.91,51.3541374206543,51.58148956298828,0.8061226606369019
186,MetaDrive-Tut-10Env-v0,177,355.48436022785995,188048,818,1062.2932691574097,52.63875198364258,,11.111385345458984,0.91,53.41557312011719,53.82194519042969,0.8807079792022705
187,MetaDrive-Tut-10Env-v0,176,354.1137862981296,189026,820,1068.3817923069,51.59959411621094,,21.06713104248047,0.91,51.33742904663086,51.23388671875,0.7510021328926086
188,MetaDrive-Tut-10Env-v0,176,352.8099465513621,190250,823,1075.477298259735,51.56081008911133,,9.519440650939941,0.91,51.884803771972656,52.25786590576172,0.806422233581543
189,MetaDrive-Tut-10Env-v0,176,347.68418665092366,191005,826,1079.729481458664,53.07416534423828,-53.27510070800781,11.20826530456543,0.9,52.013973236083984,52.2728271484375,0.7765747308731079
190,MetaDrive-Tut-10Env-v0,176,348.94111878423496,192339,829,1088.3070352077484,52.11933517456055,-52.66114807128906,7.483620643615723,0.9,52.2718505859375,52.53331756591797,0.7973222732543945
191,MetaDrive-Tut-10Env-v0,176,346.0839653808465,193129,831,1092.9758701324463,50.8985710144043,-50.64909362792969,6.891551971435547,0.9,51.24835205078125,50.47971725463867,0.7524456977844238
192,MetaDrive-Tut-10Env-v0,176,345.89534068895887,194111,833,1099.0640671253204,52.296409606933594,-52.82261276245117,17.88104248046875,0.9,51.965423583984375,52.48138427734375,0.7991625666618347
193,MetaDrive-Tut-10Env-v0,176,350.2376833706335,195293,836,1107.4798698425293,53.633766174316406,-53.079376220703125,9.314079284667969,0.9,52.8875732421875,52.60856246948242,0.7868028879165649
194,MetaDrive-Tut-10Env-v0,176,348.4652973310601,196129,838,1112.1872563362122,52.74481201171875,-52.90024185180664,8.542936325073242,0.9,52.165733337402344,52.150856018066406,0.8066979050636292
195,MetaDrive-Tut-10Env-v0,176,346.24546499379096,197076,841,1117.2877385616302,51.07575988769531,,11.40333080291748,0.9,51.890647888183594,51.705623626708984,0.7695775628089905
196,MetaDrive-Tut-10Env-v0,176,349.7405762166313,198188,844,1124.431675195694,53.756256103515625,,8.1490478515625,0.9,53.52361297607422,53.76555252075195,0.8101815581321716
197,MetaDrive-Tut-10Env-v0,176,347.1520657779645,199313,847,1130.7939076423645,54.005130767822266,-54.84257507324219,9.93904972076416,0.9,54.57968521118164,54.487571716308594,0.8197658061981201
198,MetaDrive-Tut-10Env-v0,176,344.93808147468036,200109,849,1135.2718827724457,53.16048812866211,-53.80222702026367,16.07709503173828,0.9,52.63678741455078,52.43341064453125,0.7774811387062073
199,MetaDrive-Tut-10Env-v0,176,341.3749662247909,201198,852,1141.2902052402496,51.383583068847656,,12.192853927612305,0.9,51.34222412109375,50.61846160888672,0.7416555881500244
200,MetaDrive-Tut-10Env-v0,176,340.22297849395267,202037,854,1146.261556148529,52.52896499633789,-52.854530334472656,10.266702651977539,0.9,53.18070983886719,53.18297576904297,0.7647881507873535
201,MetaDrive-Tut-10Env-v0,176,338.5705051272548,203297,858,1153.2999136447906,53.223045349121094,-53.58863830566406,13.746480941772461,0.91,53.31664276123047,53.34234619140625,0.7612801194190979
202,MetaDrive-Tut-10Env-v0,176,336.4033346588915,204541,861,1161.6596512794495,51.51953125,-51.83485412597656,9.372882843017578,0.9,51.35093307495117,51.61985397338867,0.8271458148956299
203,MetaDrive-Tut-10Env-v0,176,332.9751852753976,205243,863,1165.4716506004333,52.87098693847656,-53.83876037597656,5.1191840171813965,0.9,52.54019546508789,52.96990203857422,0.8026050329208374
204,MetaDrive-Tut-10Env-v0,176,331.2720300510739,206048,866,1169.9999861717224,52.24308776855469,,10.044341087341309,0.89,52.86528778076172,52.062625885009766,0.8524035811424255
205,MetaDrive-Tut-10Env-v0,175,332.7690531709086,207101,868,1177.0813686847687,51.8460578918457,-52.14598846435547,9.748799324035645,0.89,51.89448547363281,51.56581115722656,0.7250903844833374
206,MetaDrive-Tut-10Env-v0,175,330.49999601926817,208393,871,1184.8744060993195,49.995731353759766,-50.664703369140625,10.4683256149292,0.89,49.850074768066406,50.03095245361328,0.7916663885116577
207,MetaDrive-Tut-10Env-v0,175,330.438493763002,209387,873,1191.1152229309082,52.36473846435547,-53.04104232788086,9.198111534118652,0.89,52.99879837036133,52.57780838012695,0.7780753374099731
208,MetaDrive-Tut-10Env-v0,175,332.6940420837824,210458,875,1197.988627910614,51.45208740234375,,6.9459686279296875,0.89,51.4510498046875,51.59762191772461,0.8272844552993774
209,MetaDrive-Tut-10Env-v0,175,333.61399094788595,211438,877,1204.005687713623,52.908485412597656,,7.3137359619140625,0.89,52.648231506347656,52.80580139160156,0.803959846496582
210,MetaDrive-Tut-10Env-v0,175,334.47630385075297,212052,878,1208.205822944641,53.49439239501953,,6.70864200592041,0.89,54.340354919433594,54.455379486083984,0.7977114915847778
211,MetaDrive-Tut-10Env-v0,175,334.71219970540665,213342,880,1215.2452063560486,53.11811828613281,,15.138127326965332,0.88,51.30111312866211,51.38517379760742,0.8368887305259705
212,MetaDrive-Tut-10Env-v0,175,333.21773697066214,214145,882,1220.2655341625214,50.213260650634766,-50.13147735595703,26.844799041748047,0.88,49.804351806640625,49.99216079711914,0.759101152420044
213,MetaDrive-Tut-10Env-v0,175,330.9625289317978,215051,885,1225.1575417518616,51.46080780029297,-52.32714080810547,6.507139682769775,0.87,51.4065055847168,51.911746978759766,0.7986940145492554
214,MetaDrive-Tut-10Env-v0,175,328.0610608933247,216366,889,1232.769733428955,52.49650955200195,,10.962703704833984,0.86,51.85234832763672,51.80862045288086,0.8192863464355469
215,MetaDrive-Tut-10Env-v0,175,325.0250439251356,217072,891,1236.43199300766,51.75037384033203,,7.558271408081055,0.86,51.976539611816406,51.916107177734375,0.747316837310791
216,MetaDrive-Tut-10Env-v0,175,324.3069055996982,218047,893,1242.044047832489,52.80516815185547,-53.31629943847656,6.769392013549805,0.86,52.43895721435547,52.545188903808594,0.8132566213607788
217,MetaDrive-Tut-10Env-v0,175,326.96210775386254,219224,896,1249.2236523628235,51.266143798828125,,9.680171966552734,0.86,51.05548095703125,51.3586540222168,0.7724488973617554
218,MetaDrive-Tut-10Env-v0,175,327.6417235899114,220188,898,1255.132152080536,53.17997741699219,,7.7856855392456055,0.86,53.277523040771484,53.597206115722656,0.7985326051712036
219,MetaDrive-Tut-10Env-v0,175,326.6168782846529,221152,900,1260.9287264347076,52.20108413696289,,6.821202278137207,0.86,52.06520462036133,51.94029998779297,0.8249164819717407
220,MetaDrive-Tut-10Env-v0,175,331.1419407201808,222196,902,1267.7182404994965,51.209815979003906,,7.437188148498535,0.87,51.79698944091797,51.915863037109375,0.8248090744018555
221,MetaDrive-Tut-10Env-v0,175,330.01391599421515,223225,905,1272.9481630325317,52.34309005737305,-52.877437591552734,5.9531636238098145,0.87,52.68856430053711,52.8470458984375,0.8176813721656799
222,MetaDrive-Tut-10Env-v0,175,330.2667249140035,224483,908,1280.3088064193726,51.79020309448242,-52.58989715576172,8.7269868850708,0.87,52.431697845458984,52.35394287109375,0.8071374297142029
223,MetaDrive-Tut-10Env-v0,175,331.8915930326941,225423,910,1286.0221738815308,52.6407585144043,-52.894309997558594,8.699076652526855,0.87,52.877498626708984,53.122215270996094,0.8589820861816406
224,MetaDrive-Tut-10Env-v0,175,330.4778347593464,226471,913,1291.4051246643066,51.817413330078125,-52.23244094848633,5.355708122253418,0.88,52.32836151123047,52.135196685791016,0.7121533155441284
225,MetaDrive-Tut-10Env-v0,175,332.73652587407645,227066,914,1295.3244166374207,52.16301727294922,,10.727019309997559,0.88,51.999908447265625,51.82583236694336,0.8328516483306885
226,MetaDrive-Tut-10Env-v0,175,329.95118924824834,228219,917,1301.6042943000793,52.08795166015625,-52.30565643310547,8.09994125366211,0.87,52.18227767944336,52.179054260253906,0.8090324401855469
227,MetaDrive-Tut-10Env-v0,175,326.6540403967553,229100,920,1305.904690027237,51.434268951416016,,7.32460880279541,0.86,51.49108123779297,51.78540802001953,0.830909788608551
228,MetaDrive-Tut-10Env-v0,175,325.933283405094,230206,923,1311.4384050369263,51.627479553222656,,11.773054122924805,0.86,50.92915725708008,51.06291961669922,0.8352767825126648
229,MetaDrive-Tut-10Env-v0,175,329.6049139776263,231054,925,1316.0643784999847,51.838626861572266,,11.145483016967773,0.86,51.550384521484375,51.87782287597656,0.7314804792404175
230,MetaDrive-Tut-10Env-v0,175,328.3485556070365,232270,928,1322.5171654224396,52.62145233154297,,9.777241706848145,0.87,53.4002685546875,53.495330810546875,0.8796787858009338
231,MetaDrive-Tut-10Env-v0,175,328.5710427613717,233016,930,1326.6400334835052,53.69482421875,,24.880517959594727,0.87,53.9946174621582,53.79357147216797,0.7725608348846436
232,MetaDrive-Tut-10Env-v0,175,326.5896514067463,234261,933,1333.9631004333496,52.00541687011719,-52.47544479370117,8.643044471740723,0.86,51.42011260986328,51.341033935546875,0.876359760761261
233,MetaDrive-Tut-10Env-v0,175,328.9659873424939,235198,935,1339.6546862125397,49.772483825683594,,7.279415130615234,0.87,50.62284851074219,50.827354431152344,0.7306874990463257
234,MetaDrive-Tut-10Env-v0,175,326.23121061004963,236084,937,1344.584106206894,51.04292297363281,,6.375297546386719,0.87,50.737876892089844,50.52137756347656,0.7670483589172363
235,MetaDrive-Tut-10Env-v0,175,327.93016516527035,237477,940,1352.4236278533936,52.44095230102539,-52.9664306640625,8.442960739135742,0.87,52.16273498535156,52.085723876953125,0.7631895542144775
236,MetaDrive-Tut-10Env-v0,175,331.7476893160996,238367,942,1357.1523690223694,52.20248031616211,-52.80633544921875,8.277999877929688,0.88,52.3291015625,52.43280029296875,0.8886501789093018
237,MetaDrive-Tut-10Env-v0,175,332.1814969848453,239436,944,1363.734048128128,51.60832977294922,,7.19041633605957,0.88,51.11030960083008,51.43972396850586,0.787352442741394
238,MetaDrive-Tut-10Env-v0,175,332.36304361323846,240359,946,1368.7854351997375,51.33147048950195,-52.410247802734375,6.6647629737854,0.88,50.9772834777832,51.127079010009766,0.7743213176727295
239,MetaDrive-Tut-10Env-v0,175,331.4695474974084,241013,948,1373.6194722652435,51.16923522949219,-50.88551330566406,7.634057998657227,0.87,51.253150939941406,50.942474365234375,0.7334674596786499
240,MetaDrive-Tut-10Env-v0,175,333.8010341184918,242407,951,1381.6746349334717,52.780277252197266,-52.656883239746094,6.119691848754883,0.87,52.989715576171875,52.89192199707031,0.8256707191467285
241,MetaDrive-Tut-10Env-v0,175,332.5919380148602,243066,953,1385.0349488258362,53.55613708496094,,7.217800140380859,0.87,53.34833526611328,53.77589797973633,0.7848948240280151
242,MetaDrive-Tut-10Env-v0,175,334.156114249135,244589,957,1393.8329856395721,52.29697799682617,-52.77707290649414,7.341524124145508,0.87,52.991920471191406,53.21813201904297,0.7966153025627136
243,MetaDrive-Tut-10Env-v0,175,338.0822171474437,245413,959,1399.3440680503845,51.65023422241211,-51.55306625366211,18.200382232666016,0.87,51.39512634277344,51.84525680541992,0.8543828129768372
244,MetaDrive-Tut-10Env-v0,175,333.776917301875,246129,961,1403.2071001529694,52.696598052978516,-53.249942779541016,9.402101516723633,0.87,52.25484085083008,52.50246810913086,0.7982439398765564
245,MetaDrive-Tut-10Env-v0,175,333.60880890377047,247180,964,1408.7839918136597,50.76078796386719,,7.597287178039551,0.87,50.868408203125,50.623573303222656,0.8039101362228394
246,MetaDrive-Tut-10Env-v0,175,334.86929339405583,248347,967,1416.1279213428497,53.570037841796875,-53.73655700683594,10.692752838134766,0.87,52.553955078125,53.21318817138672,0.7891317009925842
247,MetaDrive-Tut-10Env-v0,175,334.713198822986,249259,969,1421.396876335144,53.67237854003906,-53.93411636352539,10.191503524780273,0.87,52.987388610839844,53.276973724365234,0.8320383429527283
248,MetaDrive-Tut-10Env-v0,175,331.8501804828572,250482,972,1428.4943475723267,52.85247039794922,,7.240328311920166,0.87,53.710792541503906,53.34984588623047,0.7540790438652039
249,MetaDrive-Tut-10Env-v0,175,330.6174404267544,251224,974,1433.0598332881927,50.13378143310547,,17.204784393310547,0.86,49.81535720825195,50.075809478759766,0.7395027875900269
250,MetaDrive-Tut-10Env-v0,175,328.5948852451879,252007,976,1437.8274002075195,52.19852828979492,-52.43056106567383,10.441327095031738,0.86,52.26873016357422,52.24579620361328,0.7960058450698853
251,MetaDrive-Tut-10Env-v0,175,328.706546773885,253151,978,1445.3400087356567,50.23982238769531,-50.794158935546875,18.0225830078125,0.86,49.76704406738281,49.825157165527344,0.7422771453857422
252,MetaDrive-Tut-10Env-v0,175,332.07864879271597,254262,980,1452.7835183143616,51.762874603271484,,9.441286087036133,0.87,52.33434295654297,52.14417266845703,0.8209338784217834
253,MetaDrive-Tut-10Env-v0,174,333.2579235942665,255321,982,1459.2800929546356,53.15520477294922,-53.495277404785156,5.66245174407959,0.87,53.57362365722656,53.50571060180664,0.7778499126434326
254,MetaDrive-Tut-10Env-v0,174,335.45639965714247,256269,984,1465.073936700821,53.00239181518555,-53.679542541503906,6.126005172729492,0.87,53.01985168457031,52.579002380371094,0.7789450883865356
255,MetaDrive-Tut-10Env-v0,174,338.488523430852,257269,986,1471.124820947647,51.5970458984375,-52.54484176635742,6.650341033935547,0.88,50.995262145996094,51.16693115234375,0.8084561824798584
256,MetaDrive-Tut-10Env-v0,174,338.9885631687178,258048,988,1475.6371502876282,49.183109283447266,,8.331521034240723,0.89,48.93390655517578,48.85355758666992,0.8324858546257019
257,MetaDrive-Tut-10Env-v0,174,340.8873499080921,259042,990,1481.2284832000732,51.38404083251953,,30.508899688720703,0.89,51.68437194824219,51.575199127197266,0.7075613737106323
258,MetaDrive-Tut-10Env-v0,174,339.6084891056045,260138,993,1486.917254447937,51.68589782714844,,9.76974105834961,0.89,52.115447998046875,52.51224899291992,0.8243628740310669
259,MetaDrive-Tut-10Env-v0,174,338.6871221639538,261387,996,1494.1052446365356,51.41901779174805,-51.825469970703125,8.35423755645752,0.89,51.551002502441406,51.71459197998047,0.7586878538131714
260,MetaDrive-Tut-10Env-v0,174,337.2472890380291,262163,998,1498.4851851463318,52.095802307128906,-52.59100341796875,9.193781852722168,0.89,51.88850784301758,52.134002685546875,0.8330804705619812
261,MetaDrive-Tut-10Env-v0,174,337.23572514947426,263592,1001,1507.2872819900513,52.68780517578125,,5.254357814788818,0.89,52.48274230957031,52.19776153564453,0.8282083868980408
262,MetaDrive-Tut-10Env-v0,174,337.2451286468321,264575,1003,1513.5827150344849,52.85377502441406,-53.47922897338867,9.537835121154785,0.89,51.60460662841797,51.57075881958008,0.8257744908332825
263,MetaDrive-Tut-10Env-v0,174,337.14449395482166,265133,1005,1516.58846449852,50.846675872802734,-51.63927459716797,27.351728439331055,0.89,50.98247146606445,51.18396759033203,0.7762753963470459
264,MetaDrive-Tut-10Env-v0,174,338.27393573274844,266621,1008,1525.490202665329,50.24409484863281,-50.96818542480469,7.5456156730651855,0.89,49.93088150024414,49.725982666015625,0.7572249174118042
265,MetaDrive-Tut-10Env-v0,174,339.1301581637155,267163,1009,1528.793184518814,50.74394226074219,-50.879600524902344,6.7527923583984375,0.89,50.06007385253906,50.6212272644043,0.7188948392868042
266,MetaDrive-Tut-10Env-v0,174,339.25792700930003,268204,1011,1534.9150850772858,52.99774932861328,,6.0603814125061035,0.89,53.14895248413086,53.29754638671875,0.84421306848526
267,MetaDrive-Tut-10Env-v0,174,340.76725525432965,269104,1013,1540.864247560501,49.37533950805664,,22.141756057739258,0.9,48.84584045410156,49.23699188232422,0.7126765251159668
268,MetaDrive-Tut-10Env-v0,174,340.2066982541164,270543,1016,1549.4452390670776,49.897666931152344,-49.153385162353516,8.546000480651855,0.91,50.37074661254883,50.09444046020508,0.7579460144042969
269,MetaDrive-Tut-10Env-v0,174,342.8394876799437,271508,1018,1555.359069108963,50.01178741455078,,5.291615009307861,0.91,49.74789047241211,50.395294189453125,0.7839160561561584
270,MetaDrive-Tut-10Env-v0,174,344.99496109628353,272418,1020,1560.1786479949951,48.37342834472656,,6.644554138183594,0.92,48.528785705566406,48.462181091308594,0.7560293674468994
271,MetaDrive-Tut-10Env-v0,174,347.23176699858783,273380,1022,1565.9741234779358,49.944923400878906,,12.80984115600586,0.92,49.9564208984375,49.51295471191406,0.7614540457725525
272,MetaDrive-Tut-10Env-v0,174,347.8794580625321,274269,1024,1570.8522176742554,50.455352783203125,-50.797218322753906,10.625808715820312,0.93,50.30818176269531,50.51880645751953,0.7233332395553589
273,MetaDrive-Tut-10Env-v0,174,349.71157835147244,275402,1026,1577.897243976593,51.48553466796875,,4.282166004180908,0.93,50.95568084716797,51.41130828857422,0.7861487865447998
274,MetaDrive-Tut-10Env-v0,174,348.62301586612733,276006,1028,1581.2858805656433,51.138423919677734,,5.5568342208862305,0.93,51.193206787109375,50.95887756347656,0.7799268960952759
275,MetaDrive-Tut-10Env-v0,174,350.866445668847,277385,1031,1589.5269403457642,48.36815643310547,-48.59061050415039,11.169273376464844,0.94,49.63140106201172,49.605159759521484,0.8230159282684326
276,MetaDrive-Tut-10Env-v0,174,352.04295593773713,278022,1032,1593.5400834083557,50.65901184082031,,4.795286178588867,0.94,50.89874267578125,51.33844757080078,0.8540322184562683
277,MetaDrive-Tut-10Env-v0,174,349.2910320905303,279122,1035,1599.2839360237122,51.43022918701172,,17.047138214111328,0.94,51.99944305419922,52.03654479980469,0.7618409395217896
278,MetaDrive-Tut-10Env-v0,174,350.5214701324234,280139,1037,1605.3577778339386,49.9774169921875,-49.88904571533203,6.44881534576416,0.94,50.3948860168457,50.006072998046875,0.8213009238243103
279,MetaDrive-Tut-10Env-v0,174,351.99072221770183,281154,1039,1611.3531193733215,50.65655517578125,,8.689109802246094,0.94,50.125911712646484,49.7183723449707,0.7759222984313965
280,MetaDrive-Tut-10Env-v0,174,349.2240819116938,282066,1042,1616.115986585617,49.7745361328125,,7.910049915313721,0.93,50.62117385864258,50.365806579589844,0.7615978717803955
281,MetaDrive-Tut-10Env-v0,174,348.69020047432247,283201,1044,1623.306185722351,47.16476821899414,-48.32892990112305,6.198409080505371,0.93,47.16995620727539,47.25543212890625,0.7842556238174438
282,MetaDrive-Tut-10Env-v0,174,349.0320221860868,284030,1046,1628.1032576560974,51.575992584228516,,6.895129680633545,0.93,51.69470977783203,51.48179626464844,0.7682093381881714
283,MetaDrive-Tut-10Env-v0,174,352.11878792315406,285097,1048,1634.8181569576263,48.72669219970703,-48.76470184326172,5.307408332824707,0.94,48.49203109741211,48.778900146484375,0.7960144281387329
284,MetaDrive-Tut-10Env-v0,174,354.3422082712821,286248,1050,1641.7979369163513,49.13994216918945,,9.075296401977539,0.94,49.854976654052734,49.718143463134766,0.7870089411735535
285,MetaDrive-Tut-10Env-v0,174,354.38155464070667,287059,1052,1646.379806280136,48.6529541015625,-49.447509765625,16.353557586669922,0.94,48.61983871459961,48.58802795410156,0.7547359466552734
286,MetaDrive-Tut-10Env-v0,174,356.6778532415028,288044,1054,1652.7889680862427,49.37629699707031,,18.282005310058594,0.94,49.289581298828125,49.03925323486328,0.7541993260383606
287,MetaDrive-Tut-10Env-v0,174,357.7270683724761,289305,1057,1660.1352291107178,49.744873046875,-50.525115966796875,4.806884288787842,0.95,49.82224655151367,49.674198150634766,0.7357386946678162
288,MetaDrive-Tut-10Env-v0,174,356.98598878971285,290146,1059,1664.5458607673645,49.76622009277344,,8.047128677368164,0.96,49.75897216796875,49.319580078125,0.835450291633606
289,MetaDrive-Tut-10Env-v0,174,357.7153691998739,291249,1062,1670.173620223999,49.61724853515625,-49.39430618286133,10.367483139038086,0.96,49.88841247558594,49.88197326660156,0.7270276546478271
290,MetaDrive-Tut-10Env-v0,174,360.2593407167561,292254,1064,1675.8067345619202,50.239501953125,,6.564680099487305,0.96,50.850852966308594,50.58983612060547,0.8170018196105957
291,MetaDrive-Tut-10Env-v0,174,364.02523238195056,293322,1066,1681.8652091026306,50.563201904296875,,5.550316333770752,0.97,50.4991340637207,51.168304443359375,0.8380782604217529
292,MetaDrive-Tut-10Env-v0,174,360.72917736659906,294020,1068,1685.5578365325928,49.611961364746094,,7.531395435333252,0.97,49.59590148925781,49.86531066894531,0.7945572137832642
293,MetaDrive-Tut-10Env-v0,174,363.2143701405101,295347,1071,1693.3120527267456,49.88188171386719,-50.43226623535156,8.615716934204102,0.97,49.954593658447266,50.33448791503906,0.8078469634056091
294,MetaDrive-Tut-10Env-v0,174,361.76763880458645,296201,1073,1697.800351858139,49.15937042236328,-49.23823165893555,9.331515312194824,0.97,47.9477424621582,48.051979064941406,0.8380725383758545
295,MetaDrive-Tut-10Env-v0,174,363.302762189101,297454,1076,1704.4793689250946,50.88218688964844,,7.5764689445495605,0.98,50.433326721191406,51.00707244873047,0.7982120513916016
296,MetaDrive-Tut-10Env-v0,174,361.1928827872241,298308,1078,1709.052666425705,48.91181945800781,,5.821290016174316,0.98,48.98955535888672,48.841331481933594,0.7515893578529358
297,MetaDrive-Tut-10Env-v0,174,356.16961763919835,299271,1081,1714.560776233673,50.653663635253906,-51.273048400878906,35.985015869140625,0.97,50.65898132324219,50.407283782958984,0.8118203282356262
298,MetaDrive-Tut-10Env-v0,174,356.0675054912119,300377,1083,1721.5290789604187,47.91094970703125,-48.338623046875,11.778176307678223,0.97,48.205318450927734,48.400474548339844,0.7604498267173767
299,MetaDrive-Tut-10Env-v0,174,353.8715054879738,301134,1085,1725.7374317646027,49.991920471191406,,8.092135429382324,0.97,50.079402923583984,49.8087158203125,0.793292224407196
300,MetaDrive-Tut-10Env-v0,174,353.94434621854003,302295,1088,1732.491405248642,50.05467224121094,-50.45014190673828,8.766340255737305,0.97,49.34320068359375,49.219268798828125,0.7859984636306763
301,MetaDrive-Tut-10Env-v0,174,350.6000052040022,303164,1091,1737.4827013015747,50.364463806152344,,15.492315292358398,0.97,50.161033630371094,49.48805236816406,0.8423242568969727
302,MetaDrive-Tut-10Env-v0,174,354.0105470826834,304255,1093,1745.0573751926422,46.954002380371094,-47.32604217529297,8.422826766967773,0.97,47.572509765625,47.266334533691406,0.7576987147331238
303,MetaDrive-Tut-10Env-v0,174,355.4479609196728,305113,1095,1750.1900007724762,49.481956481933594,-50.05603790283203,6.437200546264648,0.98,50.411563873291016,50.00347137451172,0.7679826617240906
304,MetaDrive-Tut-10Env-v0,174,356.9389263643392,306127,1097,1756.4362244606018,48.814971923828125,-49.180633544921875,11.220470428466797,0.98,49.14903259277344,48.78899383544922,0.7778208255767822
305,MetaDrive-Tut-10Env-v0,174,357.38150488397287,307164,1099,1762.633305311203,48.50658416748047,,5.838862895965576,0.98,48.62127685546875,48.51898956298828,0.7923582792282104
306,MetaDrive-Tut-10Env-v0,174,357.5300595534383,308430,1102,1769.8338475227356,48.655635833740234,,6.0508036613464355,0.98,48.53268051147461,48.615482330322266,0.7826809883117676
307,MetaDrive-Tut-10Env-v0,174,356.80805725860256,309315,1104,1774.5834743976593,48.251976013183594,-49.03074645996094,55.73110580444336,0.98,49.050926208496094,49.063175201416016,0.7433308362960815
308,MetaDrive-Tut-10Env-v0,174,359.0482684922024,310253,1106,1780.110312461853,49.900665283203125,-50.27857208251953,7.782930850982666,0.98,49.776817321777344,49.24290466308594,0.7939885854721069
309,MetaDrive-Tut-10Env-v0,174,359.3728931782262,311363,1108,1786.563392162323,49.769065856933594,-49.79671096801758,10.939696311950684,0.98,50.610809326171875,49.96894454956055,0.769906222820282
310,MetaDrive-Tut-10Env-v0,174,359.59679911251334,312340,1110,1792.1704268455505,46.15751647949219,,9.45314884185791,0.98,45.7718620300293,45.45729446411133,0.7570081949234009
311,MetaDrive-Tut-10Env-v0,174,358.2727697101858,313314,1112,1797.9714443683624,50.24956512451172,,8.72730541229248,0.98,49.985328674316406,50.29986572265625,0.8173128962516785
312,MetaDrive-Tut-10Env-v0,174,359.49741813234056,314148,1114,1802.8239350318909,48.665584564208984,,6.35843563079834,0.98,48.96177673339844,48.81837463378906,0.7596354484558105
313,MetaDrive-Tut-10Env-v0,174,352.85074791823774,315410,1118,1810.0579960346222,48.411006927490234,,8.593189239501953,0.97,49.05897903442383,48.69329071044922,0.740321934223175
314,MetaDrive-Tut-10Env-v0,174,354.85992707982075,316017,1119,1814.080332994461,48.47056579589844,-48.56736755371094,6.609584808349609,0.97,48.71070861816406,49.11023712158203,0.8866610527038574
315,MetaDrive-Tut-10Env-v0,174,354.96976264810365,317355,1122,1822.6074075698853,48.55052185058594,-48.91193389892578,11.152139663696289,0.97,49.01627731323242,48.94075393676758,0.8077571988105774
316,MetaDrive-Tut-10Env-v0,174,355.5782117430866,318293,1124,1827.816826581955,50.318763732910156,-50.684635162353516,8.87118148803711,0.96,50.25373840332031,50.22526550292969,0.87530517578125
317,MetaDrive-Tut-10Env-v0,174,353.10206539091894,319048,1126,1832.0023274421692,49.45734405517578,,10.912981033325195,0.95,49.01753234863281,49.38054656982422,0.8327024579048157
318,MetaDrive-Tut-10Env-v0,174,354.6015930641442,320018,1128,1837.241709470749,48.238670349121094,,5.14164924621582,0.95,48.338722229003906,48.25642776489258,0.7701585292816162
319,MetaDrive-Tut-10Env-v0,174,353.9622320473783,321239,1131,1844.1059215068817,46.89484405517578,-47.607826232910156,6.7468671798706055,0.95,46.836978912353516,46.87986755371094,0.7975308895111084
320,MetaDrive-Tut-10Env-v0,174,352.797934601962,322119,1133,1849.186241865158,48.4031982421875,-48.88658142089844,10.679121017456055,0.95,49.755313873291016,49.20819854736328,0.797118604183197
321,MetaDrive-Tut-10Env-v0,174,353.97611156627295,323011,1135,1854.1551043987274,49.54069519042969,-50.5203971862793,15.972952842712402,0.95,48.78110122680664,48.512840270996094,0.8043111562728882
322,MetaDrive-Tut-10Env-v0,174,353.9786331871143,324044,1137,1859.6011736392975,49.621543884277344,,5.486130237579346,0.95,49.163841247558594,49.051509857177734,0.7817482352256775
323,MetaDrive-Tut-10Env-v0,174,352.69050079179135,325223,1140,1866.0250561237335,48.47246551513672,-48.87018585205078,8.548944473266602,0.95,48.98918914794922,48.716209411621094,0.7415277361869812
324,MetaDrive-Tut-10Env-v0,174,353.8522694044474,326061,1142,1870.2726407051086,47.453277587890625,-47.80767822265625,7.011702537536621,0.96,46.71482849121094,46.67779541015625,0.7731431722640991
325,MetaDrive-Tut-10Env-v0,174,352.9128942639446,327319,1145,1876.699934720993,46.76446533203125,-46.942893981933594,9.13216495513916,0.96,47.039894104003906,46.84325408935547,0.7986528873443604
326,MetaDrive-Tut-10Env-v0,174,348.23924024518993,328215,1148,1881.1249890327454,49.000579833984375,-49.33328628540039,7.155078411102295,0.96,48.86659240722656,48.97283935546875,0.7950245141983032
327,MetaDrive-Tut-10Env-v0,174,345.93441418777644,329494,1151,1888.0618407726288,46.956268310546875,,5.147494316101074,0.96,46.52615737915039,46.708465576171875,0.7684649229049683
328,MetaDrive-Tut-10Env-v0,174,344.6444261998681,330222,1153,1891.4703283309937,48.256553649902344,,11.54061508178711,0.96,47.980560302734375,47.724952697753906,0.7913488149642944
329,MetaDrive-Tut-10Env-v0,174,346.75536497275294,331309,1155,1897.5928823947906,47.68150329589844,-47.796142578125,6.848852157592773,0.96,47.55476760864258,48.23463439941406,0.7627800107002258
330,MetaDrive-Tut-10Env-v0,174,345.2204477771777,332127,1157,1902.0952696800232,50.40869903564453,-50.49543762207031,5.728949069976807,0.96,49.63037872314453,49.792030334472656,0.7635313868522644
331,MetaDrive-Tut-10Env-v0,174,346.89943878777666,333269,1159,1907.8718750476837,48.708499908447266,-49.41236114501953,6.508266925811768,0.96,48.89378356933594,48.98845672607422,0.8087486624717712
332,MetaDrive-Tut-10Env-v0,174,347.72891428760033,334519,1162,1914.6089735031128,49.33930206298828,-49.829952239990234,14.302957534790039,0.95,49.04206466674805,49.025516510009766,0.828237771987915
333,MetaDrive-Tut-10Env-v0,174,344.70518645341474,335074,1164,1917.4038517475128,49.38670349121094,,12.891529083251953,0.94,49.581748962402344,49.613548278808594,0.7466793060302734
334,MetaDrive-Tut-10Env-v0,174,344.4759485381968,336077,1166,1922.9953243732452,48.08344650268555,-49.078643798828125,6.954225063323975,0.93,48.05957794189453,47.50177001953125,0.753577470779419
335,MetaDrive-Tut-10Env-v0,174,343.20312993609696,337448,1170,1929.7702097892761,47.78942108154297,,9.147570610046387,0.93,47.550601959228516,47.653053283691406,0.8000428676605225
336,MetaDrive-Tut-10Env-v0,174,345.2113131631434,338041,1171,1933.4962418079376,48.05718231201172,-47.79613494873047,9.49107551574707,0.93,47.66712188720703,48.138771057128906,0.8093395829200745
337,MetaDrive-Tut-10Env-v0,174,347.35915998465885,339493,1174,1941.685579776764,48.759925842285156,-48.99439239501953,8.801246643066406,0.93,47.52398681640625,47.5621337890625,0.8182751536369324
338,MetaDrive-Tut-10Env-v0,174,347.405442421314,340324,1176,1946.542620897293,45.87611389160156,,10.799137115478516,0.93,46.12714385986328,45.71088409423828,0.7690120339393616
339,MetaDrive-Tut-10Env-v0,174,348.73354911350475,341246,1178,1952.3178353309631,48.21055603027344,,10.193290710449219,0.93,48.17913818359375,47.97607421875,0.783480167388916
340,MetaDrive-Tut-10Env-v0,174,350.4659126155695,342037,1180,1957.0865828990936,49.24809646606445,-49.714359283447266,13.152507781982422,0.94,49.28813934326172,49.51421356201172,0.7949862480163574
341,MetaDrive-Tut-10Env-v0,174,347.08237633781573,343209,1184,1964.2844183444977,51.62333679199219,-52.09741973876953,5.1264967918396,0.94,51.823028564453125,51.77533721923828,0.797487199306488
342,MetaDrive-Tut-10Env-v0,174,349.46410537661194,344274,1186,1971.704644203186,50.28766632080078,,5.890215873718262,0.94,49.863155364990234,50.25162124633789,0.7631773948669434
343,MetaDrive-Tut-10Env-v0,174,350.91933160565236,345103,1188,1976.143253326416,48.23826217651367,-48.25843048095703,11.973552703857422,0.94,48.07099151611328,48.630035400390625,0.7949753999710083
344,MetaDrive-Tut-10Env-v0,174,353.35668012504885,346016,1190,1981.5648531913757,48.31016159057617,,7.426091194152832,0.94,47.86460876464844,48.46697235107422,0.8030822277069092
345,MetaDrive-Tut-10Env-v0,174,348.48632140818654,347156,1194,1987.2235877513885,46.96358108520508,,5.64716911315918,0.94,47.385162353515625,47.16138458251953,0.7663134336471558
346,MetaDrive-Tut-10Env-v0,174,349.03433978606853,348028,1196,1992.478803396225,46.313072204589844,,15.59892463684082,0.94,45.898372650146484,46.459930419921875,0.7441568374633789
347,MetaDrive-Tut-10Env-v0,174,346.92936447603665,349263,1199,1998.732553243637,46.214237213134766,-47.01675033569336,10.7626371383667,0.94,46.614418029785156,46.03803253173828,0.788357675075531
348,MetaDrive-Tut-10Env-v0,174,346.8733344625977,350116,1201,2003.8446362018585,46.73115539550781,,5.125584125518799,0.94,45.9990234375,46.02333068847656,0.7701636552810669
349,MetaDrive-Tut-10Env-v0,174,348.8912967550553,351172,1203,2010.3863730430603,46.10310363769531,,21.994956970214844,0.93,46.37602615356445,46.34297561645508,0.6873055100440979
350,MetaDrive-Tut-10Env-v0,174,346.6545937004364,352277,1206,2016.918078660965,47.94995880126953,-48.804595947265625,10.08166217803955,0.92,48.529563903808594,49.180397033691406,0.8601625561714172
351,MetaDrive-Tut-10Env-v0,174,343.9971061463181,353039,1208,2021.2511930465698,47.3465461730957,-47.35450744628906,6.349811553955078,0.92,47.434207916259766,47.617835998535156,0.7668453454971313
352,MetaDrive-Tut-10Env-v0,174,339.6154051171404,354020,1211,2026.440182209015,48.00420379638672,,10.14392375946045,0.92,47.75062561035156,47.778560638427734,0.8066070079803467
353,MetaDrive-Tut-10Env-v0,174,340.69104108657007,355219,1214,2033.1178812980652,46.01972961425781,-47.043487548828125,8.532696723937988,0.92,46.52166748046875,46.17766571044922,0.7643231749534607
354,MetaDrive-Tut-10Env-v0,174,342.7840003030796,356180,1217,2038.0194838047028,47.13542175292969,,10.257875442504883,0.93,46.10490798950195,46.02788543701172,0.7803334593772888
355,MetaDrive-Tut-10Env-v0,174,339.2325095347101,357352,1220,2044.1493062973022,48.540016174316406,,12.330865859985352,0.93,47.715614318847656,48.07402801513672,0.8364832401275635
356,MetaDrive-Tut-10Env-v0,174,338.5222755121962,358261,1222,2049.507901906967,45.74666213989258,-46.36592102050781,13.4924898147583,0.93,46.6070671081543,46.10716247558594,0.8038455247879028
357,MetaDrive-Tut-10Env-v0,174,339.3153044506744,359472,1225,2057.1237597465515,47.29225158691406,,10.466751098632812,0.94,47.28585433959961,47.116607666015625,0.8310751914978027
358,MetaDrive-Tut-10Env-v0,174,339.68553144160535,360318,1227,2062.442070245743,46.36985397338867,,5.982260704040527,0.95,46.25352478027344,45.978023529052734,0.7202107310295105
359,MetaDrive-Tut-10Env-v0,174,339.3139813739851,361237,1229,2067.9609367847443,47.94696807861328,-48.25627136230469,11.064308166503906,0.95,47.410614013671875,48.143394470214844,0.782162070274353
360,MetaDrive-Tut-10Env-v0,174,340.88208001529233,362363,1231,2075.0886805057526,46.96316146850586,-46.64881896972656,13.067148208618164,0.95,46.508628845214844,47.03086853027344,0.7546724081039429
361,MetaDrive-Tut-10Env-v0,174,341.0802304463877,363298,1233,2079.932455062866,46.52330780029297,,36.775577545166016,0.95,47.23552322387695,47.11301803588867,0.7847785949707031
362,MetaDrive-Tut-10Env-v0,174,339.89652173792166,364044,1235,2083.4600942134857,46.652618408203125,,8.167291641235352,0.95,47.01190185546875,47.19675064086914,0.8149071931838989
363,MetaDrive-Tut-10Env-v0,174,336.59073223249993,365214,1239,2089.429885864258,47.17497253417969,,5.943267345428467,0.94,46.999229431152344,46.94479751586914,0.7447090148925781
364,MetaDrive-Tut-10Env-v0,174,337.6789663606266,366242,1241,2094.9082612991333,46.575538635253906,,7.248172760009766,0.94,46.143184661865234,45.970130920410156,0.8248335123062134
365,MetaDrive-Tut-10Env-v0,174,333.5291962821156,367026,1244,2099.2226572036743,47.78556442260742,,15.532103538513184,0.93,49.726802825927734,49.5770263671875,0.7661325931549072
366,MetaDrive-Tut-10Env-v0,174,334.7275540405463,368400,1247,2106.716277360916,46.45817565917969,,7.925848007202148,0.93,46.46735382080078,46.33032989501953,0.8171628713607788
367,MetaDrive-Tut-10Env-v0,174,337.1697992621558,369348,1249,2112.734637260437,47.911190032958984,,10.625592231750488,0.93,47.80351257324219,47.523345947265625,0.8345617651939392
368,MetaDrive-Tut-10Env-v0,174,336.42162984267065,370130,1251,2116.777218580246,47.4130859375,,13.008432388305664,0.93,47.283241271972656,46.99761199951172,0.7589658498764038
369,MetaDrive-Tut-10Env-v0,174,334.96416920528804,371351,1254,2123.7108957767487,48.030677795410156,-48.879703521728516,5.34194803237915,0.92,48.786460876464844,48.59649658203125,0.8333145380020142
370,MetaDrive-Tut-10Env-v0,174,337.585205072653,372437,1256,2130.556697845459,47.419090270996094,-48.39578628540039,9.298696517944336,0.92,47.219505310058594,47.187408447265625,0.7917243242263794
371,MetaDrive-Tut-10Env-v0,174,335.4531876543535,373131,1258,2134.087113380432,49.622215270996094,-49.94392395019531,6.717907905578613,0.91,50.08435821533203,49.876502990722656,0.7612321376800537
372,MetaDrive-Tut-10Env-v0,174,337.9029226869056,374489,1261,2142.015927553177,48.28791809082031,-48.76726150512695,5.023464679718018,0.92,48.30113220214844,48.22875213623047,0.819110095500946
373,MetaDrive-Tut-10Env-v0,174,334.2276935200379,375258,1263,2145.8565232753754,47.19297790527344,,14.790189743041992,0.92,46.65599822998047,46.706974029541016,0.780092716217041
374,MetaDrive-Tut-10Env-v0,174,336.89636930539467,376128,1265,2150.8956611156464,48.27405548095703,,6.784083366394043,0.94,48.10462951660156,47.92087936401367,0.7435038685798645
375,MetaDrive-Tut-10Env-v0,174,335.05110374026066,377288,1268,2157.4487521648407,47.044517517089844,,6.941577911376953,0.94,46.46914291381836,46.52626419067383,0.8256579637527466
376,MetaDrive-Tut-10Env-v0,174,336.3113367279085,378187,1270,2163.487253665924,45.83682632446289,-46.08109664916992,9.516716003417969,0.94,45.530487060546875,45.85329055786133,0.7928501963615417
377,MetaDrive-Tut-10Env-v0,174,336.3776099699932,379219,1272,2170.296416759491,45.84037780761719,-46.770957946777344,7.077923774719238,0.94,45.86820602416992,45.862060546875,0.85718834400177
378,MetaDrive-Tut-10Env-v0,174,334.6737601829716,380218,1275,2175.4524998664856,46.337493896484375,,6.919958114624023,0.94,47.249229431152344,47.1322135925293,0.809525728225708
379,MetaDrive-Tut-10Env-v0,174,334.34033856514077,381310,1277,2183.1165277957916,47.51594543457031,,17.754478454589844,0.93,47.22698974609375,47.12126922607422,0.7403897643089294
380,MetaDrive-Tut-10Env-v0,174,336.53657531190896,382357,1279,2188.9518609046936,44.73176956176758,-44.31629180908203,10.49594497680664,0.93,45.371437072753906,45.41185760498047,0.7609434127807617
381,MetaDrive-Tut-10Env-v0,174,338.9517133818615,383439,1281,2195.438666343689,46.725311279296875,-46.771568298339844,7.237421035766602,0.93,46.50982666015625,46.93273162841797,0.7695790529251099
382,MetaDrive-Tut-10Env-v0,174,340.37323536738324,384364,1283,2200.312674999237,45.512229919433594,,8.507768630981445,0.93,45.72502517700195,45.14908218383789,0.731525719165802
383,MetaDrive-Tut-10Env-v0,174,339.5445182804376,385046,1285,2203.763894557953,46.06139373779297,,21.09552764892578,0.93,45.796836853027344,46.0130729675293,0.8605645895004272
384,MetaDrive-Tut-10Env-v0,174,338.05803913694757,386059,1287,2209.3283319473267,46.9942741394043,-47.099788665771484,9.501829147338867,0.93,46.878273010253906,46.78701400756836,0.8341108560562134
385,MetaDrive-Tut-10Env-v0,174,336.7279925367174,387067,1290,2215.8943400382996,46.602691650390625,-46.6439323425293,6.82195520401001,0.92,45.82239532470703,46.1981201171875,0.8208409547805786
386,MetaDrive-Tut-10Env-v0,174,336.3711714212031,388281,1294,2222.216052532196,44.91902542114258,-45.776756286621094,10.709649085998535,0.91,45.44591522216797,45.30027770996094,0.918081521987915
387,MetaDrive-Tut-10Env-v0,174,336.4600528576826,389262,1296,2228.2598583698273,48.61391067504883,,11.338375091552734,0.91,48.89283752441406,49.16792297363281,0.7663328647613525
388,MetaDrive-Tut-10Env-v0,174,337.6688479341749,390220,1298,2233.6499240398407,45.44367218017578,,6.214537620544434,0.91,46.272491455078125,45.903236389160156,0.7652575969696045
389,MetaDrive-Tut-10Env-v0,174,340.06166950354583,391221,1300,2239.2636115550995,47.315670013427734,-47.5992431640625,7.93931245803833,0.91,47.950157165527344,48.123817443847656,0.7853094339370728
390,MetaDrive-Tut-10Env-v0,174,342.06959344128796,392262,1302,2245.5844604969025,49.7225341796875,,6.975955009460449,0.92,50.22930908203125,49.42240905761719,0.7459907531738281
391,MetaDrive-Tut-10Env-v0,174,339.8041424459029,393201,1304,2250.5465743541718,46.59189224243164,-46.98469161987305,5.72059965133667,0.92,46.337554931640625,46.282371520996094,0.8392891883850098
392,MetaDrive-Tut-10Env-v0,174,340.45746619492786,394079,1306,2254.9349570274353,47.44099426269531,-47.76172637939453,9.322389602661133,0.93,48.01222610473633,47.755126953125,0.7618042826652527
393,MetaDrive-Tut-10Env-v0,174,342.7086425178948,395134,1308,2260.8402421474457,48.50312042236328,,5.260746955871582,0.93,48.37164306640625,47.96403884887695,0.8231672048568726
394,MetaDrive-Tut-10Env-v0,174,344.79554026199577,396116,1310,2266.0243995189667,47.600242614746094,,40.10683822631836,0.93,47.77910614013672,47.398746490478516,0.78353351354599
395,MetaDrive-Tut-10Env-v0,174,346.15917831965214,397582,1313,2274.5810000896454,47.658302307128906,,7.235926151275635,0.93,48.766944885253906,48.7843017578125,0.7962120771408081
396,MetaDrive-Tut-10Env-v0,174,348.43144337671237,398525,1315,2280.2758667469025,47.35929489135742,-48.65946960449219,5.412204742431641,0.93,47.19736862182617,47.607025146484375,0.797913670539856
397,MetaDrive-Tut-10Env-v0,174,350.78399642297995,399113,1316,2284.3582208156586,45.460655212402344,-46.50291061401367,7.118732929229736,0.93,45.85382843017578,45.43333435058594,0.7633732557296753
398,MetaDrive-Tut-10Env-v0,174,350.9771630194908,400344,1319,2290.416333436966,47.840152740478516,,6.1675310134887695,0.93,48.84578323364258,48.133934020996094,0.8636745810508728
399,MetaDrive-Tut-10Env-v0,174,350.11415215023874,401294,1321,2295.169910669327,45.79668426513672,,17.84312629699707,0.93,45.38538360595703,45.726158142089844,0.8158799409866333
400,MetaDrive-Tut-10Env-v0,174,349.4264257744084,402310,1324,2300.747094154358,48.232688903808594,,7.841681003570557,0.93,48.42681884765625,48.44890594482422,0.8095493912696838
401,MetaDrive-Tut-10Env-v0,174,347.7495244182813,403156,1326,2305.3314368724823,47.47519302368164,,12.901066780090332,0.93,46.64990234375,46.88337707519531,0.7929161190986633
402,MetaDrive-Tut-10Env-v0,174,346.7669178772659,404051,1328,2309.7169284820557,49.55385208129883,-49.79822540283203,10.849051475524902,0.93,48.80321502685547,48.97539520263672,0.8349694013595581
403,MetaDrive-Tut-10Env-v0,174,346.99091274956817,405063,1330,2315.052930831909,46.33429718017578,-46.87022018432617,6.210348129272461,0.93,45.92809295654297,46.01709747314453,0.7883914709091187
404,MetaDrive-Tut-10Env-v0,174,347.1258884613881,406367,1333,2322.1866614818573,48.32086944580078,-49.2613525390625,9.15610122680664,0.93,48.2209358215332,47.60153579711914,0.7886507511138916
405,MetaDrive-Tut-10Env-v0,174,350.4150610457996,407421,1335,2328.4401092529297,48.68373489379883,-48.59320068359375,5.812018394470215,0.93,48.924842834472656,49.14466857910156,0.820980429649353
406,MetaDrive-Tut-10Env-v0,174,353.7867338326422,408439,1337,2334.621051311493,47.4564208984375,-48.23184585571289,5.905076503753662,0.94,47.882476806640625,47.85044860839844,0.7744830250740051
407,MetaDrive-Tut-10Env-v0,174,354.5458577867402,409253,1339,2339.079789161682,47.249351501464844,-48.101318359375,4.984169960021973,0.94,47.426063537597656,47.16944122314453,0.8373928070068359
408,MetaDrive-Tut-10Env-v0,174,355.8585368038733,410453,1341,2345.6534581184387,47.583831787109375,-48.043678283691406,8.936342239379883,0.94,48.17682647705078,48.20338439941406,0.772842288017273
409,MetaDrive-Tut-10Env-v0,175,359.1469655138542,411459,1343,2350.7706396579742,47.16569519042969,-48.330535888671875,7.502474784851074,0.95,47.420562744140625,47.71809387207031,0.7823947072029114
410,MetaDrive-Tut-10Env-v0,175,360.48732716173026,412335,1345,2355.7555735111237,47.175071716308594,-46.21184158325195,17.344266891479492,0.95,46.72233581542969,46.716121673583984,0.8049713969230652
411,MetaDrive-Tut-10Env-v0,175,359.73435871236774,413263,1347,2361.1193866729736,45.62744903564453,-45.84690856933594,7.071491241455078,0.95,45.39816665649414,45.00556564331055,0.8027111291885376
412,MetaDrive-Tut-10Env-v0,175,358.1026046208553,414082,1349,2365.8092856407166,44.936309814453125,,10.70249080657959,0.95,45.20817947387695,45.21406936645508,0.7766231298446655
413,MetaDrive-Tut-10Env-v0,174,359.9631091207152,415294,1351,2373.377562522888,45.99289321899414,,6.74014949798584,0.95,46.10865783691406,46.4930419921875,0.7891674041748047
414,MetaDrive-Tut-10Env-v0,174,362.2732305123115,416585,1353,2381.0066237449646,47.295082092285156,-47.68587875366211,13.0018892288208,0.96,47.3413200378418,47.261146545410156,0.7853493690490723
415,MetaDrive-Tut-10Env-v0,174,363.25623514983204,417117,1354,2384.0099008083344,47.87047576904297,-48.07049560546875,8.401002883911133,0.96,48.06975173950195,47.723472595214844,0.8057049512863159
416,MetaDrive-Tut-10Env-v0,174,361.6861430690418,418135,1356,2389.7257554531097,48.360958099365234,-48.339420318603516,6.23583984375,0.95,49.44805145263672,48.86778259277344,0.8364313840866089
417,MetaDrive-Tut-10Env-v0,175,363.0950445644555,419511,1359,2397.0694692134857,47.307395935058594,-47.097923278808594,12.5228853225708,0.95,47.664031982421875,47.51663589477539,0.8098741769790649
418,MetaDrive-Tut-10Env-v0,175,362.7573695868269,420236,1360,2400.7632620334625,46.67499542236328,,6.693186283111572,0.95,47.24299240112305,47.64817810058594,0.7332974672317505
419,MetaDrive-Tut-10Env-v0,175,362.9369996399158,421166,1362,2406.132077932358,45.834983825683594,,4.957286834716797,0.95,45.52260971069336,45.47111511230469,0.8100060224533081
420,MetaDrive-Tut-10Env-v0,175,364.1854161706847,422197,1364,2411.9440512657166,46.90013122558594,-46.71869659423828,5.095354080200195,0.95,46.470733642578125,46.5243034362793,0.8362996578216553
421,MetaDrive-Tut-10Env-v0,175,365.8182357923794,423324,1366,2417.7224185466766,47.9675407409668,,8.181577682495117,0.95,48.037132263183594,47.77094268798828,0.8003004789352417
422,MetaDrive-Tut-10Env-v0,175,366.56207948769736,424159,1368,2422.1648144721985,46.110816955566406,-46.146446228027344,5.74860954284668,0.95,46.077728271484375,46.07160949707031,0.7189565896987915
423,MetaDrive-Tut-10Env-v0,175,365.5167664088895,425052,1370,2426.7293632030487,46.01012420654297,,22.473445892333984,0.95,45.53692626953125,45.47002029418945,0.7828402519226074
424,MetaDrive-Tut-10Env-v0,175,364.12359156595517,426379,1373,2434.166014432907,49.74993896484375,-50.39541244506836,5.302947044372559,0.94,49.404029846191406,49.34362030029297,0.8007010817527771
425,MetaDrive-Tut-10Env-v0,175,364.15548026548845,427210,1375,2438.444639444351,46.12566375732422,,7.716492176055908,0.94,46.45598602294922,46.732566833496094,0.7649376392364502
426,MetaDrive-Tut-10Env-v0,175,361.82601924806977,428261,1377,2444.4170372486115,48.17877960205078,-48.08818817138672,6.8630170822143555,0.95,47.90605926513672,47.49281311035156,0.7810570597648621
427,MetaDrive-Tut-10Env-v0,175,361.9487562562785,429223,1379,2450.924523115158,46.37732696533203,-46.95557403564453,5.347901344299316,0.95,46.836814880371094,46.88201904296875,0.8518010377883911
428,MetaDrive-Tut-10Env-v0,175,355.36139273302246,430096,1382,2455.828537940979,46.42317581176758,,8.08993911743164,0.94,46.93830108642578,47.19464874267578,0.7903884649276733
429,MetaDrive-Tut-10Env-v0,175,358.8759135765774,431315,1384,2463.4979162216187,48.06488037109375,-48.432769775390625,4.377107620239258,0.94,47.40528869628906,47.77424621582031,0.773005485534668
430,MetaDrive-Tut-10Env-v0,175,358.49205955425793,432597,1387,2471.5737624168396,48.5424690246582,-48.425331115722656,7.346000671386719,0.94,49.056549072265625,48.73501205444336,0.795534610748291
431,MetaDrive-Tut-10Env-v0,174,360.92363391966785,433203,1388,2475.640508413315,47.448665618896484,-47.76428985595703,3.6554348468780518,0.95,47.71012496948242,47.17636489868164,0.7454806566238403
432,MetaDrive-Tut-10Env-v0,174,361.37651555154633,434214,1390,2481.482126235962,43.86636734008789,,6.96427059173584,0.95,44.22524642944336,44.35434341430664,0.7275083065032959
433,MetaDrive-Tut-10Env-v0,175,361.9079921557258,435471,1393,2488.112862586975,48.472328186035156,-49.21455383300781,11.545735359191895,0.96,49.08683776855469,49.05388259887695,0.7618277072906494
434,MetaDrive-Tut-10Env-v0,175,359.69560552324106,436049,1395,2491.0871000289917,47.005218505859375,-47.783241271972656,7.58653450012207,0.95,47.417171478271484,47.05112838745117,0.7735599279403687
435,MetaDrive-Tut-10Env-v0,175,356.27443175946945,437081,1397,2496.9711689949036,46.728790283203125,-47.00989532470703,4.486246109008789,0.95,46.58159637451172,46.769832611083984,0.716291606426239
436,MetaDrive-Tut-10Env-v0,175,353.63546212082866,438314,1400,2503.6331582069397,45.623146057128906,,6.410247802734375,0.95,45.56877899169922,46.097225189208984,0.7853108048439026
437,MetaDrive-Tut-10Env-v0,175,349.9007358258184,439070,1402,2507.876105070114,46.84856414794922,,6.011331558227539,0.95,47.08606719970703,47.070457458496094,0.7801940441131592
438,MetaDrive-Tut-10Env-v0,175,350.69545502839276,440101,1404,2514.0690293312073,45.622581481933594,-46.37468719482422,14.574956893920898,0.95,44.964054107666016,44.62738800048828,0.827890157699585
439,MetaDrive-Tut-10Env-v0,175,347.65909685061143,441186,1407,2519.752678155899,48.35434341430664,,11.196915626525879,0.95,47.8450927734375,47.627445220947266,0.8010839223861694
440,MetaDrive-Tut-10Env-v0,175,349.05744002970823,442327,1409,2526.631895303726,45.74541473388672,-44.752986907958984,4.670185089111328,0.95,45.12787628173828,45.7513313293457,0.7525542974472046
441,MetaDrive-Tut-10Env-v0,175,345.63960136914733,443179,1411,2531.3157575130463,47.398433685302734,-48.202362060546875,6.8168625831604,0.95,47.52358627319336,47.07673263549805,0.8129746317863464
442,MetaDrive-Tut-10Env-v0,175,346.37878561068567,444274,1413,2537.7759919166565,45.92528533935547,,6.152830123901367,0.95,45.854164123535156,45.526161193847656,0.7667313814163208
443,MetaDrive-Tut-10Env-v0,175,346.2504320468547,445266,1415,2544.1302201747894,46.669315338134766,,5.119295120239258,0.95,46.617835998535156,47.176177978515625,0.7747806310653687
444,MetaDrive-Tut-10Env-v0,175,344.93518771841286,446117,1417,2549.2139978408813,46.128997802734375,-45.68540573120117,10.355005264282227,0.95,45.83698272705078,45.75385665893555,0.8255006670951843
445,MetaDrive-Tut-10Env-v0,174,343.37181094196234,447131,1420,2555.8444204330444,45.42335510253906,-46.15535354614258,7.776914596557617,0.93,46.08894348144531,45.388763427734375,0.7713022828102112
446,MetaDrive-Tut-10Env-v0,174,346.96707599787914,448269,1422,2563.1457073688507,48.643978118896484,-49.120155334472656,3.6298012733459473,0.93,49.01527404785156,48.98569869995117,0.810174822807312
447,MetaDrive-Tut-10Env-v0,174,348.06443644014087,449207,1424,2568.6664164066315,47.351505279541016,-47.43500518798828,10.49448013305664,0.93,46.92076873779297,46.823333740234375,0.7734073996543884
448,MetaDrive-Tut-10Env-v0,174,347.25802926866737,450026,1426,2572.908308506012,49.6137580871582,,4.489470958709717,0.93,49.14836883544922,49.47160339355469,0.8514134883880615
449,MetaDrive-Tut-10Env-v0,174,346.036206457558,451326,1429,2580.1152749061584,48.08883285522461,,5.261033058166504,0.93,48.72758483886719,48.94911575317383,0.8046534657478333
450,MetaDrive-Tut-10Env-v0,174,347.1314211948722,452517,1431,2587.389284133911,47.71601867675781,-48.61100769042969,7.451877593994141,0.93,48.47494125366211,47.74419403076172,0.8483875393867493
451,MetaDrive-Tut-10Env-v0,174,349.2384680928472,453141,1432,2591.640444278717,46.620967864990234,-47.30046463012695,5.093323707580566,0.93,47.11265182495117,46.96730422973633,0.7447994351387024
452,MetaDrive-Tut-10Env-v0,174,346.18854889725134,454412,1435,2599.2791571617126,50.20683670043945,,5.816839218139648,0.93,50.868125915527344,51.43340301513672,0.762798547744751
453,MetaDrive-Tut-10Env-v0,174,343.9658118275116,455178,1437,2603.1515171527863,46.200443267822266,,10.838991165161133,0.93,46.40522766113281,46.62312316894531,0.7582457661628723
454,MetaDrive-Tut-10Env-v0,174,344.0286644701811,456164,1439,2608.8082704544067,47.61273193359375,,8.024276733398438,0.93,48.10752868652344,48.046417236328125,0.8468966484069824
455,MetaDrive-Tut-10Env-v0,174,344.01856082915054,457350,1441,2615.843013048172,48.543060302734375,,8.212823867797852,0.93,48.94666290283203,48.77260971069336,0.8176769018173218
456,MetaDrive-Tut-10Env-v0,174,343.99631370986424,458265,1443,2621.041934967041,48.311561584472656,-49.41997146606445,9.08673095703125,0.93,48.39873504638672,47.7679443359375,0.8696414232254028
457,MetaDrive-Tut-10Env-v0,174,344.12398258897525,459113,1445,2625.8433816432953,47.17143249511719,-48.504974365234375,8.099175453186035,0.93,47.49079895019531,47.207340240478516,0.8484477996826172
458,MetaDrive-Tut-10Env-v0,174,343.4726983166633,460055,1447,2631.140783548355,47.118011474609375,-47.64335632324219,5.0030951499938965,0.93,47.276641845703125,47.348690032958984,0.7930001616477966
459,MetaDrive-Tut-10Env-v0,174,344.7720496135688,461020,1449,2637.225019931793,44.177978515625,,6.492545127868652,0.93,44.05799102783203,44.061859130859375,0.7928980588912964
460,MetaDrive-Tut-10Env-v0,174,341.21740800521684,462496,1452,2645.608125925064,43.59440612792969,,4.753662586212158,0.93,43.730316162109375,44.2707633972168,0.8423905372619629
461,MetaDrive-Tut-10Env-v0,174,339.28758202309706,463253,1454,2649.5668325424194,48.395687103271484,-49.082183837890625,8.383468627929688,0.93,48.03205871582031,47.864620208740234,0.8137067556381226
462,MetaDrive-Tut-10Env-v0,174,338.71708354173194,464229,1456,2654.752707004547,48.1163330078125,-48.08778381347656,13.526346206665039,0.94,46.898101806640625,47.211204528808594,0.7844561338424683
463,MetaDrive-Tut-10Env-v0,174,340.36882198410143,465112,1458,2659.6602096557617,46.99833679199219,,9.772737503051758,0.95,46.575504302978516,47.16408157348633,0.77860027551651
464,MetaDrive-Tut-10Env-v0,174,338.00665052726595,466443,1461,2667.791045188904,44.89674377441406,-45.491065979003906,7.672765254974365,0.95,45.384517669677734,45.47950744628906,0.753115177154541
465,MetaDrive-Tut-10Env-v0,174,338.72697810561493,467312,1463,2672.6508672237396,47.79917907714844,,10.620116233825684,0.95,47.54505920410156,47.11043167114258,0.7717859745025635
466,MetaDrive-Tut-10Env-v0,174,336.34866942264205,468251,1465,2677.957771539688,47.052886962890625,-47.981014251708984,9.073219299316406,0.95,46.80010986328125,46.650177001953125,0.811843752861023
467,MetaDrive-Tut-10Env-v0,174,337.82863637116424,469268,1467,2683.7237820625305,46.498695373535156,,8.579612731933594,0.95,46.14061737060547,46.164302825927734,0.8026918172836304
468,MetaDrive-Tut-10Env-v0,174,338.96519953761094,470363,1469,2690.9199073314667,46.221343994140625,-45.80830383300781,4.98523473739624,0.95,46.829315185546875,46.76945114135742,0.8287590742111206
469,MetaDrive-Tut-10Env-v0,174,338.36816617080905,471154,1471,2695.048533678055,46.614585876464844,,3.524631977081299,0.96,46.67204284667969,46.61460876464844,0.7620447278022766
470,MetaDrive-Tut-10Env-v0,174,336.7940537247343,472236,1474,2700.777483701706,48.09300994873047,,5.035694599151611,0.96,48.68568420410156,48.239105224609375,0.7624189257621765
471,MetaDrive-Tut-10Env-v0,174,337.9166755020488,473273,1476,2707.2410492897034,47.265968322753906,-47.998695373535156,8.339576721191406,0.96,48.290496826171875,47.894744873046875,0.769897997379303
472,MetaDrive-Tut-10Env-v0,174,337.8571767256788,474567,1479,2715.0523467063904,46.60297393798828,-47.72715377807617,7.167347431182861,0.96,46.06489562988281,45.97746658325195,0.7818164229393005
473,MetaDrive-Tut-10Env-v0,174,340.8519743753381,475057,1480,2717.9750423431396,48.18148422241211,-48.56820297241211,8.805843353271484,0.97,47.883934020996094,47.63288879394531,0.7704370021820068
474,MetaDrive-Tut-10Env-v0,174,342.7461565895878,476123,1482,2724.0499839782715,46.0840950012207,-46.42201232910156,8.253501892089844,0.97,45.83412551879883,45.68009948730469,0.7635622024536133
475,MetaDrive-Tut-10Env-v0,174,340.49188635229854,477018,1484,2729.116443634033,44.02351379394531,,4.887042999267578,0.97,44.428321838378906,44.398536682128906,0.76438307762146
476,MetaDrive-Tut-10Env-v0,174,341.168165424669,478477,1487,2738.125900745392,48.37468719482422,-49.013633728027344,5.384677886962891,0.96,48.571022033691406,48.26050567626953,0.7449074983596802
477,MetaDrive-Tut-10Env-v0,174,340.1189328639695,479044,1488,2741.2936112880707,47.37841033935547,,6.261590957641602,0.96,48.05994415283203,48.13557815551758,0.7552811503410339
478,MetaDrive-Tut-10Env-v0,174,341.895329488738,480094,1490,2748.1684687137604,46.671844482421875,,19.421226501464844,0.96,46.016441345214844,45.815086364746094,0.790582537651062
479,MetaDrive-Tut-10Env-v0,174,344.323313032735,481089,1492,2754.0514516830444,46.699954986572266,-47.874446868896484,9.221242904663086,0.96,46.45195007324219,45.91259765625,0.7336218357086182
480,MetaDrive-Tut-10Env-v0,174,345.1115667581795,482064,1495,2759.2347135543823,46.29920959472656,,8.960039138793945,0.96,46.477203369140625,46.15402603149414,0.8304699659347534
481,MetaDrive-Tut-10Env-v0,174,345.2623932174509,483334,1498,2765.9478240013123,48.164546966552734,,6.715104103088379,0.96,47.873695373535156,47.48991775512695,0.7737393379211426
482,MetaDrive-Tut-10Env-v0,174,343.58525638117084,484224,1501,2770.6914024353027,46.85215759277344,,5.456168174743652,0.95,47.078163146972656,46.78258514404297,0.7418344616889954
483,MetaDrive-Tut-10Env-v0,174,345.7251646436101,485242,1503,2777.482778072357,47.176856994628906,,25.680814743041992,0.94,47.10594940185547,47.4575309753418,0.7516316175460815
484,MetaDrive-Tut-10Env-v0,174,345.93960910731204,486165,1505,2782.516777276993,46.40962600708008,-46.91266632080078,4.249954700469971,0.94,46.004920959472656,46.248687744140625,0.7492409944534302
485,MetaDrive-Tut-10Env-v0,174,346.83112694868777,487012,1507,2787.250431537628,47.553001403808594,,8.273460388183594,0.94,47.13063430786133,47.463218688964844,0.8306163549423218
486,MetaDrive-Tut-10Env-v0,174,346.73339791513115,488056,1509,2793.361135005951,48.22659683227539,,9.955840110778809,0.94,47.528404235839844,48.23560333251953,0.8939526677131653
487,MetaDrive-Tut-10Env-v0,174,345.1200440625999,489057,1512,2798.7823753356934,46.32907485961914,-46.70363235473633,9.989904403686523,0.93,46.76533126831055,46.96208190917969,0.7949153184890747
488,MetaDrive-Tut-10Env-v0,174,340.8474858250015,490247,1515,2805.628844976425,48.09217071533203,-48.57484436035156,12.798270225524902,0.92,46.96778869628906,47.232627868652344,0.776710569858551
489,MetaDrive-Tut-10Env-v0,174,340.61862533364797,491598,1518,2812.7373218536377,46.515380859375,,6.944180011749268,0.93,46.25113296508789,46.59009552001953,0.7545960545539856
490,MetaDrive-Tut-10Env-v0,174,343.7078442883794,492129,1519,2815.968742609024,47.003631591796875,-46.85933303833008,6.285172462463379,0.94,46.5528564453125,46.596961975097656,0.7377737164497375
491,MetaDrive-Tut-10Env-v0,174,337.86030337150527,493048,1522,2820.9507331848145,47.654579162597656,,5.153996467590332,0.93,47.859474182128906,47.910400390625,0.7922680377960205
492,MetaDrive-Tut-10Env-v0,174,339.26650065659567,494247,1525,2828.8466024398804,49.08577346801758,-48.94268798828125,6.659121990203857,0.92,48.79962921142578,48.581050872802734,0.8388855457305908
493,MetaDrive-Tut-10Env-v0,174,338.12800485830724,495406,1528,2834.823990345001,45.88079833984375,,19.872272491455078,0.92,45.90583038330078,46.025779724121094,0.8731259107589722
494,MetaDrive-Tut-10Env-v0,174,336.17467651724166,496407,1531,2841.4013907909393,48.00535583496094,-47.40671157836914,9.378188133239746,0.91,48.34297561645508,48.41786193847656,0.7455153465270996
495,MetaDrive-Tut-10Env-v0,174,336.46872383708353,497364,1533,2847.336053133011,48.047340393066406,,5.420962333679199,0.91,48.584877014160156,48.68392562866211,0.7998111844062805
496,MetaDrive-Tut-10Env-v0,174,336.3165844909716,498328,1535,2853.3051681518555,47.365989685058594,,5.075770378112793,0.91,47.42631530761719,47.987037658691406,0.7742815017700195
497,MetaDrive-Tut-10Env-v0,174,336.5630216372476,499085,1537,2857.1987342834473,50.06884002685547,-50.37727737426758,8.006937980651855,0.91,49.86780548095703,49.53551483154297,0.8210773468017578
