CAWorks-ChrisA/ActorCriticSummarization/MetaDrive-Tut-5Env-v0/td3/progress.csv
,log_dir,frame_per_second,episode_reward,total_steps,total_episodes,total_time,target_q,actor_loss,critic_loss,success_rate,current_q1,current_q2,reward
0,MetaDrive-Tut-5Env-v0,596,11.72011373526681,2001,2,3.3544392585754395,,,,0.0,,,
1,MetaDrive-Tut-5Env-v0,691,11.966969246674362,3002,3,4.34410548210144,,,,0.0,,,
2,MetaDrive-Tut-5Env-v0,760,11.755510090932633,4003,4,5.266080141067505,,,,0.0,,,
3,MetaDrive-Tut-5Env-v0,811,11.419446161981814,5004,5,6.163396596908569,,,,0.0,,,
4,MetaDrive-Tut-5Env-v0,836,11.33479452570196,6005,6,7.180919885635376,,,,0.0,,,
5,MetaDrive-Tut-5Env-v0,854,11.09762761585184,7006,7,8.196407079696655,,,,0.0,,,
6,MetaDrive-Tut-5Env-v0,859,11.103900141995288,8007,8,9.313387393951416,,,,0.0,,,
7,MetaDrive-Tut-5Env-v0,875,11.09033101859352,9008,9,10.287754774093628,,,,0.0,,,
8,MetaDrive-Tut-5Env-v0,877,11.055413895222951,10009,10,11.402493000030518,0.00816364400088787,-0.01742430403828621,0.002284744754433632,0.0,0.018162377178668976,-0.03143360838294029,0.010304775089025497
9,MetaDrive-Tut-5Env-v0,675,0.5095365733804273,11017,58,16.31848382949829,0.04036851227283478,-0.07953305542469025,0.39902931451797485,0.0,0.06999824196100235,0.06993435323238373,-0.016765376552939415
10,MetaDrive-Tut-5Env-v0,585,-0.26745762811349005,12025,78,20.535918712615967,0.0700695738196373,-0.0404173880815506,0.1875605583190918,0.0,0.02981722354888916,0.04169836640357971,0.005117237102240324
11,MetaDrive-Tut-5Env-v0,523,-2.1992456074805253,13011,112,24.865023612976074,0.08176594972610474,-0.053742870688438416,0.17262746393680573,0.0,0.029399771243333817,0.04225046932697296,0.009619414806365967
12,MetaDrive-Tut-5Env-v0,473,-2.446664237589201,14019,154,29.6320858001709,0.005753127858042717,-0.045540038496255875,0.25315791368484497,0.0,0.03545059263706207,0.01153147779405117,-0.0403209924697876
13,MetaDrive-Tut-5Env-v0,437,-2.063237393245996,15014,196,34.34112548828125,0.11666108667850494,,0.1261412650346756,0.0,0.09655619412660599,0.11802174896001816,-0.009353411383926868
14,MetaDrive-Tut-5Env-v0,410,-0.5150332036881203,16022,235,39.01727747917175,-0.008226566016674042,,0.07745601236820221,0.0,-0.007272740826010704,0.00032866746187210083,-0.022323109209537506
15,MetaDrive-Tut-5Env-v0,390,3.556523124740234,17008,261,43.54126596450806,0.00032454729080200195,,0.1932934671640396,0.0,-0.0034291818737983704,-0.032915934920310974,0.013313078321516514
16,MetaDrive-Tut-5Env-v0,372,8.363303702746343,18029,287,48.363967418670654,0.35076019167900085,-0.43695008754730225,0.3830210864543915,0.0,0.33596476912498474,0.3341987729072571,0.03595851734280586
17,MetaDrive-Tut-5Env-v0,358,12.705262394630289,19024,310,53.05488395690918,0.6262478828430176,,1.1811609268188477,0.0,0.767419695854187,0.7237861156463623,-0.028079750016331673
18,MetaDrive-Tut-5Env-v0,348,20.643660097720062,20072,325,57.61829924583435,1.130340814590454,,1.0504953861236572,0.0,1.1562840938568115,1.1262191534042358,0.06627625972032547
19,MetaDrive-Tut-5Env-v0,339,25.515777326405257,21044,341,61.92979311943054,2.021596670150757,,1.5268189907073975,0.0,1.9395548105239868,1.9625414609909058,0.08061165362596512
20,MetaDrive-Tut-5Env-v0,329,31.236569059374716,22046,356,66.84035420417786,2.8224735260009766,,0.27388548851013184,0.0,2.781625270843506,2.7604804039001465,0.156100332736969
21,MetaDrive-Tut-5Env-v0,322,35.67905939315563,23023,372,71.36601662635803,3.483541250228882,-3.5658559799194336,1.0506387948989868,0.0,3.2739920616149902,3.343531608581543,0.10558708012104034
22,MetaDrive-Tut-5Env-v0,316,44.41190261798193,24117,383,76.08859848976135,4.446957111358643,-4.85811710357666,2.953342914581299,0.0,4.605593681335449,4.572059631347656,0.18854469060897827
23,MetaDrive-Tut-5Env-v0,310,52.633928124847195,25120,392,80.97390627861023,5.628215789794922,,1.5288453102111816,0.0,5.517254829406738,5.359072685241699,0.2870427370071411
24,MetaDrive-Tut-5Env-v0,302,62.1073738197439,26117,400,86.21177673339844,6.638576507568359,-6.802051067352295,1.445102334022522,0.0,6.474912643432617,6.423587799072266,0.2954294681549072
25,MetaDrive-Tut-5Env-v0,297,69.38434835217002,27044,408,90.83755469322205,7.6941046714782715,,2.688239097595215,0.0,7.723867416381836,7.733591556549072,0.3126921057701111
26,MetaDrive-Tut-5Env-v0,293,74.95026903246944,28030,417,95.38867354393005,9.029836654663086,,0.8820586800575256,0.0,8.674256324768066,8.74696159362793,0.37749966979026794
27,MetaDrive-Tut-5Env-v0,288,81.35064399035869,29106,425,100.73483419418335,10.447371482849121,,1.189394474029541,0.0,10.308601379394531,10.3663911819458,0.3786989450454712
28,MetaDrive-Tut-5Env-v0,284,88.8632463307553,30001,432,105.38834834098816,11.590808868408203,-12.276473999023438,5.054309844970703,0.0,11.748919486999512,11.637274742126465,0.3369021415710449
29,MetaDrive-Tut-5Env-v0,281,94.52509371270635,31052,441,110.30498695373535,12.523143768310547,,3.0744619369506836,0.0,12.456193923950195,12.35527229309082,0.3752404451370239
30,MetaDrive-Tut-5Env-v0,278,101.37842250451838,32080,449,115.35867595672607,13.755160331726074,,6.426338195800781,0.0,13.758918762207031,13.68719482421875,0.37609344720840454
31,MetaDrive-Tut-5Env-v0,274,107.07956358342362,33126,458,120.47201347351074,15.063474655151367,,2.214695453643799,0.0,15.061847686767578,14.914487838745117,0.42436331510543823
32,MetaDrive-Tut-5Env-v0,272,113.61566798928001,34123,466,125.3910219669342,17.158960342407227,-17.295808792114258,4.808699131011963,0.0,16.861080169677734,17.030479431152344,0.5504873394966125
33,MetaDrive-Tut-5Env-v0,269,120.27867272235922,35116,474,130.23843836784363,18.250171661376953,,2.06390380859375,0.0,18.480541229248047,18.61046600341797,0.4402392506599426
34,MetaDrive-Tut-5Env-v0,265,126.5659913824568,36133,481,135.87647247314453,19.588008880615234,-20.12438201904297,4.9530134201049805,0.0,19.162147521972656,19.076950073242188,0.534503698348999
35,MetaDrive-Tut-5Env-v0,264,125.74773334808604,37027,489,139.9468288421631,20.754880905151367,-21.4144287109375,1.4412397146224976,0.0,20.73331069946289,20.74183464050293,0.5313688516616821
36,MetaDrive-Tut-5Env-v0,262,126.75089857889895,38016,497,144.6516261100769,20.780826568603516,,16.83053970336914,0.0,20.73058319091797,20.841550827026367,0.38903534412384033
37,MetaDrive-Tut-5Env-v0,260,128.49686038545045,39070,505,149.74913024902344,22.79126739501953,,31.467601776123047,0.0,22.689727783203125,22.73553466796875,0.41143205761909485
38,MetaDrive-Tut-5Env-v0,258,135.36830217614107,40069,511,154.74930906295776,24.341167449951172,-24.852832794189453,7.0434722900390625,0.01,24.508529663085938,24.600971221923828,0.4628159701824188
39,MetaDrive-Tut-5Env-v0,256,140.84409408316895,41134,517,160.1002140045166,27.52748680114746,,3.0663087368011475,0.02,27.255807876586914,27.290592193603516,0.6662156581878662
40,MetaDrive-Tut-5Env-v0,255,144.2548127651798,42090,521,164.525386095047,28.072288513183594,,15.29395580291748,0.03,28.41385269165039,28.529918670654297,0.6068820953369141
41,MetaDrive-Tut-5Env-v0,254,145.21404523615308,43103,528,169.37237453460693,28.187358856201172,-29.005035400390625,7.8885722160339355,0.03,28.05709457397461,27.792465209960938,0.5753979682922363
42,MetaDrive-Tut-5Env-v0,253,150.3436418160418,44175,534,174.17430686950684,29.765396118164062,-30.021642684936523,16.29869270324707,0.06,29.38716697692871,29.49190902709961,0.5694729089736938
43,MetaDrive-Tut-5Env-v0,252,154.7294789997456,45169,539,179.01786732673645,31.004764556884766,-31.41098976135254,18.23400115966797,0.06,30.0899600982666,30.07471466064453,0.6207613945007324
44,MetaDrive-Tut-5Env-v0,252,153.3653062563453,46502,543,184.37648820877075,32.019378662109375,,11.126367568969727,0.06,31.798324584960938,31.85578155517578,0.5500384569168091
45,MetaDrive-Tut-5Env-v0,251,153.71817773975422,47018,546,186.68655824661255,31.787437438964844,,2.591981887817383,0.07,31.342233657836914,31.305919647216797,0.5531347990036011
46,MetaDrive-Tut-5Env-v0,250,157.61954090875267,48020,552,191.5589292049408,34.42222595214844,,10.11471176147461,0.08,34.09508514404297,34.20838165283203,0.6273614168167114
47,MetaDrive-Tut-5Env-v0,249,160.27063844354808,49237,559,197.09653234481812,34.05427932739258,-34.199546813964844,31.185321807861328,0.1,33.75547790527344,33.697113037109375,0.5405868291854858
48,MetaDrive-Tut-5Env-v0,248,163.40273481992392,50147,565,201.46132707595825,36.59543228149414,-37.20616149902344,18.817062377929688,0.11,36.42921447753906,36.27172088623047,0.685694694519043
49,MetaDrive-Tut-5Env-v0,247,165.668976418582,51006,571,205.83217644691467,37.60327911376953,,5.486423015594482,0.11,37.503257751464844,37.44611740112305,0.671314537525177
50,MetaDrive-Tut-5Env-v0,247,163.92710255212958,53001,579,214.28816032409668,37.90465545654297,-38.671783447265625,12.109912872314453,0.11,38.151954650878906,37.94797897338867,0.690371036529541
51,MetaDrive-Tut-5Env-v0,245,165.42515404375612,54117,587,220.0223844051361,38.57273864746094,-39.20123291015625,22.959840774536133,0.11,38.407649993896484,38.113685607910156,0.7311309576034546
52,MetaDrive-Tut-5Env-v0,245,167.9292839674552,55164,593,224.92681550979614,39.175079345703125,,43.002037048339844,0.12,39.14141082763672,38.916969299316406,0.6296810507774353
53,MetaDrive-Tut-5Env-v0,243,174.8252715797845,56243,597,231.28582453727722,41.31694793701172,-41.492897033691406,13.740621566772461,0.13,40.374488830566406,40.52546691894531,0.633622944355011
54,MetaDrive-Tut-5Env-v0,243,174.5193264587624,57602,601,236.95486307144165,38.73028564453125,,8.94383716583252,0.13,39.262535095214844,39.38331604003906,0.6957512497901917
55,MetaDrive-Tut-5Env-v0,242,177.39237468077616,58479,604,241.10277462005615,38.010009765625,-38.66755676269531,48.435604095458984,0.15,38.33700942993164,38.52085876464844,0.5065092444419861
56,MetaDrive-Tut-5Env-v0,242,177.5373953089039,59022,608,243.83437323570251,42.59292984008789,,5.405008316040039,0.15,42.228668212890625,42.10356521606445,0.7726715803146362
57,MetaDrive-Tut-5Env-v0,242,174.700096833367,60249,611,248.64838242530823,40.212032318115234,-40.91967010498047,11.977907180786133,0.14,40.38159942626953,40.00982666015625,0.6278781294822693
58,MetaDrive-Tut-5Env-v0,240,180.14584808361212,61547,614,255.79149341583252,40.15082550048828,-40.96765899658203,16.21988296508789,0.17,39.85205841064453,40.106727600097656,0.5834288597106934
59,MetaDrive-Tut-5Env-v0,240,182.71899370479244,62026,615,258.183865070343,41.899139404296875,,16.791088104248047,0.18,41.47330093383789,41.37337112426758,0.7020650506019592
60,MetaDrive-Tut-5Env-v0,239,185.7389210180999,63195,618,263.7972571849823,42.33135986328125,-42.266029357910156,6.739616870880127,0.19,41.69258499145508,41.906898498535156,0.6950348019599915
61,MetaDrive-Tut-5Env-v0,238,188.42698454832032,64370,622,269.73983907699585,40.99341583251953,,8.461624145507812,0.19,40.726478576660156,40.93854522705078,0.6337201595306396
62,MetaDrive-Tut-5Env-v0,238,190.60085676080573,65304,625,274.34719038009644,41.004150390625,,14.722916603088379,0.2,41.25067901611328,41.00181579589844,0.6082553863525391
63,MetaDrive-Tut-5Env-v0,237,192.69547268238892,66036,628,277.872581243515,41.81476593017578,,5.925607681274414,0.21,41.78410339355469,41.2691764831543,0.6532661318778992
64,MetaDrive-Tut-5Env-v0,236,195.28511016203956,67139,633,283.5102548599243,41.083595275878906,-42.265968322753906,29.5714111328125,0.2,40.76942443847656,40.08855438232422,0.5453791618347168
65,MetaDrive-Tut-5Env-v0,236,191.55114055049472,68094,639,288.3470458984375,43.60149383544922,,23.879398345947266,0.19,43.43592834472656,43.51506805419922,0.6685823202133179
66,MetaDrive-Tut-5Env-v0,235,194.315276274304,69116,645,293.8112370967865,44.045066833496094,,9.068460464477539,0.19,43.69155502319336,44.041046142578125,0.7455369234085083
67,MetaDrive-Tut-5Env-v0,234,193.23275772424407,70317,651,300.41232204437256,40.23480224609375,-41.808738708496094,39.099056243896484,0.18,41.52717971801758,41.436546325683594,0.5337008237838745
68,MetaDrive-Tut-5Env-v0,232,194.70404338843215,71051,655,305.1668269634247,42.192352294921875,-42.74125671386719,6.569619178771973,0.17,42.036949157714844,42.177406311035156,0.7331623435020447
69,MetaDrive-Tut-5Env-v0,231,196.44621721422376,72038,660,310.94619512557983,43.625152587890625,,6.452062606811523,0.17,43.04383850097656,43.00526428222656,0.6666281223297119
70,MetaDrive-Tut-5Env-v0,231,200.63253891369345,73021,662,316.0035734176636,45.197505950927734,-46.500511169433594,26.80646324157715,0.19,45.0110969543457,45.259159088134766,0.6777015924453735
71,MetaDrive-Tut-5Env-v0,230,200.73434715199056,74217,669,322.12496733665466,44.623291015625,-45.67679214477539,7.485544204711914,0.19,44.69346618652344,44.369483947753906,0.7514266967773438
72,MetaDrive-Tut-5Env-v0,229,204.89648190672588,75289,673,327.5673987865448,46.10731506347656,-46.640071868896484,34.95526123046875,0.2,46.14043045043945,46.201072692871094,0.6833368539810181
73,MetaDrive-Tut-5Env-v0,229,207.1994290176401,76174,676,332.0506546497345,45.20767593383789,,11.526206016540527,0.21,45.446372985839844,45.81025695800781,0.7411296367645264
74,MetaDrive-Tut-5Env-v0,228,210.91917148876516,77098,679,336.93887591362,44.711181640625,,12.195886611938477,0.22,44.39642333984375,44.59632873535156,0.770355224609375
75,MetaDrive-Tut-5Env-v0,228,214.4206865520684,78063,681,342.04974269866943,43.96275329589844,-44.96907424926758,15.760088920593262,0.24,43.96908950805664,43.33295440673828,0.7318805456161499
76,MetaDrive-Tut-5Env-v0,226,219.0161913142798,79251,685,349.1674573421478,47.067115783691406,-48.28925704956055,13.859943389892578,0.24,47.37673568725586,47.42734146118164,0.6973497867584229
77,MetaDrive-Tut-5Env-v0,226,223.73963994064533,80388,689,355.38851499557495,47.85114288330078,,8.512641906738281,0.26,47.62791061401367,47.084266662597656,0.7316137552261353
78,MetaDrive-Tut-5Env-v0,225,229.94054135837342,81481,692,361.43313002586365,45.084197998046875,-45.73052978515625,12.942874908447266,0.29,45.20552062988281,45.91813659667969,0.7233908176422119
79,MetaDrive-Tut-5Env-v0,225,230.94792506181489,82228,694,365.3442084789276,45.682655334472656,,11.444576263427734,0.29,45.64738464355469,45.523460388183594,0.7083971500396729
80,MetaDrive-Tut-5Env-v0,224,231.0890026854908,83355,697,370.9871115684509,47.23638153076172,-48.65951919555664,19.04302215576172,0.3,47.220314025878906,46.75827407836914,0.6616427898406982
81,MetaDrive-Tut-5Env-v0,223,235.76394993875547,84218,700,376.16656851768494,47.624671936035156,,7.8364105224609375,0.31,47.025970458984375,47.569950103759766,0.7313224673271179
82,MetaDrive-Tut-5Env-v0,223,241.0947522292954,85189,702,381.9727623462677,46.58475875854492,-47.65707015991211,22.435592651367188,0.32,46.41438293457031,46.66986083984375,0.7337915897369385
83,MetaDrive-Tut-5Env-v0,222,241.52219253882274,86256,705,387.86650466918945,49.22636413574219,,37.041748046875,0.32,48.76130676269531,49.11101531982422,0.7211213707923889
84,MetaDrive-Tut-5Env-v0,222,244.6992876334826,87149,708,392.3636507987976,51.15802001953125,-51.7998046875,34.48335266113281,0.34,51.149513244628906,51.604522705078125,0.7730701565742493
85,MetaDrive-Tut-5Env-v0,221,250.99666442535144,88179,710,398.43136382102966,49.469329833984375,-49.82038116455078,25.164634704589844,0.36,49.16337585449219,49.61701965332031,0.7726725935935974
86,MetaDrive-Tut-5Env-v0,220,247.3202207426063,89287,714,404.2605996131897,47.895259857177734,-49.061012268066406,22.73444175720215,0.35,47.650146484375,47.300575256347656,0.7274762392044067
87,MetaDrive-Tut-5Env-v0,220,246.06118464159417,90128,716,408.28636598587036,49.27537536621094,,38.102394104003906,0.35,49.6337776184082,49.6081657409668,0.750760555267334
88,MetaDrive-Tut-5Env-v0,220,245.26564900814546,91255,720,413.6592526435852,49.69953918457031,-50.668853759765625,9.988739013671875,0.36,50.468997955322266,50.16340255737305,0.7780566215515137
89,MetaDrive-Tut-5Env-v0,220,247.60347932117799,92073,723,417.5095624923706,48.91651153564453,-50.09972381591797,58.61846160888672,0.39,49.21106719970703,48.96554946899414,0.7018536925315857
90,MetaDrive-Tut-5Env-v0,220,246.06460141398958,93148,726,422.6432738304138,49.06724166870117,,25.404029846191406,0.4,49.670654296875,49.216712951660156,0.7211591005325317
91,MetaDrive-Tut-5Env-v0,219,251.2485087968989,94427,729,429.63825511932373,50.943199157714844,-51.064781188964844,24.468294143676758,0.43,50.92952346801758,51.533050537109375,0.7267555594444275
92,MetaDrive-Tut-5Env-v0,219,251.24503772837954,95003,732,432.7080476284027,49.83977508544922,-51.13111877441406,15.491655349731445,0.44,49.50067138671875,48.75105285644531,0.7349109053611755
93,MetaDrive-Tut-5Env-v0,219,253.73495854847516,96052,735,438.15723299980164,50.28467559814453,,6.868824481964111,0.46,50.267234802246094,50.71211242675781,0.7116191983222961
94,MetaDrive-Tut-5Env-v0,218,259.0295175851898,97061,737,443.88895750045776,48.36886978149414,-48.306373596191406,26.141876220703125,0.48,47.34780502319336,47.79907989501953,0.6810987591743469
95,MetaDrive-Tut-5Env-v0,218,265.61376002474736,98123,739,449.95937943458557,49.258750915527344,-51.02907943725586,10.757349014282227,0.5,49.56990432739258,49.51906967163086,0.6846275925636292
96,MetaDrive-Tut-5Env-v0,217,270.11719986941296,99253,743,455.59519362449646,52.721824645996094,-52.67869567871094,21.74751853942871,0.53,53.07185745239258,53.817012786865234,0.820907473564148
97,MetaDrive-Tut-5Env-v0,217,274.5611597499739,100044,745,460.30355167388916,50.44215393066406,,26.224884033203125,0.55,50.50422668457031,50.63969802856445,0.6476482152938843
98,MetaDrive-Tut-5Env-v0,217,280.63558702138056,101280,748,466.44439244270325,50.218204498291016,,28.791358947753906,0.58,50.468780517578125,50.396358489990234,0.7291886210441589
99,MetaDrive-Tut-5Env-v0,216,282.2419324059214,102295,752,472.26493406295776,52.12154006958008,-51.61754608154297,25.49566078186035,0.59,51.281829833984375,51.818695068359375,0.8008855581283569
100,MetaDrive-Tut-5Env-v0,216,285.02366364518423,103216,755,476.4508943557739,51.99405288696289,,6.694902420043945,0.62,51.77016067504883,51.98431396484375,0.7476177215576172
101,MetaDrive-Tut-5Env-v0,216,287.6119386530288,104183,757,481.40333104133606,52.34886169433594,-52.693092346191406,40.330360412597656,0.63,51.85376739501953,52.00959014892578,0.7638648748397827
102,MetaDrive-Tut-5Env-v0,216,292.745515645914,105183,760,486.44533109664917,50.87450408935547,-51.50666809082031,36.98546600341797,0.66,50.53146743774414,50.82328414916992,0.7391396164894104
103,MetaDrive-Tut-5Env-v0,216,289.9779701515429,106007,763,490.41159868240356,51.73973846435547,-51.5062255859375,28.977069854736328,0.66,51.49809265136719,52.170284271240234,0.784737765789032
104,MetaDrive-Tut-5Env-v0,215,298.1547976183325,107399,766,498.0953223705292,52.86377716064453,-53.62232208251953,9.122657775878906,0.69,53.05635070800781,52.674049377441406,0.7580899000167847
105,MetaDrive-Tut-5Env-v0,215,299.0705913634589,108213,769,502.11768531799316,52.54780578613281,-53.302188873291016,30.583049774169922,0.7,52.947540283203125,52.63701248168945,0.7875134944915771
106,MetaDrive-Tut-5Env-v0,215,303.490154958498,109197,771,507.3903865814209,53.06705093383789,-54.09466552734375,21.54981231689453,0.72,53.54521560668945,53.392974853515625,0.7446551322937012
107,MetaDrive-Tut-5Env-v0,214,306.2659139069276,110271,774,513.8289475440979,51.020626068115234,-51.92451477050781,44.74842071533203,0.74,50.36085891723633,50.372249603271484,0.6525191068649292
108,MetaDrive-Tut-5Env-v0,214,308.4385482276589,111320,777,520.0876293182373,53.004241943359375,,20.379972457885742,0.76,52.7770881652832,53.11573791503906,0.6921623945236206
109,MetaDrive-Tut-5Env-v0,213,309.3857696661259,112067,779,523.819488286972,52.56475830078125,-53.706687927246094,38.915435791015625,0.77,52.80479431152344,52.328670501708984,0.7507187128067017
110,MetaDrive-Tut-5Env-v0,213,311.20445248066267,113103,781,529.8539941310883,55.33451843261719,-55.576148986816406,30.953643798828125,0.77,55.16648864746094,55.694576263427734,0.7336742877960205
111,MetaDrive-Tut-5Env-v0,213,314.8970484379125,114080,783,534.836484670639,53.902435302734375,,6.953654766082764,0.79,54.03974914550781,54.12842559814453,0.6915585994720459
112,MetaDrive-Tut-5Env-v0,213,315.5263346526637,115041,785,539.8503575325012,52.49079895019531,-52.74257278442383,17.059572219848633,0.81,51.88873291015625,52.05196762084961,0.7190486788749695
113,MetaDrive-Tut-5Env-v0,213,318.2139021174226,116174,788,545.213475227356,54.89403533935547,,12.69494342803955,0.83,54.41676330566406,54.38063049316406,0.7411420345306396
114,MetaDrive-Tut-5Env-v0,212,320.50561475855716,117191,790,551.0185825824738,54.16748046875,-54.653541564941406,30.471817016601562,0.83,54.77295684814453,54.813323974609375,0.6973683834075928
115,MetaDrive-Tut-5Env-v0,212,320.0376379841247,118274,793,556.3081245422363,51.414955139160156,,15.891114234924316,0.84,51.363929748535156,51.94068908691406,0.7119566202163696
116,MetaDrive-Tut-5Env-v0,212,320.4513377782396,119252,795,561.4047009944916,53.06636047363281,,7.491469383239746,0.84,53.157249450683594,53.03351593017578,0.7177850008010864
117,MetaDrive-Tut-5Env-v0,212,321.46269285624146,120040,797,565.1987047195435,51.74945831298828,,51.139671325683594,0.85,53.02314376831055,52.889404296875,0.7758742570877075
118,MetaDrive-Tut-5Env-v0,211,322.358884379398,121144,800,571.5202751159668,53.21187973022461,,40.308448791503906,0.86,53.41842269897461,53.92994689941406,0.7109994888305664
119,MetaDrive-Tut-5Env-v0,211,319.56634151216446,122154,803,576.4542505741119,53.900665283203125,,24.668724060058594,0.87,54.11257553100586,54.38788604736328,0.7095804214477539
120,MetaDrive-Tut-5Env-v0,211,325.4629427089739,123235,805,583.4360842704773,53.35834503173828,-53.72370529174805,20.415287017822266,0.88,53.38236999511719,53.307159423828125,0.7340726852416992
121,MetaDrive-Tut-5Env-v0,211,327.5212735876569,124197,807,588.4038627147675,53.9593620300293,-54.894100189208984,9.774127960205078,0.89,53.664634704589844,54.243839263916016,0.7595545053482056
122,MetaDrive-Tut-5Env-v0,210,326.466015997974,125419,810,594.4280848503113,54.69214630126953,-55.429813385009766,15.213493347167969,0.89,55.27217102050781,55.202064514160156,0.7246060371398926
123,MetaDrive-Tut-5Env-v0,210,327.44612026991297,126155,812,598.0726337432861,53.908111572265625,-54.47603988647461,28.469310760498047,0.9,54.06059265136719,54.03829574584961,0.7255692481994629
124,MetaDrive-Tut-5Env-v0,210,327.07026995044873,127137,815,602.5980615615845,52.02381134033203,-52.21770477294922,22.40139389038086,0.91,51.850440979003906,51.74467849731445,0.7685339450836182
125,MetaDrive-Tut-5Env-v0,210,330.38152186778177,128170,817,608.6273815631866,51.97965621948242,,12.440214157104492,0.91,50.96775817871094,51.31105041503906,0.6750516891479492
126,MetaDrive-Tut-5Env-v0,210,334.2507251473819,129151,819,613.5478003025055,53.8278923034668,-54.9965934753418,23.640304565429688,0.92,52.99807357788086,53.31028747558594,0.885101318359375
127,MetaDrive-Tut-5Env-v0,210,335.500462765839,130280,822,619.8594698905945,53.80821990966797,,12.35921859741211,0.92,53.79175567626953,53.86914825439453,0.7695044875144958
128,MetaDrive-Tut-5Env-v0,210,334.50921972043494,131305,825,624.9364562034607,53.140811920166016,-54.648948669433594,21.922901153564453,0.91,54.31349182128906,54.306312561035156,0.8615877628326416
129,MetaDrive-Tut-5Env-v0,209,338.04045983385913,132331,827,630.8003940582275,54.507286071777344,-55.798439025878906,12.861143112182617,0.91,55.520721435546875,55.28807067871094,0.7114995718002319
130,MetaDrive-Tut-5Env-v0,209,335.86741627227997,133257,831,634.9658975601196,52.05816650390625,-54.04173278808594,20.9884090423584,0.91,52.91558837890625,52.58504104614258,0.6985098123550415
131,MetaDrive-Tut-5Env-v0,209,336.59360731742896,134090,834,639.0672929286957,53.98891830444336,,28.402698516845703,0.91,54.709144592285156,54.04897689819336,0.7552070617675781
132,MetaDrive-Tut-5Env-v0,209,335.52465398322806,135060,836,644.0486707687378,53.938377380371094,,8.159037590026855,0.91,54.275856018066406,53.98734664916992,0.7874301671981812
133,MetaDrive-Tut-5Env-v0,209,331.5353230553487,136239,839,649.8487150669098,54.13097381591797,-54.504844665527344,9.98314094543457,0.9,53.998497009277344,54.31834030151367,0.76564621925354
134,MetaDrive-Tut-5Env-v0,209,334.5856556772027,137420,842,656.0070469379425,54.45927429199219,,11.268049240112305,0.9,53.4937744140625,53.95264434814453,0.8385328054428101
135,MetaDrive-Tut-5Env-v0,209,337.0647769689131,138443,844,662.1308040618896,52.784088134765625,-54.37519073486328,19.442424774169922,0.9,54.16761779785156,53.70293426513672,0.7452556490898132
136,MetaDrive-Tut-5Env-v0,208,335.3586078341611,139229,846,666.2699279785156,52.527793884277344,-53.17242431640625,12.017244338989258,0.89,52.957252502441406,52.501182556152344,0.8104287981987
137,MetaDrive-Tut-5Env-v0,208,334.4975570342773,140026,848,670.0628895759583,53.594627380371094,,13.115955352783203,0.89,54.185035705566406,54.275367736816406,0.8517376184463501
138,MetaDrive-Tut-5Env-v0,208,340.49726173536567,141280,851,676.2730762958527,53.271705627441406,,9.192965507507324,0.91,52.874671936035156,53.14999008178711,0.8112900853157043
139,MetaDrive-Tut-5Env-v0,208,340.2636105249107,142113,853,681.1241366863251,53.296730041503906,-53.627479553222656,23.32046127319336,0.91,53.25348663330078,53.570068359375,0.7659074068069458
140,MetaDrive-Tut-5Env-v0,208,345.0423345450118,143232,855,687.9374740123749,57.03947448730469,,11.815973281860352,0.91,56.584381103515625,56.19147872924805,0.7743977308273315
141,MetaDrive-Tut-5Env-v0,208,343.44475420672956,144019,857,691.8992676734924,56.645259857177734,-57.085601806640625,10.053918838500977,0.9,56.641624450683594,57.1158447265625,0.7905181050300598
142,MetaDrive-Tut-5Env-v0,208,343.72678150588143,145150,860,697.2254929542542,53.0748291015625,,17.492212295532227,0.9,52.63865661621094,52.81077575683594,0.8725392818450928
143,MetaDrive-Tut-5Env-v0,208,345.48398138738446,146221,863,702.3947207927704,54.77373504638672,-54.845794677734375,15.408468246459961,0.9,54.90250015258789,55.579532623291016,0.7609009742736816
144,MetaDrive-Tut-5Env-v0,208,346.31123378015434,147217,865,707.2482125759125,55.16264724731445,-56.72163391113281,36.63417434692383,0.9,55.76911163330078,55.351837158203125,0.7741387486457825
145,MetaDrive-Tut-5Env-v0,208,345.7107543535183,148372,868,712.676244020462,54.4456901550293,,27.38216781616211,0.91,54.1807975769043,53.863067626953125,0.774047315120697
146,MetaDrive-Tut-5Env-v0,208,346.76646707536895,149220,870,717.3251841068268,55.18787384033203,,8.725683212280273,0.91,55.391075134277344,55.35683059692383,0.838625967502594
147,MetaDrive-Tut-5Env-v0,208,347.30847876153683,150314,873,722.4122395515442,54.17784118652344,,18.28299331665039,0.91,54.47629165649414,54.47056198120117,0.802935779094696
148,MetaDrive-Tut-5Env-v0,208,343.99283150060853,151177,876,726.620058298111,52.7318115234375,-53.22477340698242,29.93654441833496,0.9,52.53423309326172,52.592933654785156,0.7246872186660767
149,MetaDrive-Tut-5Env-v0,208,340.3006458464919,152033,879,730.6435463428497,53.61627960205078,-53.798805236816406,17.997215270996094,0.9,52.176639556884766,52.45881652832031,0.7692017555236816
150,MetaDrive-Tut-5Env-v0,207,338.40953071535034,153017,881,735.6709249019623,54.17584228515625,-54.921390533447266,27.334592819213867,0.9,53.96299743652344,53.83354568481445,0.7509636878967285
151,MetaDrive-Tut-5Env-v0,207,337.5271980071169,154230,884,742.0848519802094,52.676841735839844,,14.759543418884277,0.9,52.7814826965332,52.86167907714844,0.8391131162643433
152,MetaDrive-Tut-5Env-v0,207,338.7132656999011,155082,886,746.7757031917572,56.82413101196289,,7.550060272216797,0.9,56.93574523925781,57.16236114501953,0.8161163330078125
153,MetaDrive-Tut-5Env-v0,207,333.44418131108944,156369,890,753.205735206604,54.93379211425781,-55.87931823730469,11.840958595275879,0.88,55.52827453613281,55.20882797241211,0.877898097038269
154,MetaDrive-Tut-5Env-v0,207,335.13849716456735,157345,892,758.1170363426208,54.39070129394531,-54.16881561279297,8.903718948364258,0.88,54.04023742675781,54.53666305541992,0.7932679653167725
155,MetaDrive-Tut-5Env-v0,207,333.81347073355255,158182,894,762.1003065109253,54.35755157470703,,8.128730773925781,0.88,53.825767517089844,53.841915130615234,0.8311303853988647
156,MetaDrive-Tut-5Env-v0,207,331.4486019047809,159260,897,767.5701551437378,53.9910888671875,,10.426685333251953,0.87,54.217079162597656,53.690452575683594,0.7102103233337402
157,MetaDrive-Tut-5Env-v0,207,332.32753287377295,160409,900,773.6300253868103,53.80442428588867,-54.71904373168945,6.947778701782227,0.88,53.91770935058594,53.758934020996094,0.7971407175064087
158,MetaDrive-Tut-5Env-v0,207,332.26638454752543,161464,903,778.7262110710144,54.64844512939453,,38.57933044433594,0.88,55.350250244140625,55.635398864746094,0.7774401903152466
159,MetaDrive-Tut-5Env-v0,207,327.61115545211624,162199,905,782.1109063625336,52.935508728027344,-53.47820281982422,19.36206817626953,0.88,53.26197814941406,53.3007926940918,0.7223842740058899
160,MetaDrive-Tut-5Env-v0,207,329.02507392337765,163248,907,788.0337014198303,53.598602294921875,,33.51612854003906,0.88,54.27364730834961,54.26158905029297,0.7237772345542908
161,MetaDrive-Tut-5Env-v0,206,331.53627900024156,164262,909,793.786792755127,53.90742492675781,,17.795791625976562,0.88,53.772239685058594,53.789649963378906,0.7895925045013428
162,MetaDrive-Tut-5Env-v0,206,332.37910761239925,165204,911,798.4182026386261,55.14408874511719,,23.252986907958984,0.88,55.1307373046875,55.25285339355469,0.8172916769981384
163,MetaDrive-Tut-5Env-v0,206,333.0326127015843,166008,913,802.3263449668884,53.858089447021484,,11.96982192993164,0.88,54.792762756347656,55.043941497802734,0.8054040670394897
164,MetaDrive-Tut-5Env-v0,206,327.1157452031729,167321,918,808.4763860702515,52.8011360168457,-54.171226501464844,41.16575622558594,0.87,53.52680587768555,53.214256286621094,0.7855430841445923
165,MetaDrive-Tut-5Env-v0,206,323.71237658831586,168327,921,813.2345051765442,52.95869445800781,-54.40068054199219,12.796880722045898,0.86,52.590980529785156,52.03177261352539,0.8064377307891846
166,MetaDrive-Tut-5Env-v0,206,324.56240204851326,169261,924,817.7841937541962,52.36648941040039,-52.79939651489258,29.867111206054688,0.86,52.74237823486328,53.07356643676758,0.8272420167922974
167,MetaDrive-Tut-5Env-v0,206,323.06909645330524,170018,926,821.4679806232452,52.88283157348633,,14.60668659210205,0.86,53.84770202636719,53.36405944824219,0.7254782915115356
168,MetaDrive-Tut-5Env-v0,206,323.05640905308655,171140,929,827.5271680355072,52.47215270996094,,30.302927017211914,0.86,53.566715240478516,53.21873474121094,0.739261269569397
169,MetaDrive-Tut-5Env-v0,206,327.5416866503721,172009,931,832.5488657951355,53.26906967163086,-54.12615966796875,14.378910064697266,0.87,52.81748962402344,53.34672546386719,0.7734261751174927
170,MetaDrive-Tut-5Env-v0,206,330.3486762856203,173262,934,838.6017048358917,56.5339241027832,,14.793929100036621,0.88,56.6211051940918,56.742794036865234,0.8465105295181274
171,MetaDrive-Tut-5Env-v0,206,329.6384437774245,174495,937,845.294994354248,53.33274841308594,-53.73802185058594,29.83134651184082,0.87,54.00286102294922,54.06374740600586,0.8442115783691406
172,MetaDrive-Tut-5Env-v0,206,331.50187106122894,175297,939,849.0944547653198,54.350013732910156,-55.032958984375,10.511781692504883,0.88,54.30815887451172,54.13648986816406,0.8010890483856201
173,MetaDrive-Tut-5Env-v0,206,333.35611143460716,176276,941,853.9752764701843,55.47451400756836,,8.503387451171875,0.89,55.429542541503906,55.09516906738281,0.8237175345420837
174,MetaDrive-Tut-5Env-v0,206,332.0648119455373,177112,943,857.9879999160767,53.169979095458984,,7.826269626617432,0.89,52.89793014526367,53.18901443481445,0.8411757349967957
175,MetaDrive-Tut-5Env-v0,206,333.5286476409297,178196,945,864.7524411678314,54.76371383666992,,9.781164169311523,0.89,54.35205078125,54.585594177246094,0.8363929390907288
176,MetaDrive-Tut-5Env-v0,206,335.6268450754019,179113,947,869.3164105415344,54.06806182861328,-53.72102355957031,10.442176818847656,0.9,53.5807991027832,53.523216247558594,0.8756120204925537
177,MetaDrive-Tut-5Env-v0,206,331.56881567941355,180063,950,873.6651141643524,53.791709899902344,-53.752532958984375,10.592239379882812,0.9,53.17405700683594,53.77231979370117,0.7871458530426025
178,MetaDrive-Tut-5Env-v0,205,331.8390584574762,181232,953,879.9408042430878,54.1571044921875,,12.639302253723145,0.9,54.94660186767578,55.09065246582031,0.7818976640701294
179,MetaDrive-Tut-5Env-v0,205,329.5410538886003,182126,955,884.8247046470642,52.927757263183594,,10.764451026916504,0.9,53.090171813964844,53.15650939941406,0.8651896119117737
180,MetaDrive-Tut-5Env-v0,205,329.3546157787495,183314,958,890.6334984302521,56.01025390625,,19.443655014038086,0.9,56.480255126953125,56.504669189453125,0.8313542604446411
181,MetaDrive-Tut-5Env-v0,205,331.6442408226742,184210,960,895.7412841320038,54.26450729370117,,23.422237396240234,0.9,54.12006378173828,53.855220794677734,0.8321175575256348
182,MetaDrive-Tut-5Env-v0,205,330.5382975737517,185062,963,899.6939737796783,53.761234283447266,,11.03720474243164,0.91,53.7280158996582,53.74818420410156,0.8206756711006165
183,MetaDrive-Tut-5Env-v0,205,328.9781798964973,186157,966,905.2667651176453,54.010963439941406,-54.76591491699219,9.954200744628906,0.9,54.58527374267578,54.642539978027344,0.8507725596427917
184,MetaDrive-Tut-5Env-v0,205,327.93409696982917,187259,969,911.2843894958496,53.51415252685547,-53.79579162597656,33.093727111816406,0.9,53.80610656738281,53.8001708984375,0.8326824903488159
185,MetaDrive-Tut-5Env-v0,205,330.21155152626403,188477,972,917.2553858757019,54.64036560058594,-55.15253448486328,21.53700065612793,0.9,54.31343078613281,54.11030578613281,0.732690155506134
186,MetaDrive-Tut-5Env-v0,205,330.3372993761581,189288,974,921.9120590686798,55.59220886230469,,8.931953430175781,0.9,55.66203689575195,55.575443267822266,0.8032726049423218
187,MetaDrive-Tut-5Env-v0,205,332.5359288904401,190166,977,925.9323136806488,51.79962921142578,,32.62800598144531,0.91,51.140472412109375,51.427467346191406,0.709580659866333
188,MetaDrive-Tut-5Env-v0,205,334.5599143296379,191539,980,933.2386717796326,54.77272033691406,-55.33173370361328,9.046297073364258,0.91,55.11284637451172,54.760643005371094,0.8182263374328613
189,MetaDrive-Tut-5Env-v0,205,336.0035281839851,192097,981,936.8347463607788,53.555816650390625,-54.51966857910156,25.112712860107422,0.91,53.360137939453125,53.04279327392578,0.8628019690513611
190,MetaDrive-Tut-5Env-v0,205,333.73963175473233,193242,985,941.9581534862518,52.63475036621094,,9.880128860473633,0.91,52.48561477661133,52.845558166503906,0.8150228261947632
191,MetaDrive-Tut-5Env-v0,205,335.7891483638218,194465,988,948.1424260139465,52.24049758911133,-53.83354187011719,13.933704376220703,0.93,51.534324645996094,51.73989486694336,0.8070656061172485
192,MetaDrive-Tut-5Env-v0,204,337.2461278560198,195002,989,951.4843330383301,54.018978118896484,,10.382162094116211,0.93,53.294857025146484,53.53257369995117,0.8147047758102417
193,MetaDrive-Tut-5Env-v0,204,338.2444061181579,196071,991,957.5966639518738,52.37989807128906,-52.73602294921875,17.524843215942383,0.93,52.170169830322266,51.72492218017578,0.7888361811637878
194,MetaDrive-Tut-5Env-v0,204,339.0886912385121,197026,993,962.4879834651947,53.963924407958984,,11.508079528808594,0.93,52.73402786254883,53.044090270996094,0.8989797830581665
195,MetaDrive-Tut-5Env-v0,204,339.42363486631353,198062,995,967.7960832118988,52.1153678894043,,59.00645446777344,0.93,52.54093933105469,52.223854064941406,0.7143791913986206
196,MetaDrive-Tut-5Env-v0,204,342.8203578523841,199343,998,974.0959181785583,53.00389862060547,-53.60716247558594,8.03544807434082,0.94,52.65013122558594,52.458251953125,0.7161701917648315
197,MetaDrive-Tut-5Env-v0,204,343.84788474316997,200408,1000,980.1775846481323,51.96466827392578,,12.42722225189209,0.94,51.58836364746094,52.285545349121094,0.8814206123352051
198,MetaDrive-Tut-5Env-v0,204,346.37458242420485,201384,1002,985.1236119270325,53.869361877441406,,8.906991958618164,0.94,53.54840850830078,53.520103454589844,0.7898886203765869
199,MetaDrive-Tut-5Env-v0,204,350.20454017795805,202505,1004,992.143716096878,52.510475158691406,-52.3652458190918,10.596635818481445,0.94,52.29538345336914,52.36524200439453,0.7682716846466064
200,MetaDrive-Tut-5Env-v0,203,352.50943750175134,203049,1005,995.6402750015259,52.5638427734375,-53.411964416503906,14.218541145324707,0.94,53.233116149902344,52.904937744140625,0.7750803232192993
201,MetaDrive-Tut-5Env-v0,203,350.03363788875015,204180,1008,1001.8916344642639,51.919578552246094,,35.22703552246094,0.94,52.36760711669922,52.05473327636719,0.8575538396835327
202,MetaDrive-Tut-5Env-v0,203,348.97830218360815,205211,1010,1007.0816118717194,52.69001770019531,-53.928932189941406,12.922096252441406,0.94,52.23299026489258,51.90351104736328,0.7988835573196411
203,MetaDrive-Tut-5Env-v0,203,349.2030426017641,206064,1012,1011.9191534519196,52.57518768310547,,15.237794876098633,0.94,51.06169509887695,50.799129486083984,0.7982186079025269
204,MetaDrive-Tut-5Env-v0,203,353.04156633724864,207024,1014,1016.7769448757172,52.36199188232422,,16.443151473999023,0.95,51.97911834716797,52.114253997802734,0.8735209703445435
205,MetaDrive-Tut-5Env-v0,203,356.59891570117406,208362,1017,1024.8584258556366,50.7766227722168,,17.90601348876953,0.95,50.766578674316406,51.182373046875,0.7377060651779175
206,MetaDrive-Tut-5Env-v0,203,359.77639098680663,209388,1019,1031.0964000225067,53.07635498046875,,10.495036125183105,0.95,52.863128662109375,52.394775390625,0.8600958585739136
207,MetaDrive-Tut-5Env-v0,203,359.8172587120186,210038,1021,1034.3618533611298,54.51197814941406,,7.085788726806641,0.95,53.88933563232422,54.66542053222656,0.9269290566444397
208,MetaDrive-Tut-5Env-v0,202,363.21630526801295,211486,1024,1041.9719898700714,51.45012664794922,,7.514408111572266,0.96,51.50531768798828,50.98865509033203,0.7900006771087646
209,MetaDrive-Tut-5Env-v0,202,362.4284836627139,212085,1026,1044.8452732563019,51.984657287597656,-52.9333610534668,10.328864097595215,0.96,52.19183349609375,52.37274169921875,0.8705087900161743
210,MetaDrive-Tut-5Env-v0,202,367.5166801174402,213174,1028,1051.7564227581024,50.941646575927734,,9.280900955200195,0.96,50.61370849609375,51.217689514160156,0.8182357549667358
211,MetaDrive-Tut-5Env-v0,202,364.41658062610367,214233,1031,1056.9046800136566,53.443843841552734,-54.08558654785156,9.134787559509277,0.96,53.387115478515625,53.58918762207031,0.7735660076141357
212,MetaDrive-Tut-5Env-v0,202,367.0196557674719,215327,1033,1064.1315879821777,53.300479888916016,-53.067901611328125,10.309547424316406,0.96,52.859397888183594,53.432373046875,0.7535966038703918
213,MetaDrive-Tut-5Env-v0,202,369.56423590890716,216171,1035,1068.7772908210754,50.13935852050781,-50.944122314453125,10.704151153564453,0.96,49.499507904052734,49.56391143798828,0.7879656553268433
214,MetaDrive-Tut-5Env-v0,202,366.2406725878661,217210,1038,1073.6725466251373,52.71197509765625,,11.42410659790039,0.97,51.60124588012695,51.787498474121094,0.7843129634857178
215,MetaDrive-Tut-5Env-v0,202,363.57964670913117,218077,1041,1077.7179815769196,51.7470703125,-52.274810791015625,18.936996459960938,0.97,51.61761474609375,51.619834899902344,0.7803298234939575
216,MetaDrive-Tut-5Env-v0,202,361.3579223612059,219134,1044,1082.7323288917542,49.672950744628906,,10.948419570922852,0.97,49.159629821777344,49.47340393066406,0.8454718589782715
217,MetaDrive-Tut-5Env-v0,202,359.20191718376833,220324,1047,1088.697020292282,53.30323028564453,,20.780513763427734,0.97,52.701255798339844,52.74819564819336,0.7678847312927246
218,MetaDrive-Tut-5Env-v0,202,361.7683219284809,221288,1049,1093.4520192146301,54.15210723876953,,7.194997787475586,0.97,53.549041748046875,53.443359375,0.858919620513916
219,MetaDrive-Tut-5Env-v0,202,366.62601374334224,222408,1051,1100.3159754276276,51.12648010253906,,9.497743606567383,0.97,51.263519287109375,50.70985412597656,0.8128291368484497
220,MetaDrive-Tut-5Env-v0,202,366.4361320101672,223362,1053,1105.1088271141052,53.20622253417969,,11.836838722229004,0.97,53.66270065307617,53.57062911987305,0.7546095848083496
221,MetaDrive-Tut-5Env-v0,202,366.2525547795831,224155,1055,1109.620432138443,53.86498260498047,-54.53645324707031,9.431610107421875,0.97,53.869171142578125,53.99909973144531,0.8403477072715759
222,MetaDrive-Tut-5Env-v0,202,365.41834942906155,225442,1059,1115.9304208755493,54.664371490478516,,11.672815322875977,0.97,53.52568817138672,54.01156997680664,0.8824126720428467
223,MetaDrive-Tut-5Env-v0,202,363.74533146876774,226213,1061,1119.6673991680145,52.467159271240234,-52.76010513305664,8.073057174682617,0.97,52.19917678833008,51.981571197509766,0.8182264566421509
224,MetaDrive-Tut-5Env-v0,201,367.7927699224987,227275,1063,1125.5881967544556,53.69501495361328,-54.77217102050781,10.54854965209961,0.97,54.3935546875,53.96397399902344,0.7930654287338257
225,MetaDrive-Tut-5Env-v0,201,369.31578034199424,228320,1065,1131.4437000751495,53.329742431640625,,7.553241729736328,0.97,52.84137725830078,53.0131721496582,0.7985260486602783
226,MetaDrive-Tut-5Env-v0,201,371.1333815947393,229288,1067,1136.295480966568,50.91646957397461,,11.461435317993164,0.98,52.24775695800781,51.96662902832031,0.7939052581787109
227,MetaDrive-Tut-5Env-v0,201,371.9437825067474,230070,1069,1140.1510922908783,51.76250457763672,,7.635610103607178,0.98,51.43157196044922,51.196205139160156,0.7664971351623535
228,MetaDrive-Tut-5Env-v0,201,374.9628649722236,231126,1071,1146.0701076984406,52.48827362060547,,9.716107368469238,0.98,52.94364929199219,52.423362731933594,0.8534905314445496
229,MetaDrive-Tut-5Env-v0,201,371.8957316032688,232448,1073,1151.3650391101837,50.639488220214844,,12.856117248535156,0.97,50.647117614746094,50.86149978637695,0.7612274289131165
230,MetaDrive-Tut-5Env-v0,201,371.9501216795046,233018,1074,1154.8212776184082,51.624176025390625,,40.64469909667969,0.97,53.27015686035156,52.249481201171875,0.8008667230606079
231,MetaDrive-Tut-5Env-v0,201,374.03670064888524,234293,1077,1161.0534138679504,53.17972183227539,-54.010040283203125,10.356843948364258,0.97,53.58502960205078,53.32624816894531,0.8090575933456421
232,MetaDrive-Tut-5Env-v0,201,374.27738730107893,235125,1079,1165.0050320625305,51.625343322753906,-52.253257751464844,12.480318069458008,0.97,51.52522277832031,51.674652099609375,0.7813136577606201
233,MetaDrive-Tut-5Env-v0,201,369.08392438000607,236239,1083,1170.5441732406616,51.11463928222656,-52.00672149658203,11.375446319580078,0.95,51.418148040771484,51.45345687866211,0.8454463481903076
234,MetaDrive-Tut-5Env-v0,201,370.06566380482116,237346,1086,1175.8426945209503,51.289756774902344,,28.02716827392578,0.95,50.90094757080078,51.05194854736328,0.7633277177810669
235,MetaDrive-Tut-5Env-v0,201,370.78391517584555,238281,1088,1181.030940771103,51.224822998046875,-51.84050750732422,9.898908615112305,0.95,50.310604095458984,50.99284362792969,0.8522453308105469
236,MetaDrive-Tut-5Env-v0,201,368.29787445970027,239341,1090,1186.244356393814,52.89149475097656,-53.763484954833984,11.596254348754883,0.95,53.97309875488281,54.104530334472656,0.7767112255096436
237,MetaDrive-Tut-5Env-v0,201,364.04160976340034,240179,1093,1191.1512277126312,50.10477828979492,-50.412174224853516,5.348854064941406,0.93,50.298561096191406,49.71397018432617,0.7963415384292603
238,MetaDrive-Tut-5Env-v0,201,363.2349468496321,241020,1095,1195.2216284275055,50.08238220214844,,5.224854469299316,0.93,50.299652099609375,50.341373443603516,0.8224079012870789
239,MetaDrive-Tut-5Env-v0,201,365.78048292531486,242148,1097,1201.7200231552124,49.89867401123047,,19.936756134033203,0.93,50.199554443359375,50.04346466064453,0.7503398656845093
240,MetaDrive-Tut-5Env-v0,201,365.71494784156545,243643,1100,1210.808021068573,50.9783935546875,-51.21401596069336,23.87872314453125,0.92,51.772911071777344,51.44898223876953,0.817959189414978
241,MetaDrive-Tut-5Env-v0,201,362.93146606793346,244196,1102,1213.6870188713074,51.836761474609375,,7.797609329223633,0.9,51.942317962646484,52.16596984863281,0.8080021142959595
242,MetaDrive-Tut-5Env-v0,201,360.4519326037475,245084,1104,1218.726321220398,51.023624420166016,,9.312455177307129,0.9,50.596229553222656,50.95970916748047,0.7946227192878723
243,MetaDrive-Tut-5Env-v0,201,356.13153670011087,246211,1107,1224.3779723644257,53.16868591308594,-54.00765609741211,13.438386917114258,0.89,53.448829650878906,53.45515060424805,0.8560282588005066
244,MetaDrive-Tut-5Env-v0,201,354.77742822695893,247282,1110,1229.742026567459,50.944793701171875,,9.854789733886719,0.88,50.468040466308594,50.53515625,0.7427727580070496
245,MetaDrive-Tut-5Env-v0,201,353.58851471869764,248170,1112,1233.9484899044037,50.451175689697266,,9.700439453125,0.88,50.7153434753418,51.03863525390625,0.825588583946228
246,MetaDrive-Tut-5Env-v0,201,353.034479455141,249034,1114,1238.895963191986,51.644554138183594,,11.380672454833984,0.87,51.53999328613281,51.64344024658203,0.7821191549301147
247,MetaDrive-Tut-5Env-v0,200,352.9472257523547,250454,1117,1246.8801305294037,52.808929443359375,,10.36556625366211,0.86,53.3873176574707,53.4849967956543,0.7781710624694824
248,MetaDrive-Tut-5Env-v0,200,354.45685861377615,251027,1118,1250.2731466293335,51.65275573730469,-51.533294677734375,9.021209716796875,0.86,51.260467529296875,51.68247985839844,0.8317084312438965
249,MetaDrive-Tut-5Env-v0,200,353.77446939700036,252672,1121,1258.2833578586578,52.267242431640625,,7.772212982177734,0.87,52.455833435058594,52.49760437011719,0.8536688089370728
250,MetaDrive-Tut-5Env-v0,200,354.8611588493506,253323,1122,1261.9829671382904,52.858577728271484,-53.2044677734375,14.997690200805664,0.87,53.56318664550781,53.8233757019043,0.7962087988853455
251,MetaDrive-Tut-5Env-v0,200,352.5547798661626,254013,1124,1265.1427080631256,50.750362396240234,-51.64714431762695,11.78717041015625,0.87,51.351295471191406,51.372886657714844,0.7862403988838196
252,MetaDrive-Tut-5Env-v0,200,355.8591237730049,255181,1126,1271.589204788208,52.114166259765625,-53.00605392456055,8.350251197814941,0.87,51.273521423339844,51.488792419433594,0.8368151783943176
253,MetaDrive-Tut-5Env-v0,200,349.0906690161483,256119,1129,1276.1283922195435,52.99889373779297,-53.03340530395508,11.901174545288086,0.85,53.50041961669922,53.654640197753906,0.8390218019485474
254,MetaDrive-Tut-5Env-v0,200,350.0233304563757,257528,1132,1283.6967957019806,52.55912399291992,,21.762142181396484,0.84,52.63402557373047,52.991615295410156,0.8045744299888611
255,MetaDrive-Tut-5Env-v0,200,344.9975371704293,258159,1134,1286.6700842380524,51.759925842285156,-51.63372039794922,9.527557373046875,0.84,51.46934127807617,51.77894592285156,0.7352499961853027
256,MetaDrive-Tut-5Env-v0,200,343.00873584636645,259234,1138,1292.0010242462158,50.7908935546875,,18.078672409057617,0.83,51.02793884277344,50.92981719970703,0.7510899305343628
257,MetaDrive-Tut-5Env-v0,200,342.662909708125,260175,1141,1296.6047224998474,52.15287780761719,-52.51581954956055,7.644681930541992,0.81,51.529300689697266,52.00078201293945,0.8336445093154907
258,MetaDrive-Tut-5Env-v0,200,343.5137071538302,261005,1143,1301.3761434555054,51.49341583251953,-52.716285705566406,12.267033576965332,0.8,51.339630126953125,51.61067581176758,0.8283291459083557
259,MetaDrive-Tut-5Env-v0,200,342.63299287712204,262036,1146,1306.0095150470734,51.349884033203125,,13.167035102844238,0.8,51.41794204711914,51.49347686767578,0.7586203813552856
260,MetaDrive-Tut-5Env-v0,200,335.8312143176847,263177,1150,1311.4479858875275,52.94090270996094,-53.34614944458008,25.053104400634766,0.78,52.42317581176758,52.668758392333984,0.7890069484710693
261,MetaDrive-Tut-5Env-v0,200,330.98809543756147,264181,1153,1316.1883606910706,52.19640350341797,-52.03154754638672,25.683643341064453,0.77,51.645721435546875,51.972896575927734,0.7254983186721802
262,MetaDrive-Tut-5Env-v0,200,332.0207458850493,265523,1156,1323.6082994937897,51.77513122558594,-52.729331970214844,10.49110221862793,0.77,52.10570526123047,52.208740234375,0.870515763759613
263,MetaDrive-Tut-5Env-v0,200,331.52189566771443,266042,1158,1326.204130411148,52.187992095947266,,8.011740684509277,0.77,51.81547927856445,51.936256408691406,0.8075282573699951
264,MetaDrive-Tut-5Env-v0,200,330.5820372861732,267564,1162,1334.3519594669342,50.58512496948242,,9.21242904663086,0.76,50.51740264892578,50.739845275878906,0.7568026185035706
265,MetaDrive-Tut-5Env-v0,200,330.58375204939745,268123,1163,1337.7393820285797,53.557437896728516,-54.28277587890625,9.777055740356445,0.76,54.3082275390625,53.89505386352539,0.8110722303390503
266,MetaDrive-Tut-5Env-v0,200,329.9946072561262,269518,1166,1346.096999168396,54.19023132324219,,9.345438957214355,0.75,53.84063720703125,53.928016662597656,0.8441194295883179
267,MetaDrive-Tut-5Env-v0,200,327.65369969751555,270143,1168,1348.9286997318268,52.253997802734375,-52.63439178466797,30.360794067382812,0.75,53.1283073425293,53.34764862060547,0.7712783813476562
268,MetaDrive-Tut-5Env-v0,200,324.95191623665943,271179,1171,1353.9627614021301,50.379249572753906,-50.57727813720703,24.99397850036621,0.74,49.60295104980469,49.91425323486328,0.8286000490188599
269,MetaDrive-Tut-5Env-v0,200,331.4682154274385,272321,1173,1361.154837846756,53.084205627441406,-53.38175964355469,24.189727783203125,0.75,53.49970245361328,53.4249153137207,0.765463650226593
270,MetaDrive-Tut-5Env-v0,200,330.6411621590076,273173,1175,1365.5230481624603,52.443702697753906,-52.665077209472656,6.62268590927124,0.75,52.22146224975586,52.732704162597656,0.868409276008606
271,MetaDrive-Tut-5Env-v0,199,332.17366921946376,274227,1177,1371.284044265747,51.28815460205078,-51.223167419433594,11.272026062011719,0.75,52.55722427368164,52.05320739746094,0.8290504217147827
272,MetaDrive-Tut-5Env-v0,199,333.45814291515546,275457,1180,1377.3782997131348,52.20117950439453,-52.200225830078125,8.3294038772583,0.75,51.535221099853516,51.598480224609375,0.778005838394165
273,MetaDrive-Tut-5Env-v0,199,335.7287715902552,276291,1182,1382.3681683540344,52.58124542236328,-52.47623825073242,8.676229476928711,0.75,53.61457824707031,52.84967041015625,0.8251231908798218
274,MetaDrive-Tut-5Env-v0,199,338.41143533457,277190,1184,1387.344996213913,51.02145767211914,,8.482179641723633,0.76,50.9949951171875,50.635597229003906,0.8415234088897705
275,MetaDrive-Tut-5Env-v0,199,337.3213070099994,278040,1187,1391.2940747737885,53.2606201171875,,10.19088363647461,0.76,52.85393524169922,53.05475997924805,0.7227911949157715
276,MetaDrive-Tut-5Env-v0,199,333.1044615406138,279057,1190,1396.4512569904327,51.53826141357422,-51.13841247558594,10.978093147277832,0.75,50.844635009765625,50.91560745239258,0.8244417905807495
277,MetaDrive-Tut-5Env-v0,199,330.10002097192825,280045,1194,1401.171237707138,54.50707244873047,-55.51030731201172,8.250905990600586,0.74,54.86290740966797,54.778343200683594,0.8222041726112366
278,MetaDrive-Tut-5Env-v0,199,329.400920638669,281004,1196,1406.0875670909882,51.588871002197266,,7.075009346008301,0.74,51.35487365722656,51.362030029296875,0.8481805920600891
279,MetaDrive-Tut-5Env-v0,199,329.5005870673927,282458,1199,1413.5325102806091,52.53096008300781,,6.676517009735107,0.75,51.763824462890625,52.03103256225586,0.8520132303237915
280,MetaDrive-Tut-5Env-v0,199,327.1033073822419,283135,1201,1416.7616701126099,51.9869384765625,-52.402305603027344,7.946671485900879,0.75,51.82223892211914,52.034278869628906,0.8329154253005981
281,MetaDrive-Tut-5Env-v0,199,332.32945325965795,284282,1203,1423.8508131504059,51.90663146972656,,9.772031784057617,0.76,51.33460235595703,51.14374542236328,0.8477803468704224
282,MetaDrive-Tut-5Env-v0,199,333.43160802542576,285393,1205,1430.0159077644348,52.513099670410156,-53.49476623535156,11.03023624420166,0.77,52.47883605957031,52.235984802246094,0.8033547401428223
283,MetaDrive-Tut-5Env-v0,199,335.9248417933949,286425,1207,1435.7950103282928,50.47706604003906,-51.97929382324219,12.560647010803223,0.77,50.20296859741211,49.664451599121094,0.7801669239997864
284,MetaDrive-Tut-5Env-v0,199,336.276248457867,287026,1209,1438.6040077209473,51.150508880615234,,12.445725440979004,0.78,50.55229187011719,50.9719123840332,0.747480034828186
285,MetaDrive-Tut-5Env-v0,199,333.29304791896436,288123,1212,1443.9859857559204,53.24268341064453,-53.35813903808594,6.422244071960449,0.77,53.22016906738281,53.17051696777344,0.8286610841751099
286,MetaDrive-Tut-5Env-v0,199,329.8100698113131,289814,1215,1451.4155361652374,52.94247817993164,,9.308996200561523,0.77,52.753387451171875,52.85763931274414,0.7717399597167969
287,MetaDrive-Tut-5Env-v0,199,327.45703551593544,290186,1216,1453.15691781044,49.827919006347656,,9.553796768188477,0.77,50.62207794189453,50.49195098876953,0.7926826477050781
288,MetaDrive-Tut-5Env-v0,199,327.4715411335881,291202,1218,1459.0531125068665,52.61737060546875,,9.28878402709961,0.77,52.43123245239258,52.32143020629883,0.82771235704422
289,MetaDrive-Tut-5Env-v0,199,329.02598900215236,292486,1221,1466.1263098716736,50.53724670410156,,10.219935417175293,0.76,49.982582092285156,50.223602294921875,0.7840274572372437
290,MetaDrive-Tut-5Env-v0,199,327.90857458302,293003,1222,1468.7195403575897,50.94756317138672,-51.425926208496094,7.737905502319336,0.76,51.40473175048828,51.291343688964844,0.7954111099243164
291,MetaDrive-Tut-5Env-v0,199,330.8920610893757,294453,1225,1476.3744699954987,49.64990997314453,-50.657981872558594,24.576852798461914,0.76,50.46472930908203,50.405948638916016,0.7833060026168823
292,MetaDrive-Tut-5Env-v0,199,330.909670253529,295038,1226,1479.811753988266,52.364501953125,,6.1531548500061035,0.76,52.13434600830078,52.1630744934082,0.8657044172286987
293,MetaDrive-Tut-5Env-v0,199,333.65641792275187,296151,1229,1486.3979787826538,50.534423828125,-50.94369888305664,10.420270919799805,0.78,51.81856918334961,51.486663818359375,0.800706148147583
294,MetaDrive-Tut-5Env-v0,199,331.7622972442365,297413,1232,1493.0210363864899,51.15547180175781,-51.663265228271484,7.73445987701416,0.79,50.9703369140625,51.081520080566406,0.781806230545044
295,MetaDrive-Tut-5Env-v0,199,332.28473165394587,298056,1234,1497.3941705226898,49.373199462890625,,7.491814613342285,0.78,49.41798782348633,49.401092529296875,0.8032820224761963
296,MetaDrive-Tut-5Env-v0,198,336.69017262926025,299426,1237,1505.9102368354797,52.96929931640625,,6.785621643066406,0.79,53.00462341308594,52.88642501831055,0.9113593101501465
297,MetaDrive-Tut-5Env-v0,198,337.82984277765127,300166,1239,1509.8151774406433,51.245567321777344,,9.650653839111328,0.8,51.63270950317383,51.44194412231445,0.8195602893829346
298,MetaDrive-Tut-5Env-v0,198,339.4867134102247,301016,1241,1514.2719819545746,50.982017517089844,,22.874622344970703,0.81,51.26231384277344,51.493797302246094,0.773659348487854
299,MetaDrive-Tut-5Env-v0,198,340.6492515727647,302073,1243,1520.4276371002197,49.78667068481445,-49.549015045166016,8.771251678466797,0.82,49.758995056152344,49.80101776123047,0.8941866755485535
300,MetaDrive-Tut-5Env-v0,198,343.8023810138313,303478,1246,1528.7923293113708,51.31789779663086,,9.450368881225586,0.82,51.02040100097656,51.24289321899414,0.8355040550231934
301,MetaDrive-Tut-5Env-v0,198,346.1506708960814,304451,1248,1534.0478255748749,51.89490509033203,-52.77705383300781,6.843159198760986,0.83,52.48545837402344,52.17601013183594,0.8552392721176147
302,MetaDrive-Tut-5Env-v0,198,347.0895732535322,305186,1250,1537.6356194019318,52.464210510253906,,28.34075927734375,0.84,51.84843063354492,51.82285690307617,0.8018014430999756
303,MetaDrive-Tut-5Env-v0,198,348.5662781033293,306352,1253,1543.2585937976837,49.896141052246094,,15.285066604614258,0.85,50.29742431640625,50.225711822509766,0.8687176704406738
304,MetaDrive-Tut-5Env-v0,198,350.3359030994802,307332,1255,1549.6765010356903,51.20417404174805,,10.407360076904297,0.84,50.73881530761719,50.71308898925781,0.788381814956665
305,MetaDrive-Tut-5Env-v0,198,349.806102329823,308269,1257,1555.133085489273,49.81011962890625,-49.8477897644043,10.006824493408203,0.84,49.83959197998047,49.52992248535156,0.7852810025215149
306,MetaDrive-Tut-5Env-v0,198,349.47364762583163,309131,1260,1559.5558393001556,51.71482467651367,-52.69447326660156,7.552826881408691,0.84,52.23759078979492,51.51996612548828,0.8260927796363831
307,MetaDrive-Tut-5Env-v0,198,345.88493223896245,310443,1264,1567.702479839325,50.817283630371094,-51.903167724609375,6.2942304611206055,0.84,51.56695556640625,51.04294204711914,0.7791190147399902
308,MetaDrive-Tut-5Env-v0,198,341.008662107483,311063,1266,1570.7497336864471,50.74679946899414,-51.86540222167969,24.472288131713867,0.84,51.134239196777344,50.9714469909668,0.8200526833534241
309,MetaDrive-Tut-5Env-v0,198,337.4105176669821,312219,1270,1576.587931394577,49.10551071166992,-50.63060760498047,41.9986686706543,0.82,50.341529846191406,49.50657653808594,0.7267451882362366
310,MetaDrive-Tut-5Env-v0,198,336.54489304553715,313015,1272,1580.64710688591,48.24750900268555,-48.803802490234375,8.348299026489258,0.83,48.28242492675781,48.0726432800293,0.7494342923164368
311,MetaDrive-Tut-5Env-v0,197,337.3501022457522,314026,1274,1586.673840522766,48.34558868408203,,13.29377555847168,0.83,48.07698059082031,48.15708541870117,0.8368856906890869
312,MetaDrive-Tut-5Env-v0,197,333.94777979149234,315165,1277,1593.3835566043854,51.84931182861328,-52.07183074951172,9.212370872497559,0.82,52.33805847167969,52.521514892578125,0.7978601455688477
313,MetaDrive-Tut-5Env-v0,197,336.0166287182765,316201,1279,1599.7213909626007,48.64075469970703,-48.884830474853516,10.556706428527832,0.82,48.451324462890625,48.685020446777344,0.7948635816574097
314,MetaDrive-Tut-5Env-v0,197,335.6422031624666,317465,1282,1606.6824536323547,51.29593276977539,-51.44844055175781,7.424670219421387,0.83,51.22939682006836,51.09367752075195,0.7893893122673035
315,MetaDrive-Tut-5Env-v0,197,335.61540582931315,318053,1283,1610.503321647644,52.10953903198242,-52.394386291503906,9.88995361328125,0.83,51.59299087524414,52.101829528808594,0.7950322031974792
316,MetaDrive-Tut-5Env-v0,197,337.72357686447816,319115,1286,1617.4577424526215,50.11664962768555,-50.32586669921875,9.028502464294434,0.83,50.75817108154297,50.307029724121094,0.7782719135284424
317,MetaDrive-Tut-5Env-v0,197,342.85727798682694,320268,1288,1625.1148977279663,49.755680084228516,,37.202308654785156,0.83,51.22502517700195,51.68296813964844,0.7546816468238831
318,MetaDrive-Tut-5Env-v0,196,345.51424937360656,321393,1290,1632.1884396076202,50.17520523071289,-50.6382942199707,8.6701078414917,0.84,50.568180084228516,50.895294189453125,0.8384122848510742
319,MetaDrive-Tut-5Env-v0,196,349.1204044232912,322176,1292,1636.5722963809967,49.22832489013672,,27.78569793701172,0.86,48.742095947265625,49.29453659057617,0.8134578466415405
320,MetaDrive-Tut-5Env-v0,196,350.79242646606144,323055,1294,1641.7725734710693,49.05976867675781,-49.41511535644531,6.472160339355469,0.87,48.843955993652344,48.82579040527344,0.8022222518920898
321,MetaDrive-Tut-5Env-v0,196,348.724869755256,324075,1297,1647.5410249233246,51.03944396972656,-51.49475860595703,8.45985221862793,0.87,50.87532043457031,50.98271560668945,0.8471011519432068
322,MetaDrive-Tut-5Env-v0,196,346.9486653642209,325170,1300,1653.7054839134216,49.133506774902344,,8.874338150024414,0.87,48.46234130859375,48.81230926513672,0.8439704775810242
323,MetaDrive-Tut-5Env-v0,196,349.1558624018864,326171,1301,1659.3995599746704,49.63589096069336,-50.162410736083984,13.256226539611816,0.86,50.05959701538086,50.09446334838867,0.7702921628952026
324,MetaDrive-Tut-5Env-v0,196,347.0053021449364,327261,1303,1665.396121263504,50.35302734375,-50.11189270019531,11.094629287719727,0.86,49.61909484863281,49.645362854003906,0.8098933100700378
325,MetaDrive-Tut-5Env-v0,196,345.408778288275,328278,1305,1671.1403064727783,48.554718017578125,,10.380419731140137,0.86,49.33290100097656,49.77900695800781,0.7825905084609985
326,MetaDrive-Tut-5Env-v0,196,343.944679186872,329479,1308,1678.4440677165985,50.01238250732422,-50.03302001953125,11.379636764526367,0.85,49.103668212890625,49.391597747802734,0.8057121634483337
327,MetaDrive-Tut-5Env-v0,196,346.4855527153949,330497,1310,1684.4170408248901,50.70478057861328,-50.59925842285156,8.459547996520996,0.85,50.87791442871094,50.72941589355469,0.7959297895431519
328,MetaDrive-Tut-5Env-v0,196,347.71441452024305,331239,1311,1687.8253428936005,50.07384490966797,-50.44617462158203,27.24891471862793,0.85,49.48216247558594,49.503028869628906,0.844731330871582
329,MetaDrive-Tut-5Env-v0,196,347.6848041253889,332392,1314,1694.8073484897614,47.28041076660156,,16.427902221679688,0.85,46.25614547729492,46.55772399902344,0.7803974747657776
330,MetaDrive-Tut-5Env-v0,195,352.6609101150339,333466,1316,1701.938624382019,48.51526641845703,,6.9236650466918945,0.86,49.06855392456055,48.966007232666016,0.7906006574630737
331,MetaDrive-Tut-5Env-v0,195,342.01210161573067,334214,1320,1706.1766374111176,49.6122932434082,,6.366003513336182,0.84,49.84769058227539,49.65487289428711,0.7980074882507324
332,MetaDrive-Tut-5Env-v0,195,344.2124628411328,335488,1322,1714.5614609718323,47.39110565185547,,10.029626846313477,0.84,47.96123504638672,47.777931213378906,0.7782860994338989
333,MetaDrive-Tut-5Env-v0,195,340.9606406587252,336070,1324,1717.9172387123108,48.894004821777344,,23.081085205078125,0.83,49.089969635009766,48.83880615234375,0.8354772329330444
334,MetaDrive-Tut-5Env-v0,195,338.1742953222185,337111,1327,1723.7892780303955,48.51353454589844,-48.799983978271484,14.36237621307373,0.83,48.91120147705078,49.01569366455078,0.8225917816162109
335,MetaDrive-Tut-5Env-v0,195,335.42818833279455,338071,1330,1729.40118765831,50.29506301879883,-50.653770446777344,8.488901138305664,0.81,50.36153030395508,50.64949035644531,0.8246734142303467
336,MetaDrive-Tut-5Env-v0,195,337.9543962573935,339238,1333,1736.808049440384,47.044281005859375,,9.171167373657227,0.81,47.37273025512695,47.34523010253906,0.794866681098938
337,MetaDrive-Tut-5Env-v0,195,335.9022849331362,340185,1335,1742.3322386741638,50.59254455566406,-50.694725036621094,9.284146308898926,0.81,50.43054962158203,50.36723327636719,0.8600674867630005
338,MetaDrive-Tut-5Env-v0,195,333.81586457702275,341446,1338,1749.4732115268707,48.73350524902344,,8.498809814453125,0.8,48.56906509399414,47.94120788574219,0.8053882718086243
339,MetaDrive-Tut-5Env-v0,194,336.5646300701542,342494,1340,1756.5223503112793,50.11708450317383,,6.915921211242676,0.8,49.340423583984375,49.38011932373047,0.7579998970031738
340,MetaDrive-Tut-5Env-v0,194,334.9333398382648,343505,1342,1762.5103306770325,47.32905578613281,-47.550052642822266,9.527637481689453,0.79,47.22687530517578,47.57098388671875,0.8130479454994202
341,MetaDrive-Tut-5Env-v0,194,333.8851809187739,344076,1343,1765.710391998291,50.58140563964844,,8.600301742553711,0.79,50.845062255859375,51.083011627197266,0.809799313545227
342,MetaDrive-Tut-5Env-v0,194,332.2740575493206,345326,1346,1772.5965740680695,50.81207275390625,,25.70909881591797,0.79,50.78123474121094,50.55445098876953,0.7687773108482361
343,MetaDrive-Tut-5Env-v0,194,331.4408175302014,346137,1348,1777.226755142212,48.19256591796875,-49.64955520629883,25.80974769592285,0.79,48.4394416809082,48.71867752075195,0.75007164478302
344,MetaDrive-Tut-5Env-v0,194,329.64503951956743,347536,1351,1784.6792895793915,49.14209747314453,,10.874550819396973,0.77,49.37624740600586,49.50590896606445,0.8235487937927246
345,MetaDrive-Tut-5Env-v0,194,329.4465439371334,348097,1352,1787.7038402557373,49.4231071472168,-49.97885513305664,20.336816787719727,0.76,49.77578353881836,49.694766998291016,0.7947067618370056
346,MetaDrive-Tut-5Env-v0,194,330.46262063019753,349256,1354,1795.5096673965454,48.24861145019531,,9.278553009033203,0.76,47.984928131103516,48.00566101074219,0.8460771441459656
347,MetaDrive-Tut-5Env-v0,194,328.64232489946386,350256,1357,1801.0142300128937,46.45880126953125,,17.477264404296875,0.76,44.790565490722656,44.76573944091797,0.7376505136489868
348,MetaDrive-Tut-5Env-v0,194,331.53566221811064,351243,1359,1806.5663769245148,48.263710021972656,-49.05487823486328,10.03369140625,0.77,48.86933898925781,48.6290283203125,0.804659903049469
349,MetaDrive-Tut-5Env-v0,194,331.6322653688536,352001,1361,1811.695076227188,48.42565155029297,-48.55561828613281,7.2282209396362305,0.76,48.11553192138672,48.072418212890625,0.8347181677818298
350,MetaDrive-Tut-5Env-v0,194,337.2873615341237,353002,1363,1816.9549946784973,46.74476623535156,,15.396461486816406,0.78,45.2904167175293,45.320518493652344,0.762394905090332
351,MetaDrive-Tut-5Env-v0,194,334.4263416935748,354448,1366,1824.8128547668457,45.36981201171875,,12.126583099365234,0.75,45.71880340576172,45.74364471435547,0.8031247854232788
352,MetaDrive-Tut-5Env-v0,194,335.9702574563513,355005,1367,1828.6708900928497,48.71857833862305,-49.40861511230469,7.038212776184082,0.75,49.02275085449219,49.06787872314453,0.8350919485092163
353,MetaDrive-Tut-5Env-v0,193,342.8498040161001,356385,1370,1837.2162601947784,45.18787384033203,-45.33267593383789,8.906304359436035,0.77,46.20134353637695,45.741127014160156,0.8137425184249878
354,MetaDrive-Tut-5Env-v0,193,345.2806775474845,357386,1371,1843.0627648830414,47.109779357910156,,7.695173263549805,0.76,47.072269439697266,47.28411102294922,0.8709413409233093
355,MetaDrive-Tut-5Env-v0,193,337.76004799971054,358058,1374,1846.81263422966,47.650672912597656,,6.6906867027282715,0.74,47.92919921875,48.178253173828125,0.8711409568786621
356,MetaDrive-Tut-5Env-v0,193,338.9409723450507,359020,1376,1852.013400554657,48.97515869140625,,8.962162971496582,0.74,49.647010803222656,49.62631607055664,0.8104496598243713
357,MetaDrive-Tut-5Env-v0,193,331.74459664264754,360182,1379,1858.4928121566772,47.75625228881836,,7.40362548828125,0.72,47.96567916870117,47.93927764892578,0.8223236799240112
358,MetaDrive-Tut-5Env-v0,193,332.4870282847951,361616,1382,1867.8954725265503,45.78862762451172,,8.5125732421875,0.72,45.41905212402344,45.04726028442383,0.805979311466217
359,MetaDrive-Tut-5Env-v0,193,332.49008952947503,362221,1383,1872.2241625785828,48.12510681152344,-48.28854751586914,36.202049255371094,0.72,47.175689697265625,47.04780960083008,0.8355581760406494
360,MetaDrive-Tut-5Env-v0,193,326.3401486138214,363939,1387,1881.8395874500275,46.34206771850586,-47.53514099121094,11.42306137084961,0.69,46.87944030761719,46.953956604003906,0.8129110336303711
361,MetaDrive-Tut-5Env-v0,193,325.29513331357566,364427,1388,1884.8668191432953,46.759769439697266,-47.43525695800781,13.475022315979004,0.69,46.295562744140625,46.7274055480957,0.8880045413970947
362,MetaDrive-Tut-5Env-v0,193,323.29747642398644,365123,1390,1889.3980062007904,46.873619079589844,-47.43423080444336,9.374943733215332,0.68,46.291656494140625,46.692203521728516,0.7878462672233582
363,MetaDrive-Tut-5Env-v0,193,323.2851247139384,366244,1392,1895.4437401294708,46.59626388549805,,8.729745864868164,0.67,46.481971740722656,46.67783737182617,0.8017202019691467
364,MetaDrive-Tut-5Env-v0,193,322.1594783333641,367209,1395,1901.779213666916,48.11860275268555,-48.640098571777344,9.212578773498535,0.66,48.38092803955078,47.7634391784668,0.8024400472640991
365,MetaDrive-Tut-5Env-v0,192,323.17959077400906,368489,1399,1909.33025598526,45.390594482421875,-46.61663055419922,13.068803787231445,0.65,46.386112213134766,45.85308837890625,0.7731602191925049
366,MetaDrive-Tut-5Env-v0,192,321.7279702068214,369497,1401,1915.3609013557434,46.02867126464844,-46.519874572753906,9.539440155029297,0.66,46.019378662109375,45.74335861206055,0.8247450590133667
367,MetaDrive-Tut-5Env-v0,192,322.7697376018319,370056,1402,1919.0833325386047,46.55799865722656,,16.04467010498047,0.66,47.423038482666016,47.53430938720703,0.8154867887496948
368,MetaDrive-Tut-5Env-v0,192,321.87328823020056,371261,1405,1926.0066230297089,46.28535079956055,-46.05342102050781,6.17821741104126,0.65,46.43981170654297,46.007469177246094,0.7664202451705933
369,MetaDrive-Tut-5Env-v0,192,325.28982050858116,372290,1407,1932.1730086803436,47.360748291015625,,17.08342933654785,0.66,46.82732009887695,46.69141387939453,0.8925334215164185
370,MetaDrive-Tut-5Env-v0,192,317.87241300082536,373378,1411,1938.7117276191711,45.63032913208008,,8.120630264282227,0.65,45.37047576904297,45.39612579345703,0.8028326034545898
371,MetaDrive-Tut-5Env-v0,192,315.97236460626846,374150,1414,1943.6288356781006,47.481021881103516,,8.989856719970703,0.64,47.4285774230957,47.244171142578125,0.8217925429344177
372,MetaDrive-Tut-5Env-v0,192,313.9482977732898,375180,1416,1949.8771135807037,45.377296447753906,,9.888328552246094,0.64,45.35715866088867,45.46739196777344,0.7421350479125977
373,MetaDrive-Tut-5Env-v0,192,322.29085410037345,376308,1419,1956.9988322257996,44.87631607055664,,33.62959289550781,0.67,45.014305114746094,45.166954040527344,0.8001984357833862
374,MetaDrive-Tut-5Env-v0,192,316.8232638221171,377274,1422,1962.0762281417847,46.59801483154297,,12.739175796508789,0.67,46.74890899658203,46.707275390625,0.8070151805877686
375,MetaDrive-Tut-5Env-v0,192,318.25643251587525,378097,1424,1967.0454139709473,48.920860290527344,-48.73484420776367,9.305294036865234,0.68,48.822269439697266,49.108116149902344,0.8502248525619507
376,MetaDrive-Tut-5Env-v0,192,318.5582902938105,379244,1427,1973.5467298030853,47.01469421386719,,29.65896224975586,0.67,48.26206970214844,47.460044860839844,0.7945774793624878
377,MetaDrive-Tut-5Env-v0,192,320.66592956369834,380318,1429,1979.2195754051208,45.88471603393555,,13.695330619812012,0.68,45.698970794677734,46.5540771484375,0.814821183681488
378,MetaDrive-Tut-5Env-v0,192,319.2545099597779,381028,1431,1983.3411157131195,45.473655700683594,,9.9119234085083,0.68,45.37736129760742,45.42538833618164,0.8456196784973145
379,MetaDrive-Tut-5Env-v0,192,320.4397904349563,382149,1434,1989.3504490852356,43.160213470458984,-43.18785858154297,7.581164360046387,0.69,43.24750900268555,43.006500244140625,0.7502689361572266
380,MetaDrive-Tut-5Env-v0,192,319.4431846722402,383027,1436,1993.754459142685,44.42118835449219,-45.28192901611328,12.591907501220703,0.69,45.320167541503906,44.50025939941406,0.7729353904724121
381,MetaDrive-Tut-5Env-v0,192,318.22675236602043,384062,1439,1999.0935389995575,45.60605239868164,,25.76715087890625,0.68,46.0870361328125,45.95587158203125,0.8101174831390381
382,MetaDrive-Tut-5Env-v0,192,316.99373712265066,385441,1442,2005.9263422489166,44.51879119873047,-45.60658645629883,9.936019897460938,0.69,45.50447082519531,45.02598571777344,0.7684283256530762
383,MetaDrive-Tut-5Env-v0,192,316.4834569745657,386034,1443,2008.9555146694183,46.04792785644531,,7.283082008361816,0.69,45.511905670166016,45.37518310546875,0.8386298418045044
384,MetaDrive-Tut-5Env-v0,192,311.09467410926226,387242,1448,2015.589597940445,47.620506286621094,,7.867617607116699,0.66,47.731849670410156,47.063560485839844,0.8263580203056335
385,MetaDrive-Tut-5Env-v0,192,315.47396966782054,388324,1450,2021.0647776126862,45.4481201171875,,10.938690185546875,0.67,45.80680847167969,45.478721618652344,0.80666583776474
386,MetaDrive-Tut-5Env-v0,192,314.7261653198888,389162,1452,2024.8168709278107,44.33501434326172,,21.062223434448242,0.69,43.563140869140625,43.8346061706543,0.7570266127586365
387,MetaDrive-Tut-5Env-v0,192,313.1909428138463,390319,1454,2031.7033717632294,43.813446044921875,-44.33789825439453,9.598630905151367,0.69,43.71357727050781,44.171085357666016,0.7776075601577759
388,MetaDrive-Tut-5Env-v0,192,312.5054094865853,391374,1457,2036.679518699646,43.95950698852539,,9.640979766845703,0.69,43.444496154785156,43.87669372558594,0.7381263971328735
389,MetaDrive-Tut-5Env-v0,192,314.03142355871677,392528,1459,2043.472850561142,45.819190979003906,,8.279990196228027,0.69,45.04294967651367,46.21324920654297,0.8172763586044312
390,MetaDrive-Tut-5Env-v0,192,306.21300506406305,393224,1463,2047.1370115280151,45.931846618652344,,9.339456558227539,0.67,45.39854431152344,45.08839416503906,0.7958880662918091
391,MetaDrive-Tut-5Env-v0,192,302.06009152632663,394305,1467,2052.704495191574,45.838356018066406,-46.334266662597656,13.545230865478516,0.69,44.587074279785156,44.92603302001953,0.8521825075149536
392,MetaDrive-Tut-5Env-v0,192,299.79362247819677,395459,1470,2058.3172373771667,44.21778106689453,-44.765296936035156,9.84178352355957,0.69,44.602325439453125,44.990447998046875,0.822995662689209
393,MetaDrive-Tut-5Env-v0,192,303.33708221734986,396546,1472,2064.4311192035675,44.344051361083984,,10.761130332946777,0.71,44.981834411621094,44.82558059692383,0.7993875741958618
394,MetaDrive-Tut-5Env-v0,192,303.63673882685225,397130,1474,2067.3384952545166,46.1213264465332,,9.903958320617676,0.71,45.44927215576172,45.64195251464844,0.890594482421875
395,MetaDrive-Tut-5Env-v0,192,304.0360225984746,398079,1476,2071.936515569687,48.95052719116211,-48.87562561035156,9.01386833190918,0.72,48.74180603027344,48.7771110534668,0.8571802377700806
396,MetaDrive-Tut-5Env-v0,192,308.88178308993184,399078,1478,2077.5267190933228,45.17999267578125,,8.630626678466797,0.74,45.63763427734375,45.316612243652344,0.8088861703872681
397,MetaDrive-Tut-5Env-v0,192,309.86413853460624,400062,1480,2082.677703857422,45.74007797241211,,13.986394882202148,0.74,44.86669158935547,45.730525970458984,0.827867329120636
398,MetaDrive-Tut-5Env-v0,191,307.14762870146757,401143,1483,2089.552954673767,46.21437072753906,-46.66331100463867,8.30994987487793,0.73,45.93829345703125,46.057918548583984,0.812126874923706
399,MetaDrive-Tut-5Env-v0,191,310.10065882516983,402169,1485,2095.0749974250793,44.51813888549805,-44.41301727294922,30.359901428222656,0.74,44.282691955566406,44.26741409301758,0.8329427242279053
400,MetaDrive-Tut-5Env-v0,191,313.6433935052987,403179,1487,2100.393214941025,46.308685302734375,-47.41399383544922,21.57828140258789,0.76,46.16123962402344,46.50386428833008,0.7559762001037598
401,MetaDrive-Tut-5Env-v0,191,313.7495713510191,404007,1489,2104.6496152877808,45.56604766845703,-46.79377365112305,5.459853172302246,0.77,45.7400016784668,45.803009033203125,0.8089562654495239
402,MetaDrive-Tut-5Env-v0,191,311.13182344593196,405061,1492,2109.782798051834,43.03794860839844,-43.555335998535156,9.556245803833008,0.77,43.689453125,43.707733154296875,0.8319826126098633
403,MetaDrive-Tut-5Env-v0,192,310.1462577565645,406005,1495,2114.519636154175,46.14852523803711,-46.229225158691406,9.684051513671875,0.77,46.63667678833008,46.821144104003906,0.8411140441894531
404,MetaDrive-Tut-5Env-v0,192,313.04585276930374,407353,1498,2121.2759506702423,44.84934997558594,-45.67637634277344,8.304722785949707,0.78,44.89041519165039,45.166053771972656,0.7945218682289124
405,MetaDrive-Tut-5Env-v0,191,312.8490479799561,408259,1500,2126.5640847682953,43.28877258300781,-44.38890075683594,6.960169792175293,0.78,43.596839904785156,43.62641906738281,0.8710008859634399
406,MetaDrive-Tut-5Env-v0,191,311.7625049760996,409402,1503,2133.206949234009,44.77659606933594,,7.279417991638184,0.79,44.26568603515625,44.82102584838867,0.826995849609375
407,MetaDrive-Tut-5Env-v0,191,311.750960996206,410430,1505,2138.7478783130646,45.197120666503906,,9.737382888793945,0.79,45.692291259765625,45.7041015625,0.849158525466919
408,MetaDrive-Tut-5Env-v0,191,311.28916289361905,411017,1506,2142.0650782585144,44.03649139404297,-44.36315155029297,13.31623649597168,0.79,44.563743591308594,44.633880615234375,0.8182464838027954
409,MetaDrive-Tut-5Env-v0,191,311.80924858014583,412501,1510,2150.003027677536,46.05311965942383,-47.214813232421875,6.2794084548950195,0.79,46.19218826293945,46.905982971191406,0.7669754028320312
410,MetaDrive-Tut-5Env-v0,191,312.600999470929,413071,1511,2152.856098175049,43.952335357666016,-44.299617767333984,8.401774406433105,0.8,43.894065856933594,43.510372161865234,0.8140140771865845
411,MetaDrive-Tut-5Env-v0,191,316.4207273454395,414410,1513,2159.407433986664,42.13962173461914,,32.996864318847656,0.82,42.34916687011719,42.62242126464844,0.8325505256652832
412,MetaDrive-Tut-5Env-v0,191,315.48038795705935,415411,1515,2164.5390853881836,45.010231018066406,-45.307098388671875,7.637415409088135,0.82,45.03007507324219,45.293548583984375,0.8043968081474304
413,MetaDrive-Tut-5Env-v0,191,314.6981795756999,416301,1518,2168.917243003845,43.00444030761719,-43.313819885253906,8.411840438842773,0.82,42.60423278808594,42.753028869628906,0.9546496868133545
414,MetaDrive-Tut-5Env-v0,191,313.46868469586366,417125,1520,2173.333370923996,45.0840950012207,-44.92411804199219,8.31764030456543,0.82,44.858360290527344,44.86972427368164,0.8058711290359497
415,MetaDrive-Tut-5Env-v0,191,316.0379239441603,418390,1523,2180.8334016799927,43.04505920410156,,6.225520133972168,0.82,43.210514068603516,43.01473617553711,0.79237961769104
416,MetaDrive-Tut-5Env-v0,191,313.8183036176242,419306,1526,2185.3662939071655,44.717552185058594,,12.363082885742188,0.81,43.074058532714844,43.47389602661133,0.8368343114852905
417,MetaDrive-Tut-5Env-v0,191,312.45543751249585,420465,1529,2191.4129564762115,42.86112594604492,-43.76771545410156,8.115029335021973,0.82,43.2003173828125,43.27667236328125,0.8491257429122925
418,MetaDrive-Tut-5Env-v0,191,310.8783654863005,421011,1531,2194.1239902973175,46.042301177978516,-46.4934196472168,9.148448944091797,0.83,45.91700744628906,45.66545486450195,0.907439649105072
419,MetaDrive-Tut-5Env-v0,191,309.6757775619074,422342,1535,2200.653332233429,45.79228973388672,,9.865527153015137,0.83,46.730716705322266,46.91769790649414,0.8417869806289673
420,MetaDrive-Tut-5Env-v0,191,312.2541807469231,423446,1537,2206.9592866897583,44.577117919921875,,18.779088973999023,0.83,45.04328155517578,44.928314208984375,0.7958670854568481
421,MetaDrive-Tut-5Env-v0,191,313.67752873905886,424068,1539,2210.24085855484,45.786293029785156,,8.655065536499023,0.85,46.35993576049805,46.7273063659668,0.8151340484619141
422,MetaDrive-Tut-5Env-v0,191,312.9342019447722,425263,1542,2216.221446990967,45.30810546875,-44.90790557861328,7.109809875488281,0.85,45.08598327636719,45.05304718017578,0.7786738276481628
423,MetaDrive-Tut-5Env-v0,191,314.92880935346903,426375,1544,2222.2499516010284,42.83907699584961,-43.61009216308594,15.126510620117188,0.85,41.92019271850586,42.381431579589844,0.7513073682785034
424,MetaDrive-Tut-5Env-v0,191,318.261472413527,427219,1546,2226.49205327034,43.11798858642578,-43.333274841308594,12.597143173217773,0.87,43.851905822753906,43.567779541015625,0.7405512928962708
425,MetaDrive-Tut-5Env-v0,191,321.90442429494766,428405,1548,2233.251275539398,44.266239166259766,-44.0894775390625,6.193807601928711,0.88,43.68050003051758,43.85127258300781,0.7869306802749634
426,MetaDrive-Tut-5Env-v0,191,323.4349505159578,429534,1550,2240.0767114162445,45.5609245300293,,7.570771217346191,0.88,44.91862106323242,45.24761962890625,0.7277005910873413
427,MetaDrive-Tut-5Env-v0,191,325.7551448810125,430112,1551,2243.8463265895844,45.37137222290039,,25.945886611938477,0.88,46.20326614379883,46.105865478515625,0.7796046733856201
428,MetaDrive-Tut-5Env-v0,191,321.35871111458937,431276,1556,2250.213494539261,45.87091827392578,,7.388247489929199,0.86,45.32964324951172,45.354217529296875,0.7901199460029602
429,MetaDrive-Tut-5Env-v0,191,317.3970647008591,432526,1559,2257.338206768036,46.78568649291992,,5.449469089508057,0.85,47.149993896484375,47.198997497558594,0.8295571804046631
430,MetaDrive-Tut-5Env-v0,191,320.2447712261568,433044,1560,2260.1310098171234,43.77818298339844,,8.919561386108398,0.86,43.5660400390625,43.27074432373047,0.908835232257843
431,MetaDrive-Tut-5Env-v0,191,321.9717785046657,434079,1563,2265.8880372047424,43.707244873046875,-44.14636993408203,13.026098251342773,0.87,43.24878692626953,42.81959533691406,0.8530513048171997
432,MetaDrive-Tut-5Env-v0,191,327.382759180895,435304,1565,2272.7509558200836,45.62702178955078,,20.579933166503906,0.88,45.925437927246094,45.49879837036133,0.7543462514877319
433,MetaDrive-Tut-5Env-v0,191,328.3117712378908,436145,1567,2277.1665272712708,45.184974670410156,-45.33019256591797,7.370275497436523,0.88,44.75776290893555,44.769691467285156,0.8113328218460083
434,MetaDrive-Tut-5Env-v0,191,330.6252302255626,437107,1569,2283.210727930069,43.04350280761719,-44.05415344238281,9.101266860961914,0.88,42.93811798095703,43.402198791503906,0.7914426326751709
435,MetaDrive-Tut-5Env-v0,191,326.6429603656397,438137,1572,2289.7195959091187,45.438392639160156,-45.72570037841797,8.270228385925293,0.87,45.75684356689453,45.74236297607422,0.8304997086524963
436,MetaDrive-Tut-5Env-v0,191,328.062115225806,439377,1574,2295.4687457084656,43.59027099609375,-44.37602233886719,6.436567306518555,0.88,44.04876708984375,43.950927734375,0.787803053855896
437,MetaDrive-Tut-5Env-v0,191,327.07991935793336,440530,1577,2301.284441947937,43.488033294677734,,16.468774795532227,0.87,43.60877227783203,43.75507354736328,0.7465271949768066
438,MetaDrive-Tut-5Env-v0,191,325.5168212053377,441019,1578,2303.8787846565247,43.294837951660156,-43.728267669677734,6.933335304260254,0.87,43.883277893066406,43.48505401611328,0.7986800670623779
439,MetaDrive-Tut-5Env-v0,191,323.9249074261693,442450,1580,2311.2912290096283,44.60981750488281,,7.539505958557129,0.86,44.81611251831055,44.798458099365234,0.8141680359840393
440,MetaDrive-Tut-5Env-v0,191,324.0544057027596,443094,1582,2314.4135735034943,43.04121398925781,,12.604564666748047,0.87,42.220733642578125,42.06532669067383,0.7816272974014282
441,MetaDrive-Tut-5Env-v0,191,319.50274322215876,444105,1585,2319.329925298691,44.11834716796875,-44.29536437988281,7.605603218078613,0.87,43.04545593261719,43.24525451660156,0.8154633045196533
442,MetaDrive-Tut-5Env-v0,191,319.18500694488347,445686,1587,2327.585479259491,42.503658294677734,,7.599599361419678,0.85,43.05082702636719,42.59714126586914,0.7777438163757324
443,MetaDrive-Tut-5Env-v0,191,319.18368416018416,446466,1588,2331.5798754692078,44.67680740356445,,9.267021179199219,0.85,44.555580139160156,44.80598449707031,0.7624175548553467
444,MetaDrive-Tut-5Env-v0,191,319.3991527802483,447467,1589,2336.4476063251495,43.234458923339844,-44.038902282714844,6.739776134490967,0.84,43.89991760253906,43.404258728027344,0.805851936340332
445,MetaDrive-Tut-5Env-v0,191,321.68872484411463,448085,1590,2340.3972115516663,45.2197151184082,-44.947105407714844,9.542927742004395,0.84,45.87422180175781,46.41218948364258,0.7890292406082153
446,MetaDrive-Tut-5Env-v0,191,325.2270950608708,449219,1593,2346.948098182678,45.342750549316406,-45.23314666748047,10.510268211364746,0.86,45.349002838134766,45.055641174316406,0.9223878383636475
447,MetaDrive-Tut-5Env-v0,191,325.05519874895754,450492,1595,2353.05193400383,41.62610626220703,,6.029752731323242,0.85,41.88381576538086,41.803863525390625,0.7299710512161255
448,MetaDrive-Tut-5Env-v0,191,327.36140797172266,451116,1596,2356.9061930179596,45.12248229980469,,8.684403419494629,0.85,44.83481216430664,45.090179443359375,0.8394920229911804
449,MetaDrive-Tut-5Env-v0,191,330.0977185307886,452888,1598,2366.9295897483826,44.85850524902344,,8.011468887329102,0.86,46.07666015625,45.33318328857422,0.84316486120224
450,MetaDrive-Tut-5Env-v0,191,327.03026924363627,453639,1600,2370.5876207351685,41.57648468017578,-41.72233581542969,12.512771606445312,0.85,41.91883850097656,42.305076599121094,0.7116340398788452
451,MetaDrive-Tut-5Env-v0,191,328.52703992808665,454137,1601,2373.1596536636353,45.94379806518555,-45.84149932861328,10.884838104248047,0.85,46.4968147277832,46.32847213745117,0.7677410840988159
452,MetaDrive-Tut-5Env-v0,191,327.295599473996,455354,1604,2380.7064352035522,43.42657470703125,,8.78663444519043,0.85,44.664695739746094,44.12356185913086,0.7646452784538269
453,MetaDrive-Tut-5Env-v0,191,326.3090165734756,456050,1605,2384.1844091415405,44.247039794921875,,12.576736450195312,0.85,44.701560974121094,45.079288482666016,0.7294352650642395
454,MetaDrive-Tut-5Env-v0,191,330.9770850816922,457583,1608,2392.710877418518,44.23651123046875,-43.77595520019531,8.36397933959961,0.86,43.43178176879883,43.916744232177734,0.862640380859375
455,MetaDrive-Tut-5Env-v0,191,331.44304425737465,458095,1609,2395.262636423111,44.526824951171875,-45.881832122802734,8.7100830078125,0.86,43.829307556152344,43.66558074951172,0.7687247395515442
456,MetaDrive-Tut-5Env-v0,191,332.51417079451045,459200,1611,2400.966143131256,43.37731170654297,,11.75032901763916,0.86,43.3145751953125,43.16938781738281,0.7870572209358215
457,MetaDrive-Tut-5Env-v0,191,334.58780014916783,460349,1613,2408.1770000457764,44.01475143432617,-44.09786605834961,12.47532844543457,0.86,43.318275451660156,44.04804229736328,0.7831358909606934
458,MetaDrive-Tut-5Env-v0,191,336.4102384056205,461406,1615,2413.6883487701416,42.77924346923828,,13.561578750610352,0.85,43.398963928222656,42.50774383544922,0.813473105430603
459,MetaDrive-Tut-5Env-v0,191,334.39349493554596,462151,1618,2417.3889558315277,44.738304138183594,-44.99946975708008,8.69493579864502,0.84,44.677093505859375,44.91062927246094,0.7535734176635742
460,MetaDrive-Tut-5Env-v0,191,335.8167321941562,463223,1620,2423.504647254944,45.76800537109375,-46.307559967041016,27.761871337890625,0.84,45.78734588623047,46.27360153198242,0.7843954563140869
461,MetaDrive-Tut-5Env-v0,191,338.1017733209103,464166,1622,2429.207857131958,41.748260498046875,,8.857658386230469,0.84,42.429176330566406,42.086212158203125,0.8270777463912964
462,MetaDrive-Tut-5Env-v0,191,338.5773702536682,465258,1625,2435.4916508197784,42.07416915893555,,10.555414199829102,0.84,42.079071044921875,41.60015869140625,0.7724598050117493
463,MetaDrive-Tut-5Env-v0,190,340.5879858210982,466370,1627,2442.51562666893,44.44970703125,,6.657413482666016,0.84,43.79396057128906,44.19322967529297,0.8032700419425964
464,MetaDrive-Tut-5Env-v0,190,343.9803873896498,467551,1629,2450.731863975525,45.61988067626953,-46.475521087646484,6.04107141494751,0.84,45.555572509765625,44.86155700683594,0.7438185214996338
465,MetaDrive-Tut-5Env-v0,190,345.4990310184644,468068,1630,2453.7525370121,43.912025451660156,,10.79384994506836,0.84,44.412025451660156,43.79475402832031,0.768714427947998
466,MetaDrive-Tut-5Env-v0,190,348.8436790823991,469381,1633,2462.388880252838,42.49623489379883,-42.63909149169922,10.579301834106445,0.82,41.95685577392578,42.275081634521484,0.8389934301376343
467,MetaDrive-Tut-5Env-v0,190,348.6066743206133,470087,1635,2466.9964101314545,42.5319709777832,-42.344974517822266,12.135316848754883,0.81,42.34772491455078,41.920692443847656,0.7287130355834961
468,MetaDrive-Tut-5Env-v0,190,348.02780653562127,471152,1637,2473.344434261322,43.915584564208984,,26.48615837097168,0.81,43.73234176635742,43.750396728515625,0.7462940216064453
469,MetaDrive-Tut-5Env-v0,190,347.509378470635,472188,1640,2480.1921679973602,43.185691833496094,,10.870991706848145,0.8,44.26718521118164,44.0731201171875,0.7590827941894531
470,MetaDrive-Tut-5Env-v0,190,346.5584370288722,473214,1643,2485.905952692032,43.760597229003906,,6.245796203613281,0.8,43.519325256347656,44.12108612060547,0.8169407248497009
471,MetaDrive-Tut-5Env-v0,190,345.282774407176,474091,1645,2490.479684114456,43.058433532714844,-43.2714958190918,8.197698593139648,0.8,43.49618148803711,42.86808776855469,0.8083226084709167
472,MetaDrive-Tut-5Env-v0,190,342.9430561444204,475194,1648,2496.595801591873,41.77535629272461,,8.652820587158203,0.79,41.58733367919922,41.48942565917969,0.7631756067276001
473,MetaDrive-Tut-5Env-v0,190,336.89865763396904,476149,1651,2502.6166508197784,46.657997131347656,-46.883365631103516,7.0163493156433105,0.77,45.818302154541016,46.065311431884766,0.7668684124946594
474,MetaDrive-Tut-5Env-v0,190,343.7046594889247,477222,1653,2508.4569466114044,44.955780029296875,,7.888613700866699,0.78,44.6746826171875,44.61334228515625,0.814847469329834
475,MetaDrive-Tut-5Env-v0,190,343.82592523776833,478417,1656,2514.7741487026215,43.20960998535156,-43.508689880371094,15.746792793273926,0.79,42.645790100097656,43.023826599121094,0.7854298949241638
476,MetaDrive-Tut-5Env-v0,190,345.4416294607958,479304,1658,2519.680452108383,44.948883056640625,,7.641273021697998,0.78,44.38469696044922,44.62189483642578,0.7980043888092041
477,MetaDrive-Tut-5Env-v0,190,344.420444957272,480155,1660,2525.4458527565002,41.904422760009766,-43.09636688232422,9.593769073486328,0.78,41.864715576171875,41.53083801269531,0.7986525893211365
478,MetaDrive-Tut-5Env-v0,190,343.6776562335064,481226,1663,2531.9474053382874,46.15892028808594,,5.606135368347168,0.76,46.61627960205078,46.449623107910156,0.860499918460846
479,MetaDrive-Tut-5Env-v0,190,341.6865138306173,482079,1665,2536.68243598938,41.71492004394531,-42.978111267089844,6.058877944946289,0.76,41.98523712158203,41.62833786010742,0.7559757232666016
480,MetaDrive-Tut-5Env-v0,190,341.64230083522665,483049,1667,2542.2699208259583,45.368919372558594,-44.901336669921875,7.831230163574219,0.74,45.36286926269531,45.75543975830078,0.8343696594238281
481,MetaDrive-Tut-5Env-v0,189,341.89713277057564,484190,1669,2548.6989727020264,42.671077728271484,,10.869964599609375,0.73,42.53818130493164,42.47612762451172,0.7567880153656006
482,MetaDrive-Tut-5Env-v0,189,343.20389409357335,485491,1672,2557.2165009975433,44.41150665283203,-44.502628326416016,7.778296947479248,0.71,45.08871078491211,44.728790283203125,0.8095271587371826
483,MetaDrive-Tut-5Env-v0,189,343.56198829967536,486036,1673,2560.41166472435,42.9913444519043,,5.836118221282959,0.7,43.0013427734375,43.178565979003906,0.7479033470153809
484,MetaDrive-Tut-5Env-v0,189,340.34751287849946,487099,1677,2565.8070170879364,43.95513153076172,-43.72515869140625,9.250723838806152,0.69,43.40662384033203,43.64553451538086,0.7926134467124939
485,MetaDrive-Tut-5Env-v0,189,340.1416100223741,488048,1679,2571.138021469116,42.865638732910156,,5.991339206695557,0.67,42.10468292236328,42.400146484375,0.8285147547721863
486,MetaDrive-Tut-5Env-v0,189,341.41897946617485,489119,1681,2577.7824277877808,42.460777282714844,-43.12273406982422,7.059571743011475,0.67,43.145164489746094,42.91584777832031,0.7797741293907166
487,MetaDrive-Tut-5Env-v0,189,340.90780696381626,490194,1684,2583.6959075927734,46.576786041259766,,4.867005825042725,0.65,47.038818359375,47.00493621826172,0.8635067939758301
488,MetaDrive-Tut-5Env-v0,189,336.4602770623621,491049,1687,2588.2781336307526,44.30652618408203,-45.18523025512695,6.775411128997803,0.65,44.92648696899414,44.720863342285156,0.7970131635665894
489,MetaDrive-Tut-5Env-v0,189,337.3924338438659,492039,1689,2594.555865049362,42.53074645996094,-42.84355545043945,6.812709808349609,0.66,42.14282989501953,41.60036087036133,0.8103950619697571
490,MetaDrive-Tut-5Env-v0,189,337.73606453190337,493361,1692,2602.5100877285004,43.58839416503906,-44.21521759033203,5.512948989868164,0.66,43.870452880859375,43.04967498779297,0.8066743612289429
491,MetaDrive-Tut-5Env-v0,189,337.657751998551,494163,1694,2607.0438144207,43.06376647949219,-44.04830551147461,5.468479156494141,0.65,43.23869323730469,43.33843231201172,0.7519867420196533
492,MetaDrive-Tut-5Env-v0,189,332.73976324112425,495256,1697,2612.8749663829803,44.200599670410156,,6.768536567687988,0.66,44.436851501464844,44.2629508972168,0.8589555025100708
493,MetaDrive-Tut-5Env-v0,189,334.2158196664807,496319,1699,2618.769376516342,43.97769546508789,-44.11219787597656,6.673633575439453,0.66,44.170372009277344,44.5793342590332,0.8043708205223083
494,MetaDrive-Tut-5Env-v0,189,331.74055974082796,497359,1702,2624.572739839554,41.370609283447266,-41.971160888671875,12.006643295288086,0.65,41.57425308227539,41.255760192871094,0.7685064673423767
495,MetaDrive-Tut-5Env-v0,189,329.5336328910043,498111,1704,2629.067816734314,44.04106140136719,-44.62910461425781,20.684404373168945,0.64,42.64265060424805,43.17280197143555,0.8492110967636108
496,MetaDrive-Tut-5Env-v0,189,329.1041978241672,499336,1707,2635.807454109192,44.61271667480469,,5.964367866516113,0.62,44.989322662353516,45.0212287902832,0.7560921907424927
