CAWorks-ChrisA/ActorCriticSummarization/Pendulum-v1/td3/progress.csv
,log_dir,frame_per_second,episode_reward,total_steps,total_episodes,total_time,actor_loss,critic_loss,target_q,current_q1,current_q2,reward
0,Pendulum-v1,1658,-1351.5991595123812,1199,6,0.7228727340698242,9.047677993774414,0.7082546353340149,-9.192455291748047,-9.230330467224121,-9.234933853149414,-6.676523208618164
1,Pendulum-v1,673,-1438.520593205774,2199,11,3.2650160789489746,24.14760971069336,2.5323123931884766,-24.207246780395508,-24.34316635131836,-24.322063446044922,-7.268492698669434
2,Pendulum-v1,538,-1428.9462219441275,3199,16,5.937201499938965,39.494529724121094,20.079612731933594,-39.75703430175781,-39.3072509765625,-39.35796356201172,-7.0987324714660645
3,Pendulum-v1,484,-1353.3064939116946,4199,21,8.659557580947876,51.79974365234375,1.1243995428085327,-52.601661682128906,-52.116268157958984,-52.08644104003906,-6.682537078857422
4,Pendulum-v1,461,-1318.8952313925133,5199,26,11.25948429107666,64.80081176757812,37.191253662109375,-65.77726745605469,-65.59669494628906,-65.66383361816406,-6.747773170471191
5,Pendulum-v1,448,-1236.4681853924174,6199,31,13.818894386291504,73.07510375976562,80.03582000732422,-74.2662582397461,-73.71916198730469,-73.76240539550781,-6.696114540100098
6,Pendulum-v1,438,-1169.0217701522392,7199,36,16.41248106956482,79.72875213623047,162.79437255859375,-80.0550537109375,-80.75309753417969,-80.9481201171875,-6.123998641967773
7,Pendulum-v1,431,-1098.2990907197648,8199,41,19.01339364051819,85.70408630371094,63.37615966796875,-86.81880187988281,-86.74739074707031,-86.8368911743164,-5.692195415496826
8,Pendulum-v1,424,-1017.8782040996701,9199,46,21.657546043395996,85.80994415283203,202.5090789794922,-87.58148956298828,-87.91862487792969,-88.13397216796875,-5.392539024353027
9,Pendulum-v1,420,-933.4973031692978,10199,51,24.23841142654419,87.2833023071289,13.494179725646973,-90.24430084228516,-88.34685516357422,-88.45755004882812,-4.689253807067871
10,Pendulum-v1,416,-867.6901444011364,11199,56,26.87380838394165,81.72496032714844,5.552009582519531,-83.3077621459961,-82.89974975585938,-82.82327270507812,-4.254878997802734
11,Pendulum-v1,413,-810.5664335006618,12199,61,29.489710569381714,83.51014709472656,19.024932861328125,-85.25796508789062,-85.24385070800781,-85.10127258300781,-3.9247703552246094
12,Pendulum-v1,411,-760.3711518143359,13199,66,32.09914708137512,75.13880920410156,16.050901412963867,-76.2425537109375,-76.0699462890625,-76.04457092285156,-3.3532400131225586
13,Pendulum-v1,409,-734.4674652492379,14199,71,34.71236062049866,80.80245208740234,199.38937377929688,-81.25608825683594,-82.63264465332031,-82.7696762084961,-3.4940378665924072
14,Pendulum-v1,405,-696.0522917305896,15199,76,37.47844338417053,88.69773864746094,12.463434219360352,-90.55293273925781,-89.41059875488281,-89.035888671875,-3.58642840385437
15,Pendulum-v1,402,-660.5595566509843,16199,81,40.235106468200684,71.38990020751953,113.23985290527344,-73.31914520263672,-72.64759826660156,-72.83197021484375,-2.9125776290893555
16,Pendulum-v1,401,-626.399200436598,17199,86,42.88651752471924,72.73405456542969,634.7073974609375,-73.09530639648438,-75.00923156738281,-74.99687194824219,-2.760810136795044
17,Pendulum-v1,399,-604.8616560280426,18199,91,45.529059648513794,87.72216033935547,12.540056228637695,-89.22477722167969,-90.24946594238281,-89.98786926269531,-3.3125648498535156
18,Pendulum-v1,399,-584.6871548734612,19199,96,48.10753607749939,65.48955535888672,9.8663330078125,-67.793701171875,-67.61428833007812,-67.65660095214844,-2.599370241165161
19,Pendulum-v1,398,-555.060787001451,20199,101,50.70513868331909,75.08967590332031,15.40814208984375,-77.0250244140625,-75.87246704101562,-75.81818389892578,-2.8207266330718994
20,Pendulum-v1,397,-496.81926810276656,21199,106,53.29255557060242,66.62721252441406,9.199031829833984,-69.0472183227539,-69.46231079101562,-69.16505432128906,-2.5724546909332275
21,Pendulum-v1,396,-430.8510981512058,22199,111,56.02393889427185,63.87016296386719,9.662742614746094,-65.76622009277344,-65.18809509277344,-65.2298355102539,-2.3913450241088867
22,Pendulum-v1,395,-366.50258403592045,23199,116,58.671074628829956,73.10829162597656,21.134185791015625,-74.89390563964844,-76.08489990234375,-75.78880310058594,-2.760300397872925
23,Pendulum-v1,393,-319.17246928560365,24199,121,61.46931576728821,69.66908264160156,11.803004264831543,-71.81352996826172,-71.83070373535156,-71.7641830444336,-2.669375419616699
24,Pendulum-v1,392,-267.60890383968217,25199,126,64.22738361358643,64.76158905029297,9.24435806274414,-66.88520812988281,-66.48976135253906,-66.44534301757812,-2.450984001159668
25,Pendulum-v1,391,-236.82887357816261,26199,131,66.93409132957458,57.54563903808594,445.6379699707031,-59.155330657958984,-59.58675003051758,-59.76784133911133,-2.2983856201171875
26,Pendulum-v1,391,-206.47176437937685,27199,136,69.55361270904541,55.01910400390625,12.380366325378418,-58.060768127441406,-56.63661575317383,-56.93840026855469,-2.148684024810791
27,Pendulum-v1,390,-185.6281407180812,28199,141,72.16422367095947,53.16282272338867,7.7160444259643555,-54.569236755371094,-55.185123443603516,-54.99830627441406,-1.8733140230178833
28,Pendulum-v1,390,-174.96044205659257,29199,146,74.79769778251648,65.06681060791016,13.639592170715332,-67.07918548583984,-66.64595794677734,-66.7122573852539,-2.5592803955078125
29,Pendulum-v1,389,-178.7827809414049,30199,151,77.47905707359314,60.762229919433594,8.163808822631836,-62.25868606567383,-61.93194580078125,-61.827056884765625,-2.2344930171966553
30,Pendulum-v1,389,-179.58155620214885,31199,156,80.13899850845337,50.63933181762695,7.980114936828613,-51.525299072265625,-51.705814361572266,-51.66938781738281,-1.7506725788116455
31,Pendulum-v1,388,-178.41686342295534,32199,161,82.79041934013367,55.95363235473633,60.61914825439453,-56.823890686035156,-57.27979278564453,-57.76081085205078,-2.007294178009033
32,Pendulum-v1,388,-178.28731150842438,33199,166,85.53594493865967,56.041839599609375,489.7704772949219,-56.68975067138672,-57.535736083984375,-57.70335006713867,-2.100040912628174
33,Pendulum-v1,387,-167.79162942715723,34199,171,88.2818853855133,52.428741455078125,310.40985107421875,-53.57392120361328,-54.675071716308594,-54.627708435058594,-2.1200618743896484
34,Pendulum-v1,387,-171.41205325416905,35199,176,90.94288110733032,53.45526885986328,8.026708602905273,-54.76974868774414,-54.68752670288086,-55.05253601074219,-2.0951731204986572
35,Pendulum-v1,386,-176.6886780322813,36199,181,93.64352750778198,43.50828552246094,176.9715576171875,-43.85382843017578,-44.54703903198242,-44.51911163330078,-1.7435224056243896
36,Pendulum-v1,386,-179.24303348478313,37199,186,96.29227781295776,48.104923248291016,7.979002952575684,-49.672298431396484,-49.55254364013672,-49.689781188964844,-1.778735637664795
37,Pendulum-v1,385,-175.93440320796608,38199,191,99.00893902778625,47.36968231201172,8.654800415039062,-48.54113006591797,-48.988311767578125,-48.56525421142578,-1.8884779214859009
38,Pendulum-v1,385,-172.41682188672436,39199,196,101.65753960609436,45.500953674316406,6.29947566986084,-46.86543655395508,-47.29351806640625,-47.07809066772461,-1.8337125778198242
39,Pendulum-v1,385,-170.34453609911117,40199,201,104.31105160713196,49.27582550048828,214.82418823242188,-49.77232360839844,-50.558990478515625,-50.48693084716797,-2.062857151031494
40,Pendulum-v1,385,-169.66401233714112,41199,206,106.9893651008606,46.359046936035156,6.440998077392578,-47.88346862792969,-47.936798095703125,-48.09120178222656,-1.759145975112915
41,Pendulum-v1,384,-164.80279669230617,42199,211,109.66288709640503,42.13157653808594,8.071830749511719,-43.40040969848633,-43.044166564941406,-43.06971740722656,-1.7045197486877441
42,Pendulum-v1,384,-169.92665726641746,43199,216,112.39850759506226,49.09562301635742,5.819250583648682,-50.136512756347656,-49.957435607910156,-50.25315856933594,-2.0092804431915283
43,Pendulum-v1,383,-169.1107404450212,44199,221,115.14820790290833,45.20210266113281,450.18939208984375,-45.75178527832031,-46.44861602783203,-46.477561950683594,-1.5924606323242188
44,Pendulum-v1,383,-169.65988171961692,45199,226,117.75942730903625,41.96954345703125,170.16519165039062,-42.179744720458984,-43.144935607910156,-43.22273254394531,-1.5952720642089844
45,Pendulum-v1,383,-167.68732495930692,46199,231,120.34466910362244,40.38770294189453,6.002219200134277,-41.432037353515625,-41.564788818359375,-41.619659423828125,-1.639870524406433
46,Pendulum-v1,383,-171.60120240542906,47199,236,122.9554009437561,38.41101837158203,3.426149368286133,-40.01918029785156,-39.86225509643555,-39.544532775878906,-1.5580862760543823
47,Pendulum-v1,383,-171.76050719376056,48199,241,125.57676768302917,35.31782150268555,4.867984294891357,-36.13533020019531,-36.261558532714844,-36.24315643310547,-1.3786234855651855
48,Pendulum-v1,383,-174.46824176182673,49199,246,128.24361872673035,42.969757080078125,8.723233222961426,-44.42256546020508,-44.12770080566406,-44.05931091308594,-1.871436595916748
